; generated by PrusaSlicer 2.5.2+win64 on 2023-05-06 at 14:59:42 UTC


;
;

;
;
; 

; external perimeters extrusion width = 0.45mm
; perimeters extrusion width = 0.45mm
; infill extrusion width = 0.45mm
; solid infill extrusion width = 0.45mm
; top infill extrusion width = 0.40mm
; first layer extrusion width = 0.42mm

M73 P0 R14
M201 X2500 Y2500 Z400 E5000 ; sets maximum accelerations, mm/sec^2
M203 X180 Y180 Z12 E80 ; sets maximum feedrates, mm / sec
M204 P2000 R1250 T2500 ; sets acceleration (P, T) and retract acceleration (R), mm/sec^2
M205 X8.00 Y8.00 Z2.00 E10.00 ; sets the jerk limits, mm/sec
M205 S0 T0 ; sets the minimum extruding and travel feed rate, mm/sec
M107
;TYPE:Custom
M862.3 P "MINI" ; printer model check
G90 ; use absolute coordinates
M83 ; extruder relative mode
M104 S170 ; set extruder temp for bed leveling
M140 S60 ; set bed temp
M109 R170 ; wait for bed leveling temp
M190 S60 ; wait for bed temp
M204 T1250 ; set travel acceleration
G28 ; home all without mesh bed level
G29 ; mesh bed leveling 
M204 T2500 ; restore travel acceleration
M104 S215 ; set extruder temp
G92 E0
G1 Y-2 X179 F2400
G1 Z3 F720
M109 S215 ; wait for extruder temp

; intro line
G1 X170 F1000
G1 Z0.2 F720
G1 X110 E8 F900
G1 X40 E10 F700
G92 E0

M221 S95 ; set flow
G21 ; set units to millimeters
G90 ; use absolute coordinates
M83 ; use relative distances for extrusion
M900 K0.2 ; Filament gcode LA 1.5
; ; Filament gcode LA 1.0
M107
;LAYER_CHANGE
;Z:0.2
;HEIGHT:0.2
;BEFORE_LAYER_CHANGE
G92 E0.0
;0.2


M73 P1 R13
G1 E-3.2 F4200
G1 Z.2 F720
;AFTER_LAYER_CHANGE
;0.2
G1 Z.4
G1 X65.121 Y85.081 F9000
G1 Z.2 F720
G1 E3.2 F2400
M204 P600
;TYPE:Skirt/Brim
;WIDTH:0.42
G1 F1200
G1 X65.969 Y84.594 E.03067
G1 X67.021 Y84.294 E.03429
G1 X112.504 Y84.25 E1.42611
G1 X113.145 Y84.322 E.02022
M73 P2 R13
G1 X114.055 Y84.604 E.02986
G1 X114.742 Y84.984 E.02461
G1 X115.464 Y85.604 E.02985
G1 X115.866 Y86.108 E.02022
G1 X116.256 Y86.819 E.02541
G1 X116.528 Y87.705 E.02906
G1 X116.6 Y88.346 E.02021
G1 X116.59 Y91.822 E.10902
G1 X116.412 Y92.758 E.02986
G1 X116.112 Y93.483 E.02461
G1 X115.464 Y94.396 E.03509
G1 X114.742 Y95.016 E.02986
G1 X113.899 Y95.46 E.02986
G1 X112.979 Y95.706 E.02986
G1 X67.328 Y95.74 E1.43138
G1 X66.554 Y95.609 E.02461
G1 X65.945 Y95.396 E.02022
G1 X65.258 Y95.016 E.02461
G1 X64.754 Y94.614 E.02022
G1 X64.231 Y94.029 E.02461
G1 X63.888 Y93.483 E.02022
G1 X63.588 Y92.758 E.02461
G1 X63.444 Y92.129 E.02022
G1 X63.41 Y88.178 E.12391
G1 X63.541 Y87.404 E.02461
G1 X63.754 Y86.795 E.02022
G1 X64.423 Y85.73 E.03945
G1 X65.077 Y85.122 E.02798
M204 P1000
G1 X65.332 Y85.395 F9000
M204 P600
G1 F1200
G1 X66.113 Y84.943 E.02832
G1 X67.084 Y84.666 E.03164
G1 X112.483 Y84.627 E1.42346
G1 X113.082 Y84.694 E.01889
G1 X113.91 Y84.952 E.02721
G1 X114.524 Y85.291 E.02196
G1 X115.183 Y85.855 E.02721
G1 X115.559 Y86.326 E.0189
G1 X115.907 Y86.963 E.02277
G1 X116.156 Y87.768 E.02641
G1 X116.223 Y88.367 E.01889
G1 X116.214 Y91.801 E.10769
G1 X116.097 Y92.492 E.02196
M73 P3 R13
G1 X115.898 Y93.061 E.01889
G1 X115.295 Y94.019 E.0355
G1 X114.661 Y94.611 E.02721
G1 X113.887 Y95.057 E.02801
G1 X112.916 Y95.334 E.03165
G1 X67.349 Y95.364 E1.42873
G1 X66.658 Y95.247 E.02196
G1 X66.09 Y95.048 E.01889
G1 X65.476 Y94.709 E.02196
G1 X65.005 Y94.333 E.01889
G1 X64.539 Y93.811 E.02196
G1 X64.218 Y93.301 E.01889
G1 X63.95 Y92.653 E.02196
G1 X63.816 Y92.066 E.01889
G1 X63.777 Y88.367 E.116
G1 X63.903 Y87.508 E.02721
G1 X64.102 Y86.94 E.01889
G1 X64.705 Y85.981 E.03549
G1 X65.288 Y85.436 E.02503
M204 P1000
; printing object 2dot2-2dot8-holesizetest.stl id:0 copy 0
G1 E-2.24 F4200
;WIPE_START
G1 F7200
G1 X66.113 Y84.943 E-.53291
G1 X66.771 Y84.755 E-.37909
;WIPE_END
G1 E-.048 F4200
G1 Z.4 F720
G1 X108.962 Y88.962 F9000
G1 Z.2 F720
G1 E3.2 F2400
M204 P600
;TYPE:Perimeter
;WIDTH:0.419999
G1 F1200
G1 X108.92 Y88.882 E.00284
G1 X108.577 Y88.438 E.01758
G1 X108.123 Y88.104 E.01769
G1 X107.937 Y88.014 E.00647
;WIDTH:0.454851
G1 X107.669 Y87.922 E.0097
;WIDTH:0.489702
G1 X107.401 Y87.83 E.01052
G1 X107.684 Y87.813 E.01052
;WIDTH:0.454851
G1 X107.966 Y87.796 E.0097
;WIDTH:0.419999
G1 X110.133 Y87.796 E.06792
;WIDTH:0.448444
G1 X110.655 Y87.81 E.01762
G1 X110.16 Y87.927 E.01716
;WIDTH:0.419999
G1 X109.668 Y88.169 E.01717
G1 X109.243 Y88.538 E.01767
G1 X108.996 Y88.912 E.01404
M204 P1000
G1 E-2.24 F4200
;WIPE_START
G1 F7200
G1 X108.92 Y88.882 E-.04521
G1 X108.577 Y88.438 E-.31066
G1 X108.123 Y88.104 E-.31273
G1 X107.937 Y88.014 E-.11429
G1 X107.717 Y87.938 E-.12911
;WIPE_END
G1 E-.048 F4200
G1 Z.4 F720
G1 X111.484 Y87.855 F9000
G1 Z.2 F720
G1 E3.2 F2400
M204 P600
;WIDTH:0.539614
G1 F1200
G1 X112.498 Y87.882 E.04187
;WIDTH:0.545022
G1 X112.733 Y87.997 E.01094
G1 X112.939 Y88.236 E.01317
;WIDTH:0.542542
G1 X113.002 Y88.552 E.0134
G1 X113.015 Y89.19 E.02648
;WIDTH:0.516502
G1 X113.028 Y89.588 E.01569
;WIDTH:0.518681
G1 X112.991 Y89.377 E.00845
;WIDTH:0.542542
G1 X112.767 Y88.841 E.02415
G1 X112.662 Y88.677 E.00811
G1 X112.307 Y88.298 E.02159
;WIDTH:0.539614
G1 X111.835 Y87.988 E.02329
G1 X111.54 Y87.877 E.01302
M204 P1000
G1 E-2.24 F4200
;WIPE_START
G1 F7200
G1 X112.498 Y87.882 E-.53058
G1 X112.733 Y87.997 E-.14518
G1 X112.939 Y88.236 E-.17482
G1 X112.961 Y88.345 E-.06143
;WIPE_END
G1 E-.048 F4200
G1 Z.4 F720
G1 X111.422 Y92.157 F9000
G1 Z.2 F720
G1 E3.2 F2400
M204 P600
;WIDTH:0.529659
G1 F1200
G1 X111.561 Y92.124 E.0058
;WIDTH:0.555915
G1 X112.068 Y91.89 E.02383
;WIDTH:0.557432
G1 X112.501 Y91.528 E.02412
G1 X112.829 Y91.077 E.02389
G1 X112.994 Y90.611 E.02114
G1 X112.994 Y91.126 E.02204
G1 X112.949 Y91.71 E.02507
;WIDTH:0.560042
G1 X112.748 Y91.999 E.01513
G1 X112.434 Y92.128 E.01461
;WIDTH:0.555915
G1 X111.482 Y92.155 E.04063
M204 P1000
G1 E-2.24 F4200
;WIPE_START
G1 F7200
G1 X111.561 Y92.124 E-.04731
G1 X112.068 Y91.89 E-.30959
G1 X112.501 Y91.528 E-.31249
G1 X112.758 Y91.174 E-.2426
;WIPE_END
G1 E-.048 F4200
G1 Z.4 F720
G1 X108.962 Y91.037 F9000
G1 Z.2 F720
G1 E3.2 F2400
M204 P600
;WIDTH:0.419999
G1 F1200
G1 X109.218 Y91.438 E.01495
G1 X109.627 Y91.803 E.01718
;WIDTH:0.464955
G1 X109.97 Y91.982 E.01357
;WIDTH:0.50991
G1 X110.313 Y92.16 E.01502
G1 X110.093 Y92.185 E.00859
;WIDTH:0.45993
G1 X109.531 Y92.205 E.01951
;WIDTH:0.419999
G1 X107.898 Y92.205 E.05119
;WIDTH:0.449054
G1 X107.621 Y92.191 E.00936
;WIDTH:0.478108
G1 X107.345 Y92.176 E.01003
G1 X107.536 Y92.121 E.00722
;WIDTH:0.449054
G1 X107.728 Y92.066 E.00674
;WIDTH:0.419999
G1 X108.197 Y91.859 E.01607
G1 X108.677 Y91.467 E.01944
G1 X108.928 Y91.087 E.01428
M204 P1000
G1 E-2.24 F4200
;WIPE_START
G1 F7200
G1 X109.218 Y91.438 E-.25249
G1 X109.627 Y91.803 E-.30366
G1 X109.97 Y91.982 E-.2143
G1 X110.197 Y92.099 E-.14156
;WIPE_END
G1 E-.048 F4200
G1 Z.4 F720
G1 X105.237 Y91.032 F9000
G1 Z.2 F720
G1 E3.2 F2400
M204 P600
G1 F1200
G1 X105.533 Y91.469 E.01655
G1 X105.925 Y91.805 E.0162
;WIDTH:0.454074
G1 X106.158 Y91.922 E.0089
;WIDTH:0.488149
G1 X106.391 Y92.038 E.00964
;WIDTH:0.522224
G1 X106.623 Y92.154 E.01038
G1 X106.511 Y92.169 E.00454
;WIDTH:0.493103
G1 X106.398 Y92.184 E.00426
;WIDTH:0.463981
G1 X105.834 Y92.206 E.01976
;WIDTH:0.419999
G1 X104.196 Y92.206 E.05134
;WIDTH:0.461956
G1 X103.92 Y92.185 E.00963
;WIDTH:0.503912
G1 X103.645 Y92.164 E.0106
G1 X103.832 Y92.104 E.00756
;WIDTH:0.462518
G1 X104.02 Y92.043 E.00688
;WIDTH:0.421123
G1 X104.484 Y91.837 E.01595
;WIDTH:0.419999
G1 X104.944 Y91.467 E.01852
G1 X105.203 Y91.082 E.01457
M204 P1000
G1 E-2.24 F4200
;WIPE_START
G1 F7200
G1 X105.533 Y91.469 E-.28174
G1 X105.925 Y91.805 E-.28627
G1 X106.158 Y91.922 E-.14426
G1 X106.391 Y92.038 E-.14426
G1 X106.48 Y92.083 E-.05546
;WIPE_END
G1 E-.048 F4200
G1 Z.4 F720
G1 X101.552 Y91.035 F9000
G1 Z.2 F720
G1 E3.2 F2400
M204 P600
G1 F1200
G1 X101.561 Y91.022 E.00049
G1 X101.826 Y91.427 E.01517
G1 X102.239 Y91.785 E.01714
;WIDTH:0.462352
G1 X102.469 Y91.904 E.00903
;WIDTH:0.504704
G1 X102.699 Y92.023 E.00995
;WIDTH:0.547056
G1 X102.929 Y92.143 E.01086
G1 X102.814 Y92.161 E.0049
;WIDTH:0.510084
G1 X102.698 Y92.18 E.00454
;WIDTH:0.473111
G1 X102.421 Y92.193 E.00994
;WIDTH:0.446555
G1 X102.143 Y92.206 E.00933
;WIDTH:0.419999
G1 X100.727 Y92.207 E.04439
;WIDTH:0.469614
G1 X100.562 Y92.182 E.00594
;WIDTH:0.519229
G1 X100.396 Y92.157 E.00663
;WIDTH:0.568844
G1 X100.231 Y92.132 E.00732
G1 X100.377 Y92.054 E.00726
;WIDTH:0.519229
G1 X100.524 Y91.976 E.00658
;WIDTH:0.469614
G1 X100.67 Y91.897 E.00589
;WIDTH:0.419999
G1 X101.098 Y91.617 E.01604
G1 X101.278 Y91.443 E.00785
G1 X101.519 Y91.085 E.01351
M204 P1000
G1 E-2.24 F4200
;WIPE_START
G1 F7200
G1 X101.561 Y91.022 E-.04194
G1 X101.826 Y91.427 E-.26816
G1 X102.239 Y91.785 E-.30289
G1 X102.469 Y91.904 E-.14355
G1 X102.699 Y92.023 E-.14355
G1 X102.718 Y92.033 E-.01191
;WIPE_END
G1 E-.048 F4200
G1 Z.4 F720
G1 X96.627 Y92.12 F9000
G1 Z.2 F720
G1 E3.2 F2400
M204 P600
;WIDTH:0.59401
G1 F1200
G1 X96.735 Y92.059 E.00569
;WIDTH:0.550508
G1 X96.843 Y91.998 E.00524
;WIDTH:0.507005
G1 X96.951 Y91.936 E.00479
;WIDTH:0.463502
G1 X97.059 Y91.875 E.00434
;WIDTH:0.419999
G1 X97.482 Y91.598 E.01585
G1 X97.633 Y91.442 E.00682
G1 X97.934 Y91.019 E.01627
G1 X98.116 Y91.312 E.01081
G1 X98.402 Y91.617 E.0131
G1 X98.83 Y91.897 E.01604
;WIDTH:0.468014
G1 X98.987 Y91.977 E.00624
;WIDTH:0.516028
G1 X99.145 Y92.056 E.00694
;WIDTH:0.564042
G1 X99.303 Y92.135 E.00764
G1 X99.126 Y92.159 E.00773
;WIDTH:0.516028
G1 X98.949 Y92.183 E.00701
;WIDTH:0.468014
G1 X98.773 Y92.207 E.0063
;WIDTH:0.419999
G1 X97.12 Y92.207 E.05182
;WIDTH:0.463502
G1 X96.997 Y92.186 E.00438
;WIDTH:0.507005
M73 P4 R13
G1 X96.874 Y92.164 E.00483
;WIDTH:0.550508
G1 X96.75 Y92.142 E.00528
;WIDTH:0.59401
G1 X96.686 Y92.131 E.00299
M204 P1000
G1 E-2.24 F4200
;WIPE_START
G1 F7200
G1 X96.735 Y92.059 E-.04809
G1 X96.843 Y91.998 E-.06878
G1 X96.951 Y91.936 E-.06878
G1 X97.059 Y91.875 E-.06878
G1 X97.482 Y91.598 E-.28019
G1 X97.633 Y91.442 E-.12046
G1 X97.902 Y91.065 E-.25692
;WIPE_END
G1 E-.048 F4200
G1 Z.4 F720
G1 X92.757 Y92.13 F9000
G1 Z.2 F720
G1 E3.2 F2400
M204 P600
;WIDTH:0.575972
G1 F1200
G1 X92.784 Y92.119 E.00125
;WIDTH:0.56506
G1 X93.023 Y92.028 E.01114
;WIDTH:0.516707
G1 X93.263 Y91.936 E.01011
;WIDTH:0.468353
G1 X93.503 Y91.845 E.00908
;WIDTH:0.419999
G1 X94.068 Y91.435 E.0219
G1 X94.364 Y91.021 E.01595
G1 X94.818 Y91.598 E.02304
G1 X95.241 Y91.875 E.01585
;WIDTH:0.462278
G1 X95.358 Y91.937 E.0046
;WIDTH:0.504556
G1 X95.474 Y91.999 E.00507
;WIDTH:0.546834
G1 X95.591 Y92.061 E.00553
;WIDTH:0.589112
G1 X95.707 Y92.123 E.00599
G1 X95.575 Y92.144 E.00606
;WIDTH:0.546834
G1 X95.444 Y92.165 E.00559
;WIDTH:0.504556
G1 X95.312 Y92.187 E.00513
;WIDTH:0.462278
G1 X95.18 Y92.208 E.00466
;WIDTH:0.419999
G1 X93.336 Y92.208 E.05781
;WIDTH:0.458993
G1 X93.191 Y92.189 E.00505
;WIDTH:0.497986
G1 X93.047 Y92.169 E.00552
;WIDTH:0.536979
G1 X92.902 Y92.15 E.006
;WIDTH:0.575972
G1 X92.817 Y92.138 E.00381
M204 P1000
G1 E-2.24 F4200
;WIPE_START
G1 F7200
G1 X92.784 Y92.119 E-.02121
G1 X93.023 Y92.028 E-.14222
G1 X93.263 Y91.936 E-.14222
G1 X93.503 Y91.845 E-.14222
G1 X94.068 Y91.435 E-.38712
G1 X94.149 Y91.322 E-.07701
;WIPE_END
G1 E-.048 F4200
G1 Z.4 F720
G1 X89.26 Y92.118 F9000
G1 Z.2 F720
G1 E3.2 F2400
M204 P600
;WIDTH:0.601924
G1 F1200
G1 X89.286 Y92.106 E.00135
;WIDTH:0.588851
G1 X89.463 Y92.035 E.00865
;WIDTH:0.546638
G1 X89.64 Y91.964 E.00798
;WIDTH:0.504425
G1 X89.817 Y91.892 E.00732
;WIDTH:0.462212
G1 X89.994 Y91.821 E.00665
;WIDTH:0.419999
G1 X90.521 Y91.448 E.02025
G1 X90.827 Y91.026 E.01634
G1 X90.898 Y91.089 E.00296
G1 X91.312 Y91.602 E.02067
G1 X91.744 Y91.872 E.01596
;WIDTH:0.465808
G1 X91.863 Y91.933 E.0047
;WIDTH:0.511616
G1 X91.981 Y91.994 E.00521
;WIDTH:0.557424
G1 X92.1 Y92.056 E.00571
;WIDTH:0.603232
G1 X92.219 Y92.117 E.00622
G1 X92.086 Y92.14 E.0063
;WIDTH:0.557424
G1 X91.952 Y92.163 E.00578
;WIDTH:0.511616
G1 X91.819 Y92.185 E.00527
;WIDTH:0.465808
G1 X91.686 Y92.208 E.00475
;WIDTH:0.419999
G1 X89.829 Y92.209 E.05822
;WIDTH:0.465481
G1 X89.687 Y92.186 E.00507
;WIDTH:0.510962
G1 X89.544 Y92.163 E.00561
;WIDTH:0.556443
G1 X89.402 Y92.141 E.00616
;WIDTH:0.601924
G1 X89.319 Y92.127 E.00391
M204 P1000
G1 E-2.24 F4200
;WIPE_START
G1 F7200
G1 X89.286 Y92.106 E-.02163
G1 X89.463 Y92.035 E-.10564
G1 X89.64 Y91.964 E-.10564
G1 X89.817 Y91.892 E-.10564
G1 X89.994 Y91.821 E-.10564
G1 X90.521 Y91.448 E-.35795
G1 X90.637 Y91.288 E-.10985
;WIPE_END
G1 E-.048 F4200
G1 Z.4 F720
G1 X85.858 Y92.105 F9000
G1 Z.2 F720
G1 E3.2 F2400
M204 P600
;WIDTH:0.629958
G1 F1200
G1 X85.906 Y92.079 E.00268
;WIDTH:0.601552
G1 X86.032 Y92.023 E.00638
;WIDTH:0.556164
G1 X86.157 Y91.967 E.00587
;WIDTH:0.510776
G1 X86.283 Y91.911 E.00535
;WIDTH:0.465388
G1 X86.408 Y91.855 E.00483
;WIDTH:0.419999
G1 X86.877 Y91.586 E.01695
G1 X87.029 Y91.442 E.00656
G1 X87.361 Y90.986 E.01768
G1 X87.687 Y91.446 E.01769
G1 X87.859 Y91.602 E.00726
;WIDTH:0.463895
G1 X87.966 Y91.681 E.00468
;WIDTH:0.507791
G1 X88.074 Y91.761 E.00516
;WIDTH:0.551687
G1 X88.182 Y91.84 E.00565
;WIDTH:0.595583
G1 X88.289 Y91.919 E.00614
;WIDTH:0.639479
G1 X88.397 Y91.998 E.00663
;WIDTH:0.683374
G1 X88.505 Y92.077 E.00712
G1 X88.437 Y92.1 E.00379
;WIDTH:0.638229
G1 X88.369 Y92.122 E.00353
;WIDTH:0.593084
G1 X88.302 Y92.145 E.00326
;WIDTH:0.547939
G1 X88.234 Y92.168 E.00299
;WIDTH:0.502794
G1 X87.964 Y92.188 E.01037
;WIDTH:0.461397
G1 X87.694 Y92.209 E.00943
;WIDTH:0.419999
G1 X86.454 Y92.209 E.03889
;WIDTH:0.461991
G1 X86.334 Y92.188 E.00422
;WIDTH:0.503983
G1 X86.215 Y92.167 E.00464
;WIDTH:0.545975
G1 X86.096 Y92.146 E.00506
;WIDTH:0.587967
G1 X85.977 Y92.125 E.00549
;WIDTH:0.629958
G1 X85.917 Y92.115 E.00298
M204 P1000
G1 E-2.24 F4200
;WIPE_START
G1 F7200
G1 X85.906 Y92.079 E-.02049
G1 X86.032 Y92.023 E-.07616
G1 X86.157 Y91.967 E-.07616
G1 X86.283 Y91.911 E-.07616
G1 X86.408 Y91.855 E-.07616
G1 X86.877 Y91.586 E-.29952
G1 X87.029 Y91.442 E-.11594
G1 X87.211 Y91.192 E-.17139
;WIPE_END
G1 E-.048 F4200
G1 Z.4 F720
G1 X83.922 Y88.995 F9000
G1 Z.2 F720
G1 E3.2 F2400
M204 P600
;WIDTH:0.419999
G1 F1200
G1 X83.608 Y88.571 E.01653
G1 X83.431 Y88.416 E.0074
G1 X82.964 Y88.16 E.01667
;WIDTH:0.407856
G1 X82.539 Y88.087 E.01308
;WIDTH:0.409814
G1 X82.476 Y88.057 E.00213
;WIDTH:0.455788
G1 X82.413 Y88.027 E.0024
;WIDTH:0.501762
G1 X82.35 Y87.996 E.00267
;WIDTH:0.547736
G1 X82.287 Y87.966 E.00293
;WIDTH:0.59371
G1 X82.224 Y87.936 E.0032
;WIDTH:0.639684
G1 X82.161 Y87.905 E.00347
G1 X82.228 Y87.882 E.00349
;WIDTH:0.59371
G1 X82.294 Y87.859 E.00322
;WIDTH:0.547736
G1 X82.361 Y87.836 E.00295
;WIDTH:0.501762
G1 X82.427 Y87.813 E.00268
;WIDTH:0.455788
G1 X82.493 Y87.79 E.00241
;WIDTH:0.409814
G1 X82.56 Y87.767 E.00214
;WIDTH:0.407856
G1 X83.061 Y87.789 E.01523
;WIDTH:0.419999
G1 X84.69 Y87.783 E.05108
;WIDTH:0.394052
G1 X85.082 Y87.77 E.01145
;WIDTH:0.412472
G1 X85.159 Y87.792 E.00247
;WIDTH:0.456839
G1 X85.236 Y87.814 E.00276
;WIDTH:0.501206
G1 X85.313 Y87.836 E.00306
;WIDTH:0.545574
G1 X85.391 Y87.858 E.00335
;WIDTH:0.589941
G1 X85.468 Y87.881 E.00365
;WIDTH:0.634308
G1 X85.545 Y87.903 E.00394
G1 X85.482 Y87.933 E.00345
;WIDTH:0.589209
G1 X85.418 Y87.964 E.00319
;WIDTH:0.54411
G1 X85.355 Y87.995 E.00293
;WIDTH:0.499011
G1 X85.292 Y88.026 E.00266
;WIDTH:0.453912
G1 X85.229 Y88.056 E.0024
;WIDTH:0.408813
G1 X85.166 Y88.087 E.00214
;WIDTH:0.39999
G1 X84.932 Y88.139 E.0071
;WIDTH:0.419999
G1 X84.454 Y88.395 E.01699
G1 X84.261 Y88.572 E.00823
G1 X83.96 Y88.948 E.0151
M204 P1000
G1 E-2.24 F4200
;WIPE_START
G1 F7200
G1 X83.608 Y88.571 E-.28555
G1 X83.431 Y88.416 E-.13077
G1 X82.964 Y88.16 E-.29469
G1 X82.607 Y88.099 E-.20099
;WIPE_END
G1 E-.048 F4200
G1 Z.4 F720
G1 X87.373 Y88.988 F9000
G1 Z.2 F720
G1 E3.2 F2400
M204 P600
G1 F1200
G1 X87.344 Y88.981 E.00092
G1 X87.029 Y88.558 E.01654
G1 X86.846 Y88.395 E.00769
G1 X86.373 Y88.13 E.01699
;WIDTH:0.461344
G1 X86.272 Y88.084 E.00387
;WIDTH:0.502689
G1 X86.171 Y88.038 E.00425
;WIDTH:0.544034
G1 X86.069 Y87.991 E.00463
;WIDTH:0.585379
G1 X85.968 Y87.945 E.00501
;WIDTH:0.626724
G1 X85.867 Y87.899 E.0054
G1 X85.958 Y87.875 E.00453
;WIDTH:0.579824
G1 X86.048 Y87.852 E.00417
;WIDTH:0.532923
G1 X86.138 Y87.829 E.0038
;WIDTH:0.486022
G1 X86.229 Y87.805 E.00344
;WIDTH:0.439121
