; generated by PrusaSlicer 2.5.2+win64 on 2023-04-13 at 10:05:22 UTC


;
;

;
;
; 

; external perimeters extrusion width = 0.45mm
; perimeters extrusion width = 0.45mm
; infill extrusion width = 0.45mm
; solid infill extrusion width = 0.45mm
; top infill extrusion width = 0.40mm
; first layer extrusion width = 0.42mm

M73 P0 R4
M201 X2500 Y2500 Z400 E5000 ; sets maximum accelerations, mm/sec^2
M203 X180 Y180 Z12 E80 ; sets maximum feedrates, mm / sec
M204 P2000 R1250 T2500 ; sets acceleration (P, T) and retract acceleration (R), mm/sec^2
M205 X8.00 Y8.00 Z2.00 E10.00 ; sets the jerk limits, mm/sec
M205 S0 T0 ; sets the minimum extruding and travel feed rate, mm/sec
M107
;TYPE:Custom
M862.3 P "MINI" ; printer model check
G90 ; use absolute coordinates
M83 ; extruder relative mode
M104 S170 ; set extruder temp for bed leveling
M140 S60 ; set bed temp
M109 R170 ; wait for bed leveling temp
M190 S60 ; wait for bed temp
M204 T1250 ; set travel acceleration
G28 ; home all without mesh bed level
G29 ; mesh bed leveling 
M204 T2500 ; restore travel acceleration
M104 S215 ; set extruder temp
G92 E0
G1 Y-2 X179 F2400
G1 Z3 F720
M109 S215 ; wait for extruder temp

; intro line
M73 P1 R4
G1 X170 F1000
G1 Z0.2 F720
M73 P2 R4
G1 X110 E8 F900
G1 X40 E10 F700
G92 E0

M221 S95 ; set flow
G21 ; set units to millimeters
G90 ; use absolute coordinates
M83 ; use relative distances for extrusion
M900 K0.2 ; Filament gcode LA 1.5
; ; Filament gcode LA 1.0
M107
;LAYER_CHANGE
;Z:0.2
;HEIGHT:0.2
;BEFORE_LAYER_CHANGE
G92 E0.0
;0.2


M73 P3 R3
G1 E-3.2 F4200
M73 P6 R3
G1 Z.2 F720
;AFTER_LAYER_CHANGE
;0.2
G1 Z.4
G1 X83.821 Y83.691 F9000
G1 Z.2 F720
G1 E3.2 F2400
M204 P600
;TYPE:Skirt/Brim
;WIDTH:0.42
G1 F1200
G1 X85.242 Y82.561 E.05695
G1 X86.764 Y81.783 E.05359
G1 X88.514 Y81.295 E.05694
G1 X90.13 Y81.17 E.05083
G1 X91.933 Y81.383 E.05694
G1 X93.557 Y81.917 E.05359
G1 X95.135 Y82.815 E.05694
G1 X96.362 Y83.875 E.05083
G1 X97.48 Y85.306 E.05694
G1 X98.245 Y86.835 E.05359
M73 P7 R3
G1 X98.684 Y88.395 E.05083
G1 X98.829 Y90.205 E.05694
G1 X98.624 Y91.902 E.05359
G1 X98.053 Y93.626 E.05694
G1 X97.254 Y95.037 E.05083
G1 X96.07 Y96.414 E.05694
G1 X94.721 Y97.463 E.05359
G1 X93.277 Y98.2 E.05083
G1 X91.637 Y98.678 E.05359
G1 X89.827 Y98.829 E.05694
G1 X88.216 Y98.649 E.05083
G1 X86.484 Y98.101 E.05694
G1 X84.99 Y97.272 E.05359
G1 X83.608 Y96.093 E.05694
G1 X82.602 Y94.822 E.05083
G1 X81.772 Y93.207 E.05694
G1 X81.309 Y91.562 E.05359
G1 X81.17 Y89.946 E.05083
G1 X81.367 Y88.141 E.05694
G1 X81.887 Y86.513 E.05359
G1 X82.676 Y85.068 E.05163
G1 X83.782 Y83.738 E.05425
M204 P1000
G1 X84.071 Y83.977 F9000
M204 P600
G1 F1200
G1 X85.442 Y82.881 E.05503
G1 X86.906 Y82.133 E.05156
G1 X88.581 Y81.666 E.05451
G1 X90.12 Y81.547 E.0484
G1 X91.754 Y81.73 E.05156
G1 X93.229 Y82.187 E.0484
G1 X94.759 Y83.013 E.05451
M73 P8 R3
G1 X96.022 Y84.066 E.05156
G1 X97.108 Y85.423 E.05451
G1 X97.822 Y86.792 E.0484
G1 X98.295 Y88.367 E.05156
G1 X98.454 Y90.098 E.05451
G1 X98.295 Y91.633 E.0484
G1 X97.786 Y93.296 E.05451
G1 X97 Y94.74 E.05156
G1 X95.883 Y96.072 E.05451
G1 X94.68 Y97.04 E.0484
G1 X93.141 Y97.849 E.05451
G1 X91.47 Y98.325 E.05451
G1 X89.83 Y98.452 E.05156
G1 X88.296 Y98.28 E.0484
G1 X86.638 Y97.757 E.05451
G1 X85.2 Y96.959 E.05156
G1 X83.878 Y95.83 E.05451
G1 X82.92 Y94.619 E.0484
G1 X82.125 Y93.073 E.05451
G1 X81.679 Y91.491 E.05156
G1 X81.547 Y89.953 E.0484
G1 X81.735 Y88.225 E.05451
G1 X82.235 Y86.658 E.05156
G1 X82.972 Y85.302 E.0484
G1 X84.033 Y84.023 E.05209
M204 P1000
G1 X84.321 Y84.262 F9000
M204 P600
G1 F1200
G1 X85.641 Y83.2 E.05312
G1 X87.049 Y82.482 E.04954
G1 X88.649 Y82.037 E.05208
G1 X90.111 Y81.924 E.04597
M73 P9 R3
G1 X91.76 Y82.117 E.05208
G1 X93.261 Y82.611 E.04953
G1 X94.704 Y83.434 E.05208
G1 X95.813 Y84.392 E.04597
G1 X96.837 Y85.7 E.05208
G1 X97.544 Y87.113 E.04953
G1 X97.941 Y88.524 E.04597
G1 X98.075 Y90.179 E.05208
G1 X97.886 Y91.748 E.04953
G1 X97.362 Y93.324 E.05208
G1 X96.639 Y94.6 E.04597
G1 X95.558 Y95.861 E.05208
G1 X94.311 Y96.83 E.04953
G1 X93.005 Y97.497 E.04597
G1 X91.408 Y97.953 E.05208
G1 X89.833 Y98.075 E.04953
G1 X88.376 Y97.912 E.04597
G1 X86.792 Y97.412 E.05208
G1 X85.344 Y96.599 E.05208
G1 X84.148 Y95.567 E.04953
G1 X83.238 Y94.417 E.04597
G1 X82.478 Y92.94 E.05208
G1 X82.049 Y91.42 E.04953
G1 X81.924 Y89.959 E.04597
G1 X82.103 Y88.308 E.05208
G1 X82.583 Y86.803 E.04953
G1 X83.283 Y85.515 E.04597
G1 X84.283 Y84.308 E.04913
M204 P1000
; printing object coupler_5-4mm_3-7mm.stl id:0 copy 0
G1 E-2.24 F4200
;WIPE_START
G1 F7200
G1 X85.558 Y83.268 E-.912
;WIPE_END
G1 E-.048 F4200
M73 P10 R3
G1 Z.4 F720
G1 X87.057 Y86.07 F9000
G1 Z.2 F720
G1 E3.2 F2400
M204 P600
;TYPE:Perimeter
;WIDTH:0.419999
G1 F1200
G1 X87.722 Y85.655 E.02457
G1 X88.181 Y85.44 E.0159
G1 X88.656 Y85.278 E.01575
G1 X89.147 Y85.165 E.01578
G1 X89.696 Y85.098 E.01735
G1 X90.48 Y85.118 E.02459
G1 X90.991 Y85.191 E.01619
G1 X91.483 Y85.319 E.01594
G1 X91.96 Y85.498 E.01597
G1 X92.448 Y85.742 E.01711
G1 X93.113 Y86.206 E.02544
G1 X93.491 Y86.547 E.01596
G1 X93.828 Y86.924 E.01583
G1 X94.124 Y87.334 E.01586
G1 X94.39 Y87.795 E.0167
G1 X94.707 Y88.596 E.02701
G1 X94.83 Y89.114 E.0167
G1 X94.896 Y89.616 E.01586
G1 X94.911 Y90.075 E.0144
G1 X94.828 Y90.883 E.02547
G1 X94.714 Y91.377 E.01592
G1 X94.547 Y91.855 E.01586
G1 X94.332 Y92.312 E.01584
G1 X94.071 Y92.746 E.01586
G1 X93.768 Y93.15 E.01584
G1 X93.424 Y93.52 E.01586
G1 X93.023 Y93.871 E.0167
G1 X92.353 Y94.306 E.02505
G1 X91.897 Y94.529 E.01589
G1 X91.425 Y94.698 E.01574
G1 X90.937 Y94.819 E.01578
G1 X90.437 Y94.89 E.01581
G1 X89.883 Y94.91 E.01738
G1 X89.102 Y94.823 E.02464
G1 X88.599 Y94.705 E.0162
G1 X88.119 Y94.535 E.01596
G1 X87.659 Y94.316 E.016
G1 X87.223 Y94.049 E.01602
G1 X86.819 Y93.74 E.01595
G1 X86.451 Y93.393 E.01587
G1 X86.103 Y92.989 E.01671
G1 X85.667 Y92.304 E.02546
G1 X85.45 Y91.845 E.01594
G1 X85.284 Y91.367 E.01584
G1 X85.169 Y90.875 E.01586
G1 X85.104 Y90.374 E.01584
G1 X85.092 Y89.868 E.01586
G1 X85.131 Y89.364 E.01584
G1 X85.223 Y88.867 E.01586
G1 X85.372 Y88.356 E.0167
G1 X85.71 Y87.617 E.02546
G1 X85.977 Y87.185 E.01594
G1 X86.288 Y86.786 E.01585
G1 X86.638 Y86.421 E.01586
G1 X87.01 Y86.107 E.01527
M204 P1000
G1 X86.874 Y85.742 F9000
M204 P600
;TYPE:External perimeter
G1 F1200
G1 X87.68 Y85.251 E.02958
G1 X88.16 Y85.044 E.01639
G1 X88.682 Y84.881 E.01717
G1 X89.218 Y84.772 E.01713
G1 X89.783 Y84.723 E.0178
G1 X90.694 Y84.76 E.02859
G1 X91.2 Y84.852 E.01611
G1 X91.72 Y85.001 E.01698
G1 X92.222 Y85.203 E.01694
G1 X92.769 Y85.506 E.01961
G1 X93.447 Y85.992 E.02616
G1 X93.842 Y86.368 E.01709
G1 X94.181 Y86.763 E.01633
G1 X94.566 Y87.342 E.02179
G1 X94.872 Y87.99 E.02249
G1 X95.085 Y88.554 E.0189
G1 X95.204 Y89.063 E.01637
G1 X95.273 Y89.603 E.01708
G1 X95.289 Y90.088 E.01521
G1 X95.195 Y90.996 E.02863
G1 X95.066 Y91.522 E.01698
G1 X94.883 Y92.035 E.01708
M73 P11 R3
G1 X94.648 Y92.526 E.01708
G1 X94.364 Y92.99 E.01708
G1 X94.033 Y93.423 E.01708
G1 X93.66 Y93.82 E.01708
G1 X93.25 Y94.174 E.01698
G1 X92.484 Y94.67 E.02863
G1 X91.993 Y94.9 E.01697
G1 X91.479 Y95.079 E.01708
G1 X90.949 Y95.204 E.01708
G1 X90.409 Y95.274 E.01708
G1 X89.867 Y95.288 E.01698
G1 X88.96 Y95.186 E.02863
G1 X88.435 Y95.053 E.01698
G1 X87.924 Y94.865 E.01708
G1 X87.435 Y94.626 E.01708
G1 X86.973 Y94.337 E.01708
G1 X86.543 Y94.003 E.01708
G1 X86.149 Y93.626 E.01707
G1 X85.799 Y93.213 E.01698
G1 X85.349 Y92.506 E.02627
G1 X85.107 Y92.002 E.01756
G1 X84.927 Y91.488 E.01706
G1 X84.801 Y90.958 E.01708
G1 X84.73 Y90.419 E.01706
G1 X84.715 Y89.875 E.01708
G1 X84.756 Y89.332 E.01706
G1 X84.852 Y88.796 E.01708
G1 X84.997 Y88.294 E.01637
G1 X85.439 Y87.328 E.03331
G1 X85.748 Y86.86 E.01758
G1 X86.066 Y86.468 E.01585
G1 X86.45 Y86.082 E.01706
G1 X86.827 Y85.78 E.01515
M204 P1000
G1 X87.236 Y85.912 F9000
G1 E-2.24 F4200
;WIPE_START
G1 F7200
G1 X87.68 Y85.251 E-.55574
G1 X88.16 Y85.044 E-.28972
G1 X88.274 Y85.008 E-.06654
;WIPE_END
G1 E-.048 F4200
G1 Z.4 F720
G1 X87.545 Y92.47 F9000
G1 Z.2 F720
G1 E3.2 F2400
M204 P600
;TYPE:Perimeter
G1 F1200
G1 X87.081 Y91.902 E.023
G1 X86.765 Y91.296 E.02143
G1 X86.576 Y90.645 E.02125
G1 X86.516 Y89.97 E.02125
G1 X86.587 Y89.296 E.02125
G1 X86.788 Y88.649 E.02125
G1 X87.111 Y88.052 E.02126
G1 X87.498 Y87.569 E.01943
G1 X87.743 Y87.396 E.00937
G1 X88.211 Y87.363 E.01472
G1 X92.066 Y87.363 E.12088
G1 X92.343 Y87.435 E.00896
G1 X92.51 Y87.578 E.00692
G1 X92.92 Y88.098 E.02074
G1 X93.235 Y88.704 E.02143
G1 X93.425 Y89.355 E.02125
G1 X93.485 Y90.03 E.02125
G1 X93.414 Y90.704 E.02125
G1 X93.213 Y91.351 E.02125
G1 X92.89 Y91.948 E.02126
G1 X92.503 Y92.431 E.01943
G1 X92.287 Y92.592 E.00844
G1 X91.859 Y92.637 E.01349
G1 X87.935 Y92.637 E.12304
G1 X87.639 Y92.554 E.00962
M73 P12 R3
G1 X87.59 Y92.51 E.00206
M204 P1000
G1 X87.777 Y92.175 F9000
M204 P600
;TYPE:External perimeter
G1 F1200
G1 X87.377 Y91.669 E.02023
G1 X87.103 Y91.128 E.01902
G1 X86.939 Y90.545 E.01896
G1 X86.892 Y89.943 E.01896
G1 X86.962 Y89.342 E.01896
G1 X87.146 Y88.766 E.01896
G1 X87.439 Y88.237 E.01897
G1 X87.789 Y87.809 E.01733
G1 X87.934 Y87.74 E.00504
G1 X92.066 Y87.74 E.12955
G1 X92.214 Y87.812 E.00516
G1 X92.624 Y88.331 E.02074
G1 X92.898 Y88.872 E.01902
G1 X93.061 Y89.455 E.01896
G1 X93.109 Y90.057 E.01896
G1 X93.039 Y90.658 E.01896
G1 X92.854 Y91.234 E.01896
G1 X92.561 Y91.763 E.01897
G1 X92.212 Y92.191 E.01733
G1 X92.066 Y92.26 E.00504
G1 X87.935 Y92.26 E.12955
G1 X87.826 Y92.207 E.00379
M204 P1000
G1 X87.414 Y92.345 F9000
G1 E-2.24 F4200
;WIPE_START
G1 F7200
G1 X87.377 Y91.669 E-.38847
G1 X87.103 Y91.128 E-.33617
G1 X87.011 Y90.802 E-.18737
;WIPE_END
G1 E-.048 F4200
G1 Z.4 F720
G1 X92.342 Y85.878 F9000
G1 Z.2 F720
G1 E3.2 F2400
M204 P600
;TYPE:Solid infill
;WIDTH:0.423705
G1 F1200
G1 X93.292 Y86.828 E.04256
G1 X93.586 Y87.162 E.01408
G1 X93.858 Y87.546 E.0149
G1 X94.083 Y87.942 E.01442
G1 X94.224 Y88.299 E.01215
G1 X91.678 Y85.753 E.114
G1 X91.428 Y85.656 E.00849
G1 X90.908 Y85.522 E.017
G1 X94.479 Y89.093 E.1599
G1 X94.559 Y89.711 E.01975
G1 X93.615 Y88.767 E.04228
G1 X93.776 Y89.376 E.01995
G1 X93.783 Y89.474 E.0031
G1 X94.553 Y90.243 E.03445
G1 X94.502 Y90.731 E.01554
G1 X93.821 Y90.05 E.0305
G1 X93.771 Y90.539 E.01555
G1 X94.413 Y91.18 E.02872
G1 X94.282 Y91.588 E.01356
M73 P13 R3
G1 X93.679 Y90.985 E.02701
G1 X93.548 Y91.393 E.01357
G1 X94.122 Y91.966 E.02568
G1 X93.935 Y92.318 E.01261
G1 X93.38 Y91.762 E.02488
G1 X93.184 Y92.105 E.0125
G1 X93.725 Y92.646 E.02424
G1 X93.492 Y92.952 E.01216
G1 X92.953 Y92.413 E.02413
G1 X92.705 Y92.704 E.0121
G1 X93.231 Y93.23 E.02356
G1 X92.95 Y93.486 E.01207
G1 X92.379 Y92.916 E.02554
G1 X92.082 Y92.976 E.00961
G1 X91.901 Y92.976 E.00572
G1 X92.64 Y93.715 E.03309
G1 X92.313 Y93.927 E.01233
G1 X91.363 Y92.976 E.04257
G1 X90.824 Y92.976 E.01705
G1 X91.968 Y94.121 E.05123
G1 X91.591 Y94.281 E.013
G1 X90.285 Y92.976 E.05844
G1 X89.747 Y92.976 E.01705
G1 X91.183 Y94.413 E.06431
G1 X90.741 Y94.509 E.01434
G1 X89.208 Y92.976 E.0686
G1 X88.67 Y92.976 E.01705
G1 X90.255 Y94.561 E.07096
G1 X89.898 Y94.57 E.01129
G1 X89.704 Y94.549 E.0062
G1 X87.962 Y92.807 E.07799
M204 P1000
G1 E-2.24 F4200
;WIPE_START
G1 F7200
G1 X89.125 Y93.97 E-.912
;WIPE_END
G1 E-.048 F4200
G1 Z.4 F720
G1 X92.041 Y87.193 F9000
G1 Z.2 F720
G1 E3.2 F2400
M204 P600
G1 F1200
G1 X90.301 Y85.453 E.07793
G1 X89.774 Y85.439 E.01669
G1 X89.751 Y85.441 E.00073
G1 X91.333 Y87.024 E.07084
G1 X90.795 Y87.024 E.01705
G1 X89.257 Y85.489 E.0688
G1 X88.817 Y85.584 E.01425
G1 X90.256 Y87.024 E.06444
M73 P14 R3
G1 X89.718 Y87.024 E.01705
G1 X88.41 Y85.716 E.05854
G1 X88.033 Y85.878 E.01299
G1 X89.179 Y87.024 E.05131
G1 X88.641 Y87.024 E.01705
G1 X87.691 Y86.074 E.04252
G1 X87.359 Y86.281 E.01238
G1 X88.102 Y87.024 E.03326
G1 X87.921 Y87.024 E.00573
G1 X87.62 Y87.079 E.00972
G1 X87.053 Y86.513 E.02538
G1 X86.772 Y86.77 E.01207
G1 X87.295 Y87.294 E.02344
G1 X87.047 Y87.583 E.01209
G1 X86.512 Y87.049 E.02392
G1 X86.274 Y87.35 E.01214
G1 X86.817 Y87.893 E.02431
G1 X86.622 Y88.236 E.01251
G1 X86.065 Y87.679 E.02496
G1 X86.03 Y87.735 E.00209
G1 X85.889 Y88.042 E.01068
G1 X86.451 Y88.604 E.02516
G1 X86.319 Y89.01 E.01353
G1 X85.72 Y88.411 E.02681
G1 X85.588 Y88.817 E.01353
G1 X86.227 Y89.457 E.02864
G1 X86.18 Y89.948 E.01561
G1 X85.493 Y89.261 E.03076
G1 X85.439 Y89.746 E.01545
G1 X86.217 Y90.524 E.03484
G1 X86.223 Y90.61 E.00275
G1 X86.387 Y91.232 E.02036
G1 X85.438 Y90.283 E.04249
G1 X85.524 Y90.908 E.01995
G1 X89.097 Y94.481 E.15999
G1 X88.647 Y94.368 E.01468
G1 X88.328 Y94.25 E.01076
G1 X85.743 Y91.665 E.11575
G1 X85.94 Y92.1 E.0151
G1 X86.377 Y92.787 E.02579
G1 X86.659 Y93.119 E.01378
G1 X87.664 Y94.124 E.045
M204 P1000
; stop printing object coupler_5-4mm_3-7mm.stl id:0 copy 0
M106 S84.15
;LAYER_CHANGE
;Z:0.45
;HEIGHT:0.25
;BEFORE_LAYER_CHANGE
G92 E0.0
;0.45


G1 E-2.24 F4200
;WIPE_START
G1 F7200
G1 X86.659 Y93.119 E-.78767
G1 X86.513 Y92.948 E-.12433
;WIPE_END
G1 E-.048 F4200
G1 Z.4 F720
G1 Z.45
;AFTER_LAYER_CHANGE
;0.45
G1 Z.65
G1 X83.197 Y95.573 F9000
G1 Z.45 F720
M73 P15 R3
G1 E3.2 F2400
;TYPE:Skirt/Brim
;WIDTH:0.42
G1 X82.602 Y94.822 E.03649
G1 X81.772 Y93.207 E.06915
G1 X81.309 Y91.562 E.06508
G1 X81.17 Y89.946 E.06173
G1 X81.367 Y88.141 E.06915
G1 X81.887 Y86.513 E.06508
G1 X82.676 Y85.068 E.0627
G1 X83.821 Y83.691 E.06817
G1 X85.242 Y82.561 E.06916
G1 X86.764 Y81.783 E.06508
G1 X88.514 Y81.295 E.06915
G1 X90.13 Y81.17 E.06173
G1 X91.933 Y81.383 E.06915
G1 X93.557 Y81.917 E.06508
G1 X95.135 Y82.815 E.06915
G1 X96.362 Y83.875 E.06173
G1 X97.48 Y85.306 E.06915
G1 X98.245 Y86.835 E.06508
G1 X98.684 Y88.395 E.06173
G1 X98.829 Y90.205 E.06915
G1 X98.624 Y91.902 E.06508
G1 X98.053 Y93.626 E.06915
G1 X97.254 Y95.037 E.06173
G1 X96.07 Y96.414 E.06915
G1 X94.721 Y97.463 E.06508
G1 X93.277 Y98.2 E.06173
G1 X91.637 Y98.678 E.06508
G1 X89.827 Y98.829 E.06915
G1 X88.216 Y98.649 E.06173
G1 X86.484 Y98.101 E.06915
G1 X84.99 Y97.272 E.06508
G1 X83.608 Y96.093 E.06915
G1 X83.234 Y95.62 E.02296
G1 X83.528 Y95.387 F9000
G1 F2400
G1 X82.92 Y94.619 E.03729
G1 X82.125 Y93.073 E.0662
G1 X81.679 Y91.491 E.06261
G1 X81.547 Y89.953 E.05878
G1 X81.735 Y88.225 E.0662
G1 X82.235 Y86.658 E.06262
G1 X82.972 Y85.302 E.05878
G1 X84.082 Y83.964 E.06618
G1 X85.442 Y82.881 E.0662
G1 X86.906 Y82.133 E.06262
G1 X88.581 Y81.666 E.0662
G1 X90.12 Y81.547 E.05878
G1 X91.754 Y81.73 E.06262
G1 X93.229 Y82.187 E.05878
G1 X94.759 Y83.013 E.0662
G1 X96.022 Y84.066 E.06261
G1 X97.108 Y85.423 E.0662
G1 X97.822 Y86.792 E.05878
G1 X98.295 Y88.367 E.06261
G1 X98.454 Y90.098 E.0662
G1 X98.295 Y91.633 E.05878
G1 X97.786 Y93.296 E.0662
G1 X97 Y94.74 E.06261
M73 P16 R3
G1 X95.883 Y96.072 E.0662
G1 X94.68 Y97.04 E.05878
G1 X93.141 Y97.849 E.0662
G1 X91.47 Y98.325 E.0662
G1 X89.83 Y98.452 E.06261
G1 X88.296 Y98.28 E.05878
G1 X86.638 Y97.757 E.0662
G1 X85.2 Y96.959 E.06261
G1 X83.878 Y95.83 E.06619
G1 X83.565 Y95.434 E.0192
G1 X83.859 Y95.202 F9000
G1 F2400
G1 X83.238 Y94.417 E.0381
G1 X82.478 Y92.94 E.06324
G1 X82.049 Y91.42 E.06015
G1 X81.924 Y89.959 E.05583
G1 X82.103 Y88.308 E.06324
G1 X82.583 Y86.803 E.06015
G1 X83.283 Y85.515 E.05583
G1 X84.343 Y84.236 E.06323
G1 X85.641 Y83.2 E.06325
G1 X87.049 Y82.482 E.06016
G1 X88.649 Y82.037 E.06324
G1 X90.111 Y81.924 E.05583
G1 X91.76 Y82.117 E.06324
G1 X93.261 Y82.611 E.06016
G1 X94.704 Y83.434 E.06324
G1 X95.813 Y84.392 E.05583
G1 X96.837 Y85.7 E.06324
G1 X97.544 Y87.113 E.06015
G1 X97.941 Y88.524 E.05583
G1 X98.075 Y90.179 E.06324
G1 X97.886 Y91.748 E.06015
G1 X97.362 Y93.324 E.06324
G1 X96.639 Y94.6 E.05583
G1 X95.558 Y95.861 E.06324
G1 X94.311 Y96.83 E.06015
G1 X93.005 Y97.497 E.05583
G1 X91.408 Y97.953 E.06324
G1 X89.833 Y98.075 E.06015
G1 X88.376 Y97.912 E.05583
G1 X86.792 Y97.412 E.06324
G1 X85.344 Y96.599 E.06324
G1 X84.148 Y95.567 E.06015
G1 X83.897 Y95.249 E.01544
; printing object coupler_5-4mm_3-7mm.stl id:0 copy 0
G1 E-2.24 F4200
;WIPE_START
G1 F7200
G1 X83.238 Y94.417 E-.58778
G1 X82.971 Y93.897 E-.32422
;WIPE_END
G1 E-.048 F4200
G1 Z.65 F720
G1 X86.968 Y85.931 F9000
G1 Z.45 F720
G1 E3.2 F2400
;TYPE:Perimeter
;WIDTH:0.449999
G1 F1500
G1 X87.701 Y85.473 E.03557
G1 X88.168 Y85.264 E.02112
G1 X88.665 Y85.101 E.02154
