; generated by PrusaSlicer 2.5.1+win64 on 2023-04-11 at 11:27:00 UTC


;
;

;
;
; 

; external perimeters extrusion width = 0.45mm
; perimeters extrusion width = 0.45mm
; infill extrusion width = 0.45mm
; solid infill extrusion width = 0.45mm
; top infill extrusion width = 0.40mm
; first layer extrusion width = 0.42mm

M73 P0 R8
M201 X2500 Y2500 Z400 E5000 ; sets maximum accelerations, mm/sec^2
M203 X180 Y180 Z12 E80 ; sets maximum feedrates, mm / sec
M204 P1250 R1250 T2500 ; sets acceleration (P, T) and retract acceleration (R), mm/sec^2
M205 X8.00 Y8.00 Z2.00 E10.00 ; sets the jerk limits, mm/sec
M205 S0 T0 ; sets the minimum extruding and travel feed rate, mm/sec
M107
;TYPE:Custom
M862.3 P "MINI" ; printer model check
G90 ; use absolute coordinates
M83 ; extruder relative mode
M104 S170 ; set extruder temp for bed leveling
M140 S60 ; set bed temp
M109 R170 ; wait for bed leveling temp
M190 S60 ; wait for bed temp
M204 T1250 ; set travel acceleration
G28 ; home all without mesh bed level
G29 ; mesh bed leveling 
M204 T2500 ; restore travel acceleration
M104 S215 ; set extruder temp
G92 E0
G1 Y-2 X179 F2400
G1 Z3 F720
M109 S215 ; wait for extruder temp

; intro line
G1 X170 F1000
G1 Z0.2 F720
G1 X110 E8 F900
M73 P1 R8
G1 X40 E10 F700
G92 E0

M221 S95 ; set flow
G21 ; set units to millimeters
G90 ; use absolute coordinates
M83 ; use relative distances for extrusion
M900 K0.2 ; Filament gcode LA 1.5
; ; Filament gcode LA 1.0
M107
;LAYER_CHANGE
;Z:0.2
;HEIGHT:0.2
;BEFORE_LAYER_CHANGE
G92 E0.0
;0.2


G1 E-3.2 F4200
M73 P2 R8
G1 Z.2 F720
;AFTER_LAYER_CHANGE
;0.2
G1 Z.4
G1 X79.575 Y86.299 F9000
G1 Z.2 F720
M73 P3 R8
G1 E3.2 F2400
M204 P800
;TYPE:Skirt/Brim
;WIDTH:0.42
G1 F1200
G1 X80.266 Y85.662 E.02947
G1 X81.16 Y85.167 E.03204
G1 X81.893 Y84.949 E.02397
G1 X82.7 Y84.869 E.02543
G1 X97.429 Y84.871 E.46183
G1 X98.107 Y84.949 E.02139
G1 X98.763 Y85.137 E.02139
G1 X99.379 Y85.431 E.02139
G1 X100.001 Y85.875 E.02397
G1 X100.637 Y86.566 E.02946
G1 X100.993 Y87.149 E.02139
G1 X101.247 Y87.782 E.02139
G1 X101.394 Y88.448 E.02139
G1 X101.425 Y91.212 E.08667
G1 X101.334 Y91.888 E.02139
G1 X101.133 Y92.54 E.02139
G1 X100.686 Y93.366 E.02947
G1 X100.25 Y93.891 E.02139
G1 X99.666 Y94.386 E.02397
G1 X98.84 Y94.833 E.02946
G1 X98.107 Y95.051 E.02397
G1 X97.3 Y95.131 E.02543
G1 X82.23 Y95.104 E.47251
G1 X81.16 Y94.833 E.03461
G1 X80.266 Y94.338 E.03204
G1 X79.521 Y93.638 E.03204
G1 X78.867 Y92.54 E.04007
G1 X78.662 Y91.867 E.02205
G1 X78.571 Y91.129 E.02331
G1 X78.575 Y88.788 E.07341
G1 X78.753 Y87.782 E.03204
G1 X79.131 Y86.921 E.02947
G1 X79.54 Y86.348 E.02209
M204 P1000
G1 X79.846 Y86.566 F9000
M204 P800
G1 F1200
G1 X80.485 Y85.969 E.02743
G1 X81.297 Y85.518 E.02911
G1 X81.97 Y85.318 E.02202
G1 X82.7 Y85.246 E.02299
G1 X97.414 Y85.248 E.46134
G1 X98.03 Y85.318 E.01944
G1 X98.626 Y85.488 E.01944
G1 X99.186 Y85.755 E.01944
G1 X99.757 Y86.163 E.02202
G1 X100.331 Y86.785 E.02654
G1 X100.654 Y87.314 E.01944
G1 X100.885 Y87.889 E.01944
G1 X101.019 Y88.495 E.01944
G1 X101.048 Y91.196 E.08471
G1 X100.812 Y92.326 E.03618
G1 X100.503 Y92.957 E.02202
G1 X99.983 Y93.625 E.02654
G1 X99.447 Y94.079 E.02202
G1 X98.703 Y94.482 E.02654
G1 X98.03 Y94.682 E.02202
G1 X97.3 Y94.754 E.02299
G1 X82.277 Y94.73 E.47105
G1 X81.297 Y94.482 E.03168
M73 P4 R8
G1 X80.485 Y94.031 E.02911
G1 X79.809 Y93.394 E.02912
G1 X79.219 Y92.403 E.03618
G1 X79.031 Y91.79 E.02009
G1 X78.948 Y91.114 E.02136
G1 X78.952 Y88.804 E.07244
G1 X79.115 Y87.889 E.02911
G1 X79.455 Y87.114 E.02654
G1 X79.811 Y86.615 E.01923
M204 P1000
G1 X80.123 Y86.853 F9000
M204 P800
G1 F1200
G1 X80.283 Y86.642 E.00831
G1 X80.936 Y86.121 E.02619
G1 X81.511 Y85.84 E.02007
G1 X82.048 Y85.687 E.01748
G1 X82.7 Y85.623 E.02055
G1 X97.398 Y85.625 E.46085
G1 X98.489 Y85.84 E.03485
G1 X98.993 Y86.078 E.01748
G1 X99.514 Y86.45 E.02007
G1 X100.024 Y87.004 E.02361
G1 X100.315 Y87.48 E.01749
G1 X100.645 Y88.541 E.03485
G1 X100.672 Y91.181 E.08276
G1 X100.46 Y92.189 E.03229
G1 X100.179 Y92.764 E.02007
G1 X99.717 Y93.358 E.02362
G1 X99.064 Y93.879 E.02619
G1 X98.489 Y94.16 E.02007
G1 X97.952 Y94.313 E.01748
G1 X97.3 Y94.377 E.02056
G1 X82.323 Y94.355 E.46958
G1 X81.434 Y94.13 E.02876
G1 X80.549 Y93.603 E.03229
G1 X79.928 Y92.928 E.02876
G1 X79.54 Y92.189 E.02619
G1 X79.387 Y91.652 E.01749
G1 X79.323 Y91 E.02055
G1 X79.328 Y88.819 E.06838
G1 X79.476 Y87.997 E.02619
G1 X79.785 Y87.296 E.02404
G1 X80.087 Y86.9 E.01558
M204 P1000
; printing object dc-motor-axel-size-test.stl id:0 copy 0
G1 E-2.24 F4200
;WIPE_START
G1 F7200
G1 X80.283 Y86.642 E-.18007
G1 X80.936 Y86.121 E-.46286
G1 X81.372 Y85.908 E-.26908
;WIPE_END
G1 E-.048 F4200
G1 Z.4 F720
G1 X94.257 Y91.106 F9000
G1 Z.2 F720
G1 E3.2 F2400
M204 P800
;TYPE:Perimeter
;WIDTH:0.61551
G1 F1200
G1 X94.165 Y91.125 E.00445
;WIDTH:0.576568
G1 X94.074 Y91.145 E.00415
;WIDTH:0.537625
G1 X93.983 Y91.164 E.00385
;WIDTH:0.498682
G1 X93.891 Y91.184 E.00354
;WIDTH:0.459739
G1 X93.648 Y91.191 E.00844
;WIDTH:0.490824
G1 X93.466 Y91.169 E.00681
;WIDTH:0.534885
G1 X93.284 Y91.147 E.00748
;WIDTH:0.578946
G1 X93.103 Y91.125 E.00815
G1 X93.282 Y91 E.00974
;WIDTH:0.534885
G1 X93.462 Y90.875 E.00894
;WIDTH:0.490824
G1 X93.641 Y90.75 E.00814
;WIDTH:0.446763
G1 X93.751 Y90.815 E.0043
;WIDTH:0.48895
G1 X93.877 Y90.888 E.00541
;WIDTH:0.531137
G1 X94.004 Y90.961 E.00592
;WIDTH:0.573324
G1 X94.13 Y91.033 E.00643
;WIDTH:0.61551
G1 X94.205 Y91.076 E.00409
M204 P1000
G1 X92.991 Y91.13 F9000
M204 P800
;WIDTH:0.569246
G1 F1200
G1 X92.787 Y91.153 E.00899
;WIDTH:0.522474
G1 X92.583 Y91.177 E.00819
;WIDTH:0.475701
G1 X92.38 Y91.2 E.00739
;WIDTH:0.463479
G1 X92.201 Y91.183 E.00628
;WIDTH:0.49803
G1 X92.022 Y91.166 E.0068
;WIDTH:0.53258
G1 X91.843 Y91.149 E.00732
G1 X92.022 Y91.021 E.00893
;WIDTH:0.49803
G1 X92.2 Y90.894 E.0083
;WIDTH:0.463479
G1 X92.379 Y90.767 E.00767
;WIDTH:0.428928
G1 X92.482 Y90.843 E.00412
;WIDTH:0.475701
G1 X92.652 Y90.939 E.00701
;WIDTH:0.522474
G1 X92.821 Y91.034 E.00777
;WIDTH:0.569246
G1 X92.939 Y91.1 E.0059
M204 P1000
G1 X92.385 Y89.955 F9000
M204 P800
;TYPE:External perimeter
;WIDTH:0.480496
G1 F1200
G1 X92.375 Y90.133 E.0065
M204 P1000
G1 X92.877 Y88.875 F9000
M204 P800
;TYPE:Perimeter
;WIDTH:0.585742
G1 F1200
G1 X92.756 Y88.962 E.00674
;WIDTH:0.546157
G1 X92.635 Y89.05 E.00625
;WIDTH:0.506572
G1 X92.514 Y89.137 E.00575
;WIDTH:0.466987
G1 X92.393 Y89.224 E.00526
;WIDTH:0.434443
G1 X92.048 Y88.984 E.01366
;WIDTH:0.480004
G1 X91.892 Y88.915 E.00621
;WIDTH:0.525564
G1 X91.735 Y88.846 E.00686
G1 X92.068 Y88.821 E.01339
;WIDTH:0.476483
G1 X92.401 Y88.796 E.01203
;WIDTH:0.466987
G1 X92.52 Y88.816 E.00426
;WIDTH:0.506572
G1 X92.639 Y88.836 E.00465
;WIDTH:0.546157
G1 X92.758 Y88.856 E.00505
;WIDTH:0.585742
G1 X92.818 Y88.866 E.00274
M204 P1000
G1 X91.628 Y88.851 F9000
M204 P800
;WIDTH:0.534934
G1 F1200
G1 X91.439 Y88.964 E.00902
;WIDTH:0.494785
G1 X91.25 Y89.078 E.00829
;WIDTH:0.454635
G1 X91.061 Y89.192 E.00755
;WIDTH:0.418416
G1 X90.676 Y88.952 E.01416
;WIDTH:0.447891
G1 X90.516 Y88.887 E.00583
;WIDTH:0.477366
G1 X90.355 Y88.823 E.00625
G1 X90.695 Y88.807 E.0123
;WIDTH:0.445926
G1 X91.036 Y88.791 E.01141
;WIDTH:0.454635
G1 X91.233 Y88.811 E.00679
;WIDTH:0.494785
G1 X91.43 Y88.831 E.00745
;WIDTH:0.534934
G1 X91.568 Y88.845 E.00566
M204 P1000
G1 X90.252 Y88.827 F9000
M204 P800
;WIDTH:0.48637
G1 F1200
G1 X90.082 Y88.903 E.00684
;WIDTH:0.445706
G1 X89.913 Y88.979 E.00621
;WIDTH:0.405042
G1 X89.584 Y89.204 E.01201
;WIDTH:0.399723
G1 X89.32 Y88.969 E.01051
;WIDTH:0.424204
G1 X88.9 Y88.797 E.01439
G1 X89.648 Y88.784 E.02372
;WIDTH:0.443047
G1 X89.95 Y88.806 E.01007
;WIDTH:0.48637
G1 X90.192 Y88.823 E.00895
M204 P1000
G1 E-2.24 F4200
;WIPE_START
G1 F7200
G1 X90.082 Y88.903 E-.0752
G1 X89.913 Y88.979 E-.10281
G1 X89.584 Y89.204 E-.22105
G1 X89.32 Y88.969 E-.19627
G1 X88.9 Y88.797 E-.25152
G1 X89.017 Y88.795 E-.06516
;WIPE_END
G1 E-.048 F4200
M73 P5 R8
G1 Z.4 F720
G1 X88.691 Y88.799 F9000
G1 Z.2 F720
G1 E3.2 F2400
M204 P800
;WIDTH:0.428474
G1 F1200
G1 X88.331 Y88.958 E.01263
;WIDTH:0.380686
G1 X88.035 Y89.191 E.01058
G1 X87.929 Y89.067 E.0046
G1 X87.571 Y88.833 E.01199
;WIDTH:0.378033
G1 X87.314 Y88.772 E.00738
;WIDTH:0.380686
G1 X88.046 Y88.775 E.02057
;WIDTH:0.428474
G1 X88.631 Y88.797 E.01876
M204 P1000
G1 E-2.24 F4200
;WIPE_START
G1 F7200
G1 X88.331 Y88.958 E-.18905
G1 X88.035 Y89.191 E-.20868
G1 X87.929 Y89.067 E-.09077
G1 X87.571 Y88.833 E-.2365
G1 X87.314 Y88.772 E-.14676
G1 X87.386 Y88.772 E-.04024
;WIPE_END
G1 E-.048 F4200
G1 Z.4 F720
G1 X86.992 Y88.779 F9000
G1 Z.2 F720
G1 E3.2 F2400
M204 P800
;WIDTH:0.386388
G1 F1200
G1 X86.637 Y88.946 E.01121
;WIDTH:0.367681
G1 X86.379 Y89.188 E.00955
G1 X86.232 Y88.997 E.00649
;WIDTH:0.382781
G1 X85.971 Y88.789 E.00947
G1 X86.387 Y88.77 E.01178
;WIDTH:0.386388
G1 X86.932 Y88.778 E.01557
M204 P1000
G1 E-2.24 F4200
;WIPE_START
G1 F7200
G1 X86.637 Y88.946 E-.18819
G1 X86.379 Y89.188 E-.19591
G1 X86.232 Y88.997 E-.13314
G1 X85.971 Y88.789 E-.18566
G1 X86.347 Y88.772 E-.20909
;WIPE_END
G1 E-.048 F4200
G1 Z.4 F720
G1 X85.146 Y88.772 F9000
G1 Z.2 F720
G1 E3.2 F2400
M204 P800
;WIDTH:0.360054
G1 F1200
G1 X85.016 Y88.817 E.00365
G1 X84.784 Y88.99 E.00761
;WIDTH:0.352935
G1 X84.634 Y89.172 E.00608
G1 X84.516 Y89.01 E.00517
;WIDTH:0.357312
G1 X84.265 Y88.768 E.00909
G1 X84.641 Y88.763 E.00983
;WIDTH:0.360054
G1 X85.086 Y88.771 E.01173
M204 P1000
G1 E-2.24 F4200
;WIPE_START
G1 F7200
G1 X85.016 Y88.817 E-.04699
G1 X84.784 Y88.99 E-.15999
G1 X84.634 Y89.172 E-.13078
G1 X84.516 Y89.01 E-.11117
G1 X84.265 Y88.768 E-.19277
G1 X84.641 Y88.763 E-.20841
G1 X84.753 Y88.765 E-.06189
;WIPE_END
G1 E-.048 F4200
G1 Z.4 F720
G1 X87.073 Y91.227 F9000
G1 Z.2 F720
G1 E3.2 F2400
M204 P800
;WIDTH:0.38155
G1 F1200
G1 X86.721 Y91.231 E.00991
;WIDTH:0.381408
G1 X85.938 Y91.221 E.02203
G1 X86.037 Y91.175 E.00306
G1 X86.393 Y90.81 E.01435
;WIDTH:0.372517
G1 X86.521 Y90.96 E.00538
;WIDTH:0.373508
G1 X86.742 Y91.125 E.00757
;WIDTH:0.38155
G1 X87.016 Y91.209 E.00807
M204 P1000
G1 E-2.24 F4200
;WIPE_START
G1 F7200
G1 X86.721 Y91.231 E-.16378
G1 X85.938 Y91.221 E-.43366
G1 X86.037 Y91.175 E-.0603
G1 X86.358 Y90.847 E-.25426
;WIPE_END
G1 E-.048 F4200
G1 Z.4 F720
G1 X88.798 Y91.206 F9000
G1 Z.2 F720
G1 E3.2 F2400
M204 P800
;WIDTH:0.420664
G1 F1200
G1 X88.58 Y91.217 E.00687
;WIDTH:0.399219
G1 X88.047 Y91.226 E.0158
;WIDTH:0.383434
G1 X87.409 Y91.226 E.01805
G1 X87.771 Y91.062 E.01124
;WIDTH:0.381575
G1 X88.035 Y90.809 E.0103
G1 X88.334 Y91.043 E.01071
;WIDTH:0.420664
G1 X88.741 Y91.186 E.01355
M204 P1000
G1 E-2.24 F4200
;WIPE_START
G1 F7200
G1 X88.58 Y91.217 E-.09127
G1 X88.047 Y91.226 E-.29547
G1 X87.409 Y91.226 E-.35329
G1 X87.692 Y91.098 E-.17197
;WIPE_END
G1 E-.048 F4200
G1 Z.4 F720
G1 X90.279 Y91.181 F9000
G1 Z.2 F720
G1 E3.2 F2400
M204 P800
;WIDTH:0.47043
G1 F1200
G1 X89.924 Y91.197 E.01262
;WIDTH:0.437391
G1 X89.57 Y91.214 E.01165
;WIDTH:0.429238
G1 X88.897 Y91.202 E.02163
G1 X89.265 Y91.058 E.01269
;WIDTH:0.404352
G1 X89.585 Y90.806 E.01226
;WIDTH:0.410661
G1 X89.968 Y91.057 E.01398
;WIDTH:0.440546
G1 X90.124 Y91.119 E.00554
;WIDTH:0.47043
G1 X90.223 Y91.158 E.00382
M204 P1000
G1 E-2.24 F4200
;WIPE_START
G1 F7200
G1 X89.924 Y91.197 E-.16707
G1 X89.57 Y91.214 E-.19679
G1 X88.897 Y91.202 E-.37309
G1 X89.191 Y91.087 E-.17505
;WIPE_END
G1 E-.048 F4200
G1 Z.4 F720
G1 X91.735 Y91.153 F9000
G1 Z.2 F720
G1 E3.2 F2400
M204 P800
;WIDTH:0.523228
G1 F1200
G1 X91.509 Y91.171 E.00907
;WIDTH:0.48834
G1 X91.283 Y91.189 E.00841
;WIDTH:0.453452
G1 X91.056 Y91.206 E.00775
;WIDTH:0.448974
G1 X90.719 Y91.191 E.0114
;WIDTH:0.479384
G1 X90.382 Y91.176 E.01225
G1 X90.571 Y91.086 E.00759
;WIDTH:0.448974
G1 X90.759 Y90.995 E.00706
;WIDTH:0.418564
G1 X91.036 Y90.776 E.01103
G1 X91.148 Y90.854 E.0043
;WIDTH:0.453452
G1 X91.344 Y90.954 E.0075
;WIDTH:0.48834
G1 X91.54 Y91.054 E.00813
;WIDTH:0.523228
G1 X91.682 Y91.126 E.00637
M204 P1000
G1 E-2.24 F4200
;WIPE_START
G1 F7200
G1 X91.509 Y91.171 E-.09896
G1 X91.283 Y91.189 E-.12581
G1 X91.056 Y91.206 E-.12581
G1 X90.719 Y91.191 E-.18704
G1 X90.382 Y91.176 E-.18704
G1 X90.571 Y91.086 E-.11594
G1 X90.687 Y91.03 E-.0714
;WIPE_END
G1 E-.048 F4200
G1 Z.4 F720
G1 X94.14 Y88.897 F9000
G1 Z.2 F720
G1 E3.2 F2400
M204 P800
;WIDTH:0.630304
G1 F1200
G1 X94.018 Y88.984 E.00734
;WIDTH:0.584246
G1 X93.895 Y89.071 E.00677
;WIDTH:0.538187
G1 X93.773 Y89.158 E.00619
;WIDTH:0.492129
G1 X93.65 Y89.245 E.00561
;WIDTH:0.44607
G1 X93.552 Y89.179 E.00398
;WIDTH:0.489376
G1 X93.364 Y89.076 E.00793
;WIDTH:0.532682
G1 X93.177 Y88.973 E.0087
;WIDTH:0.575988
G1 X92.989 Y88.87 E.00947
G1 X93.212 Y88.849 E.0099
;WIDTH:0.532682
G1 X93.434 Y88.827 E.0091
;WIDTH:0.489376
G1 X93.656 Y88.805 E.00829
;WIDTH:0.492129
G1 X93.777 Y88.828 E.0046
;WIDTH:0.538187
G1 X93.898 Y88.851 E.00507
;WIDTH:0.584246
G1 X94.019 Y88.874 E.00554
;WIDTH:0.630304
G1 X94.081 Y88.886 E.00308
M204 P1000
G1 E-2.24 F4200
;WIPE_START
G1 F7200
G1 X94.018 Y88.984 E-.06485
G1 X93.895 Y89.071 E-.0833
G1 X93.773 Y89.158 E-.0833
G1 X93.65 Y89.245 E-.0833
G1 X93.552 Y89.179 E-.06575
G1 X93.364 Y89.076 E-.11845
G1 X93.177 Y88.973 E-.11845
G1 X92.989 Y88.87 E-.11845
G1 X93.212 Y88.849 E-.1238
G1 X93.306 Y88.839 E-.05234
;WIPE_END
G1 E-.048 F4200
G1 Z.4 F720
G1 X97.409 Y91.089 F9000
G1 Z.2 F720
G1 E3.2 F2400
M204 P800
;WIDTH:0.542054
G1 F1200
G1 X97.176 Y91.138 E.00989
;WIDTH:0.496915
G1 X96.942 Y91.186 E.00899
;WIDTH:0.451775
G1 X96.63 Y91.211 E.01064
;WIDTH:0.40184
G1 X96.319 Y91.237 E.00934
;WIDTH:0.400666
G1 X96.06 Y91.212 E.00773
;WIDTH:0.449427
G1 X95.801 Y91.188 E.00878
G1 X95.646 Y91.201 E.00528
;WIDTH:0.423135
G1 X95.49 Y91.214 E.00493
;WIDTH:0.424453
G1 X94.941 Y91.201 E.01743
;WIDTH:0.464675
G1 X94.827 Y91.181 E.00405
;WIDTH:0.504897
G1 X94.714 Y91.161 E.00444
;WIDTH:0.545119
G1 X94.6 Y91.141 E.00482
;WIDTH:0.585341
G1 X94.486 Y91.121 E.00521
;WIDTH:0.625562
G1 X94.372 Y91.101 E.00559
G1 X94.477 Y91.011 E.00666
;WIDTH:0.582147
G1 X94.581 Y90.921 E.00616
;WIDTH:0.538732
G1 X94.685 Y90.832 E.00567
;WIDTH:0.495317
G1 X94.789 Y90.742 E.00517
;WIDTH:0.451902
G1 X95.085 Y90.832 E.01051
;WIDTH:0.41722
G1 X95.287 Y90.882 E.0065
;WIDTH:0.415982
G1 X95.496 Y90.844 E.00659
;WIDTH:0.449427
G1 X95.705 Y90.805 E.00718
G1 X95.833 Y90.708 E.00543
G1 X95.935 Y90.832 E.00543
G1 X96.127 Y90.88 E.00667
;WIDTH:0.400666
G1 X96.318 Y90.928 E.00587
;WIDTH:0.379094
G1 X96.588 Y90.891 E.00761
;WIDTH:0.419834
G1 X96.699 Y90.845 E.00377
;WIDTH:0.460574
G1 X96.811 Y90.799 E.00418
;WIDTH:0.501314
G1 X96.922 Y90.753 E.00459
;WIDTH:0.542054
G1 X97.033 Y90.707 E.005
G1 X97.077 Y90.613 E.0043
;WIDTH:0.494288
G1 X97.12 Y90.519 E.00389
;WIDTH:0.446521
G1 X97.166 Y90.345 E.00602
;WIDTH:0.407903
G1 X97.212 Y90.172 E.00545
;WIDTH:0.390616
G1 X97.195 Y89.714 E.01325
;WIDTH:0.429165
G1 X97.154 Y89.608 E.00364
;WIDTH:0.467713
G1 X97.113 Y89.502 E.00401
;WIDTH:0.506262
G1 X97.073 Y89.396 E.00437
;WIDTH:0.54481
G1 X97.032 Y89.29 E.00474
G1 X96.925 Y89.234 E.00504
;WIDTH:0.500439
G1 X96.818 Y89.178 E.00459
;WIDTH:0.456067
G1 X96.651 Y89.142 E.00586
;WIDTH:0.422511
G1 X96.484 Y89.106 E.00538
;WIDTH:0.388915
G1 X96.318 Y89.071 E.00491
G1 X96.188 Y89.104 E.00385
;WIDTH:0.422432
G1 X96.058 Y89.136 E.00422
;WIDTH:0.455949
G1 X95.929 Y89.169 E.00459
G1 X95.838 Y89.276 E.00483
G1 X95.701 Y89.201 E.00537
G1 X95.485 Y89.15 E.0076
;WIDTH:0.414685
G1 X95.27 Y89.098 E.00684
;WIDTH:0.410487
G1 X95.1 Y89.135 E.00531
;WIDTH:0.447552
G1 X94.931 Y89.171 E.00584
G1 X94.815 Y89.256 E.00481
G1 X94.702 Y89.187 E.00445
;WIDTH:0.490718
G1 X94.591 Y89.114 E.00498
;WIDTH:0.533884
G1 X94.479 Y89.04 E.00546
;WIDTH:0.57705
G1 X94.368 Y88.966 E.00594
;WIDTH:0.620216
G1 X94.256 Y88.892 E.00642
G1 X94.459 Y88.867 E.0098
;WIDTH:0.570857
G1 X94.662 Y88.842 E.00897
;WIDTH:0.521498
G1 X94.864 Y88.817 E.00813
;WIDTH:0.472139
G1 X95.067 Y88.793 E.00729
;WIDTH:0.42278
G1 X95.27 Y88.768 E.00645
;WIDTH:0.414685
G1 X95.53 Y88.788 E.00808
;WIDTH:0.455949
G1 X95.791 Y88.809 E.00898
G1 X95.994 Y88.785 E.00703
;WIDTH:0.408285
G1 X96.198 Y88.761 E.00622
;WIDTH:0.382804
G1 X96.629 Y88.772 E.01219
;WIDTH:0.423306
G1 X96.777 Y88.792 E.00473
;WIDTH:0.463807
G1 X96.925 Y88.812 E.00523
