; generated by PrusaSlicer 2.5.2+win64 on 2023-05-01 at 07:18:55 UTC


;
;

;
;
; 

; external perimeters extrusion width = 0.45mm
; perimeters extrusion width = 0.45mm
; infill extrusion width = 0.45mm
; solid infill extrusion width = 0.45mm
; top infill extrusion width = 0.40mm
; first layer extrusion width = 0.42mm

M73 P0 R3
M201 X2500 Y2500 Z400 E5000 ; sets maximum accelerations, mm/sec^2
M203 X180 Y180 Z12 E80 ; sets maximum feedrates, mm / sec
M204 P2000 R1250 T2500 ; sets acceleration (P, T) and retract acceleration (R), mm/sec^2
M205 X8.00 Y8.00 Z2.00 E10.00 ; sets the jerk limits, mm/sec
M205 S0 T0 ; sets the minimum extruding and travel feed rate, mm/sec
M107
;TYPE:Custom
M862.3 P "MINI" ; printer model check
G90 ; use absolute coordinates
M83 ; extruder relative mode
M104 S170 ; set extruder temp for bed leveling
M140 S60 ; set bed temp
M109 R170 ; wait for bed leveling temp
M190 S60 ; wait for bed temp
M204 T1250 ; set travel acceleration
G28 ; home all without mesh bed level
G29 ; mesh bed leveling 
M204 T2500 ; restore travel acceleration
M104 S215 ; set extruder temp
G92 E0
G1 Y-2 X179 F2400
G1 Z3 F720
M109 S215 ; wait for extruder temp

; intro line
M73 P2 R3
G1 X170 F1000
G1 Z0.2 F720
G1 X110 E8 F900
G1 X40 E10 F700
G92 E0

M221 S95 ; set flow
G21 ; set units to millimeters
G90 ; use absolute coordinates
M83 ; use relative distances for extrusion
M900 K0.2 ; Filament gcode LA 1.5
; ; Filament gcode LA 1.0
M107
;LAYER_CHANGE
;Z:0.2
;HEIGHT:0.2
;BEFORE_LAYER_CHANGE
G92 E0.0
;0.2


M73 P5 R3
G1 E-3.2 F4200
M73 P8 R2
G1 Z.2 F720
;AFTER_LAYER_CHANGE
;0.2
G1 Z.4
G1 X84.961 Y84.814 F9000
G1 Z.2 F720
G1 E3.2 F2400
M204 P600
;TYPE:Skirt/Brim
;WIDTH:0.42
G1 F1200
G1 X86.035 Y83.953 E.04317
G1 X87.285 Y83.298 E.04423
G1 X88.605 Y82.905 E.04317
G1 X90.119 Y82.77 E.04766
G1 X91.52 Y82.931 E.04424
G1 X92.833 Y83.347 E.04317
G1 X94.071 Y84.023 E.04423
G1 X95.23 Y85.006 E.04766
G1 X96.082 Y86.088 E.04317
G1 X96.726 Y87.344 E.04423
G1 X97.132 Y88.808 E.04766
M73 P9 R2
G1 X97.229 Y90.182 E.04317
G1 X97.056 Y91.582 E.04424
G1 X96.628 Y92.891 E.04317
G1 X95.941 Y94.123 E.04423
G1 X95.052 Y95.174 E.04317
G1 X93.951 Y96.056 E.04423
G1 X92.731 Y96.695 E.04317
G1 X91.271 Y97.118 E.04766
G1 X89.865 Y97.23 E.04423
G1 X88.497 Y97.073 E.04317
G1 X87.152 Y96.646 E.04424
G1 X85.826 Y95.904 E.04766
G1 X84.782 Y95.006 E.04317
G1 X83.91 Y93.897 E.04424
G1 X83.281 Y92.672 E.04317
G1 X82.89 Y91.317 E.04423
G1 X82.77 Y89.945 E.04317
G1 X82.918 Y88.542 E.04423
G1 X83.336 Y87.196 E.0442
G1 X84.05 Y85.891 E.04663
G1 X84.922 Y84.86 E.04235
M204 P1000
G1 X85.209 Y85.103 F9000
M204 P600
G1 F1200
G1 X86.239 Y84.27 E.04152
G1 X87.43 Y83.646 E.04216
G1 X88.674 Y83.276 E.04069
G1 X90.109 Y83.147 E.04517
G1 X91.445 Y83.3 E.04216
G1 X92.682 Y83.692 E.04069
M73 P10 R2
G1 X93.862 Y84.337 E.04216
G1 X94.96 Y85.27 E.04518
G1 X95.763 Y86.289 E.04069
G1 X96.376 Y87.486 E.04216
G1 X96.761 Y88.874 E.04518
G1 X96.852 Y90.169 E.04068
G1 X96.687 Y91.503 E.04216
G1 X96.284 Y92.737 E.04069
G1 X95.629 Y93.911 E.04216
G1 X94.791 Y94.902 E.04069
G1 X93.742 Y95.743 E.04216
G1 X92.592 Y96.345 E.04069
G1 X91.304 Y96.729 E.04216
G1 X89.868 Y96.853 E.04518
G1 X88.579 Y96.705 E.04068
G1 X87.297 Y96.298 E.04217
G1 X86.04 Y95.594 E.04518
G1 X85.057 Y94.748 E.04069
G1 X84.225 Y93.691 E.04216
G1 X83.633 Y92.536 E.04069
G1 X83.26 Y91.244 E.04216
G1 X83.147 Y89.952 E.04069
G1 X83.288 Y88.614 E.04216
G1 X83.682 Y87.344 E.04172
G1 X84.358 Y86.109 E.04414
G1 X85.17 Y85.148 E.03943
M204 P1000
G1 X85.457 Y85.391 F9000
M204 P600
G1 F1200
G1 X86.443 Y84.588 E.03986
G1 X87.575 Y83.994 E.04009
M73 P11 R2
G1 X88.743 Y83.646 E.0382
G1 X90.099 Y83.524 E.04269
G1 X91.369 Y83.669 E.04009
G1 X92.53 Y84.038 E.0382
G1 X93.721 Y84.698 E.04269
G1 X94.69 Y85.533 E.04009
G1 X95.444 Y86.49 E.0382
G1 X96.027 Y87.628 E.04009
G1 X96.39 Y88.94 E.04269
G1 X96.475 Y90.155 E.0382
G1 X96.319 Y91.424 E.04009
G1 X95.94 Y92.582 E.0382
G1 X95.317 Y93.699 E.04009
G1 X94.53 Y94.629 E.0382
G1 X93.533 Y95.429 E.04009
G1 X92.453 Y95.994 E.0382
G1 X91.228 Y96.359 E.04009
G1 X89.872 Y96.476 E.04269
G1 X88.643 Y96.333 E.03879
G1 X87.366 Y95.917 E.04211
G1 X86.255 Y95.284 E.04009
G1 X85.332 Y94.489 E.0382
G1 X84.541 Y93.485 E.04009
G1 X83.985 Y92.4 E.0382
G1 X83.63 Y91.172 E.04009
G1 X83.524 Y89.958 E.0382
G1 X83.658 Y88.687 E.04009
G1 X84.029 Y87.492 E.03923
G1 X84.666 Y86.326 E.04166
G1 X85.418 Y85.437 E.03652
M204 P1000
; printing object dc-motor-shaft-2_2mm.stl id:0 copy 0
M73 P12 R2
G1 E-2.24 F4200
;WIPE_START
G1 F7200
G1 X86.443 Y84.588 E-.73726
G1 X86.722 Y84.441 E-.17474
;WIPE_END
G1 E-.048 F4200
G1 Z.4 F720
G1 X92.39 Y87.741 F9000
G1 Z.2 F720
G1 E3.2 F2400
M204 P600
;TYPE:Perimeter
;WIDTH:0.419999
G1 F1200
G1 X92.556 Y87.923 E.00771
G1 X92.866 Y88.353 E.01662
G1 X93.104 Y88.869 E.01784
G1 X93.275 Y89.553 E.0221
G1 X93.31 Y90.058 E.01587
G1 X93.25 Y90.63 E.01804
G1 X93.044 Y91.3 E.02197
G1 X92.703 Y91.912 E.02197
G1 X92.333 Y92.349 E.01794
G1 X91.788 Y92.786 E.02191
G1 X91.166 Y93.098 E.02182
G1 X90.487 Y93.274 E.02198
G1 X89.913 Y93.31 E.01804
G1 X89.342 Y93.244 E.01803
G1 X88.674 Y93.032 E.02197
G1 X88.065 Y92.685 E.02198
G1 X87.633 Y92.313 E.01787
G1 X87.196 Y91.759 E.02213
G1 X86.935 Y91.249 E.01794
G1 X86.741 Y90.578 E.02191
G1 X86.693 Y89.884 E.02182
G1 X86.791 Y89.19 E.02197
G1 X86.977 Y88.651 E.01788
G1 X87.332 Y88.041 E.02213
G1 X87.711 Y87.608 E.01803
G1 X88.16 Y87.248 E.01804
G1 X88.781 Y86.923 E.02198
G1 X89.456 Y86.735 E.02197
G1 X90.026 Y86.69 E.01794
G1 X90.721 Y86.77 E.02191
G1 X91.385 Y86.993 E.02198
G1 X91.88 Y87.275 E.01787
G1 X92.35 Y87.697 E.01979
M204 P1000
G1 X92.688 Y87.473 F9000
M204 P600
;TYPE:External perimeter
G1 F1200
G1 X93.094 Y88.008 E.02106
G1 X93.376 Y88.536 E.01878
G1 X93.527 Y88.988 E.01494
G1 X93.651 Y89.527 E.01732
G1 X93.689 Y90.065 E.01691
G1 X93.621 Y90.706 E.02022
G1 X93.393 Y91.449 E.02437
G1 X93.014 Y92.128 E.02437
G1 X92.597 Y92.62 E.02023
G1 X91.992 Y93.105 E.0243
G1 X91.299 Y93.453 E.02432
G1 X90.547 Y93.648 E.02437
M73 P13 R2
G1 X89.903 Y93.688 E.02022
G1 X89.262 Y93.615 E.02022
G1 X88.522 Y93.38 E.02437
G1 X87.846 Y92.995 E.02437
G1 X87.359 Y92.575 E.02016
G1 X86.877 Y91.963 E.02442
G1 X86.583 Y91.389 E.02024
G1 X86.368 Y90.644 E.0243
G1 X86.314 Y89.871 E.02432
G1 X86.422 Y89.101 E.02437
G1 X86.633 Y88.493 E.02017
G1 X87.024 Y87.82 E.02442
G1 X87.449 Y87.335 E.02022
G1 X87.953 Y86.931 E.02022
G1 X88.641 Y86.571 E.02437
G1 X89.39 Y86.362 E.02437
G1 X90.033 Y86.311 E.02024
G1 X90.803 Y86.4 E.0243
G1 X91.54 Y86.647 E.02437
G1 X92.099 Y86.966 E.02016
G1 X92.642 Y87.434 E.02249
M204 P1000
G1 X92.57 Y87.855 F9000
G1 E-2.24 F4200
;WIPE_START
G1 F7200
G1 X93.094 Y88.008 E-.40481
G1 X93.376 Y88.536 E-.33196
G1 X93.476 Y88.836 E-.17523
;WIPE_END
G1 E-.048 F4200
G1 Z.4 F720
G1 X90.327 Y91.846 F9000
G1 Z.2 F720
G1 E3.2 F2400
M204 P600
;TYPE:Perimeter
G1 F1200
G1 X90.27 Y91.862 E.00185
G1 X89.736 Y91.868 E.01676
G1 X89.274 Y91.738 E.01505
G1 X88.913 Y91.537 E.01294
G1 X88.661 Y91.326 E.01031
G1 X88.419 Y91.025 E.01211
G1 X88.242 Y90.669 E.01247
G1 X88.117 Y90.129 E.01738
G1 X88.141 Y89.689 E.0138
G1 X88.274 Y89.253 E.01431
G1 X88.485 Y88.886 E.01328
G1 X88.851 Y88.505 E.01656
G1 X89.28 Y88.258 E.01552
G1 X89.667 Y88.146 E.01262
G1 X90.047 Y88.12 E.01195
G1 X90.598 Y88.21 E.01749
G1 X91.05 Y88.439 E.01591
G1 X91.365 Y88.706 E.01293
G1 X91.614 Y89.034 E.01293
G1 X91.819 Y89.503 E.01604
G1 X91.885 Y89.997 E.01565
G1 X91.848 Y90.373 E.01184
G1 X91.735 Y90.738 E.01196
G1 X91.551 Y91.072 E.01196
G1 X91.304 Y91.362 E.01196
G1 X91.003 Y91.597 E.01196
G1 X90.755 Y91.729 E.00882
G1 X90.385 Y91.83 E.01202
M204 P1000
G1 X90.66 Y91.352 F9000
M204 P600
;TYPE:External perimeter
G1 F1200
G1 X90.586 Y91.392 E.00263
G1 X90.262 Y91.485 E.01057
G1 X89.755 Y91.489 E.0159
G1 X89.44 Y91.4 E.01026
M73 P14 R2
G1 X89.144 Y91.239 E.01055
G1 X88.947 Y91.081 E.00793
G1 X88.748 Y90.841 E.00976
G1 X88.608 Y90.578 E.00933
G1 X88.493 Y90.083 E.01595
G1 X88.547 Y89.614 E.01481
G1 X88.716 Y89.207 E.0138
G1 X88.93 Y88.94 E.01072
G1 X89.133 Y88.765 E.00841
G1 X89.399 Y88.615 E.00958
G1 X89.713 Y88.52 E.01027
G1 X89.992 Y88.493 E.00881
G1 X90.494 Y88.574 E.01595
G1 X90.83 Y88.745 E.0118
G1 X91.198 Y89.081 E.01564
G1 X91.389 Y89.416 E.01208
G1 X91.484 Y89.75 E.01089
G1 X91.491 Y90.242 E.01543
G1 X91.4 Y90.566 E.01055
G1 X91.257 Y90.836 E.00958
G1 X91.063 Y91.072 E.00958
G1 X90.826 Y91.264 E.00958
G1 X90.713 Y91.324 E.00402
M204 P1000
G1 X90.66 Y91.436 F9000
G1 E-2.24 F4200
;WIPE_START
G1 F7200
G1 X90.586 Y91.392 E-.07978
G1 X90.262 Y91.485 E-.18674
G1 X89.755 Y91.489 E-.28101
G1 X89.44 Y91.4 E-.18141
G1 X89.15 Y91.242 E-.18305
;WIPE_END
G1 E-.048 F4200
G1 Z.4 F720
G1 X91.359 Y87.174 F9000
G1 Z.2 F720
G1 E3.2 F2400
M204 P600
;TYPE:Solid infill
;WIDTH:0.437612
G1 F1200
G1 X92.198 Y88.013 E.03895
G1 X92.545 Y88.47 E.01884
G1 X92.767 Y88.923 E.01655
G1 X92.848 Y89.221 E.01012
G1 X90.772 Y87.145 E.09633
G1 X90.646 Y87.103 E.00436
G1 X90.11 Y87.041 E.01772
G1 X93.139 Y90.07 E.14057
M204 P1000
G1 X91.987 Y89.476 F9000
M204 P600
G1 F1200
G1 X92.931 Y90.42 E.04382
G1 X92.916 Y90.562 E.00467
G1 X92.822 Y90.869 E.01055
G1 X92.207 Y90.254 E.02854
G1 X92.106 Y90.711 E.01537
G1 X92.669 Y91.275 E.02616
G1 X92.469 Y91.633 E.01346
G1 X91.931 Y91.095 E.02498
G1 X91.898 Y91.164 E.00252
G1 X91.701 Y91.423 E.01067
G1 X92.227 Y91.949 E.02438
G1 X92.095 Y92.104 E.00669
G1 X91.945 Y92.225 E.00632
G1 X91.42 Y91.7 E.02436
G1 X91.311 Y91.797 E.00478
G1 X91.093 Y91.931 E.00841
G1 X91.635 Y92.473 E.02516
G1 X91.269 Y92.666 E.01356
M73 P15 R2
G1 X90.706 Y92.103 E.02613
G1 X90.347 Y92.198 E.01219
G1 X90.244 Y92.199 E.00338
G1 X90.869 Y92.824 E.02902
G1 X90.425 Y92.938 E.01505
G1 X89.462 Y91.975 E.0447
M204 P1000
G1 E-2.24 F4200
;WIPE_START
G1 F7200
G1 X90.425 Y92.938 E-.75475
G1 X90.7 Y92.868 E-.15725
;WIPE_END
G1 E-.048 F4200
G1 Z.4 F720
G1 X90.541 Y88.031 F9000
G1 Z.2 F720
G1 E3.2 F2400
M204 P600
G1 F1200
G1 X89.578 Y87.067 E.04472
G1 X89.13 Y87.178 E.01512
G1 X89.75 Y87.797 E.02874
G1 X89.473 Y87.836 E.00916
G1 X89.294 Y87.9 E.00624
G1 X88.728 Y87.334 E.02628
G1 X88.362 Y87.526 E.01357
G1 X88.908 Y88.072 E.02533
G1 X88.665 Y88.218 E.00931
G1 X88.577 Y88.299 E.00392
G1 X88.05 Y87.772 E.02445
G1 X87.947 Y87.854 E.00433
G1 X87.773 Y88.053 E.00866
G1 X88.296 Y88.577 E.0243
G1 X88.066 Y88.904 E.01315
G1 X87.533 Y88.371 E.02474
G1 X87.327 Y88.724 E.0134
G1 X87.892 Y89.289 E.0262
G1 X87.792 Y89.747 E.01539
G1 X87.172 Y89.127 E.02878
G1 X87.122 Y89.27 E.00498
G1 X87.077 Y89.59 E.0106
G1 X88.043 Y90.556 E.04482
M204 P1000
G1 X86.867 Y89.938 F9000
M204 P600
G1 F1200
G1 X89.895 Y92.966 E.14055
G1 X89.413 Y92.911 E.01592
G1 X89.22 Y92.85 E.00663
G1 X87.154 Y90.783 E.09591
G1 X87.252 Y91.124 E.01164
M73 P16 R2
G1 X87.483 Y91.575 E.01662
G1 X87.837 Y92.025 E.0188
G1 X88.617 Y92.805 E.0362
M204 P1000
; stop printing object dc-motor-shaft-2_2mm.stl id:0 copy 0
M106 S84.15
;LAYER_CHANGE
;Z:0.45
;HEIGHT:0.25
;BEFORE_LAYER_CHANGE
G92 E0.0
;0.45


G1 E-2.24 F4200
;WIPE_START
G1 F7200
G1 X87.837 Y92.025 E-.61135
G1 X87.502 Y91.599 E-.30065
;WIPE_END
G1 E-.048 F4200
G1 Z.4 F720
G1 Z.45
;AFTER_LAYER_CHANGE
;0.45
G1 Z.65
G1 X84.167 Y94.224 F9000
G1 Z.45 F720
G1 E3.2 F2400
;TYPE:Skirt/Brim
;WIDTH:0.42
G1 F2156
G1 X83.91 Y93.897 E.01583
G1 X83.281 Y92.672 E.05243
G1 X82.89 Y91.317 E.05372
G1 X82.77 Y89.945 E.05243
G1 X82.918 Y88.542 E.05372
G1 X83.336 Y87.196 E.05368
G1 X84.05 Y85.891 E.05663
G1 X84.961 Y84.814 E.05372
G1 X86.035 Y83.953 E.05243
G1 X87.285 Y83.298 E.05372
G1 X88.605 Y82.905 E.05243
G1 X90.119 Y82.77 E.05788
G1 X91.52 Y82.931 E.05372
G1 X92.833 Y83.347 E.05243
G1 X94.071 Y84.023 E.05372
G1 X95.23 Y85.006 E.05788
G1 X96.082 Y86.088 E.05243
G1 X96.726 Y87.344 E.05372
G1 X97.132 Y88.808 E.05788
G1 X97.229 Y90.182 E.05243
G1 X97.056 Y91.582 E.05372
G1 X96.628 Y92.891 E.05243
G1 X95.941 Y94.123 E.05372
G1 X95.052 Y95.174 E.05243
G1 X93.951 Y96.056 E.05372
G1 X92.731 Y96.695 E.05243
G1 X91.271 Y97.118 E.05788
G1 X89.865 Y97.23 E.05372
G1 X88.497 Y97.073 E.05242
G1 X87.152 Y96.646 E.05373
G1 X85.826 Y95.904 E.05788
G1 X84.782 Y95.006 E.05243
G1 X84.204 Y94.271 E.0356
G1 X84.499 Y94.039 F9000
G1 F2156
G1 X84.225 Y93.691 E.01686
G1 X83.633 Y92.536 E.04941
M73 P17 R2
G1 X83.26 Y91.244 E.0512
G1 X83.147 Y89.952 E.04941
G1 X83.288 Y88.614 E.0512
G1 X83.682 Y87.344 E.05066
G1 X84.358 Y86.109 E.05361
G1 X85.227 Y85.082 E.0512
G1 X86.239 Y84.27 E.04941
G1 X87.43 Y83.646 E.0512
G1 X88.674 Y83.276 E.04941
G1 X90.109 Y83.147 E.05486
G1 X91.445 Y83.3 E.0512
G1 X92.682 Y83.692 E.04941
G1 X93.862 Y84.337 E.0512
G1 X94.96 Y85.27 E.05486
G1 X95.763 Y86.289 E.04941
G1 X96.376 Y87.486 E.0512
G1 X96.761 Y88.874 E.05486
G1 X96.852 Y90.169 E.04941
G1 X96.687 Y91.503 E.0512
G1 X96.284 Y92.737 E.04941
G1 X95.629 Y93.911 E.0512
G1 X94.791 Y94.902 E.04941
G1 X93.742 Y95.743 E.0512
G1 X92.592 Y96.345 E.04941
G1 X91.304 Y96.729 E.0512
G1 X89.868 Y96.853 E.05486
G1 X88.579 Y96.705 E.04941
G1 X87.297 Y96.298 E.05121
G1 X86.04 Y95.594 E.05486
G1 X85.057 Y94.748 E.04941
G1 X84.536 Y94.086 E.03206
G1 X84.831 Y93.854 F9000
G1 F2156
G1 X84.541 Y93.485 E.01789
G1 X83.985 Y92.4 E.04639
G1 X83.63 Y91.172 E.04869
G1 X83.524 Y89.958 E.04639
G1 X83.658 Y88.687 E.04868
G1 X84.029 Y87.492 E.04765
G1 X84.666 Y86.326 E.05059
G1 X85.492 Y85.35 E.04868
G1 X86.443 Y84.588 E.04639
G1 X87.575 Y83.994 E.04868
G1 X88.743 Y83.646 E.04639
G1 X90.099 Y83.524 E.05184
G1 X91.369 Y83.669 E.04869
G1 X92.53 Y84.038 E.04639
G1 X93.721 Y84.698 E.05185
G1 X94.69 Y85.533 E.04868
G1 X95.444 Y86.49 E.04639
G1 X96.027 Y87.628 E.04868
G1 X96.39 Y88.94 E.05184
G1 X96.475 Y90.155 E.04639
G1 X96.319 Y91.424 E.04869
M73 P18 R2
G1 X95.94 Y92.582 E.04639
G1 X95.317 Y93.699 E.04868
G1 X94.53 Y94.629 E.04639
G1 X93.533 Y95.429 E.04868
G1 X92.453 Y95.994 E.04639
G1 X91.228 Y96.359 E.04868
G1 X89.872 Y96.476 E.05184
G1 X88.643 Y96.333 E.0471
G1 X87.366 Y95.917 E.05113
G1 X86.255 Y95.284 E.04868
G1 X85.332 Y94.489 E.04639
G1 X84.868 Y93.901 E.02852
; printing object dc-motor-shaft-2_2mm.stl id:0 copy 0
G1 E-2.24 F4200
;WIPE_START
G1 F7200
G1 X84.541 Y93.485 E-.29356
G1 X84.031 Y92.492 E-.61844
;WIPE_END
G1 E-.048 F4200
G1 Z.65 F720
G1 X92.536 Y87.623 F9000
G1 Z.45 F720
G1 E3.2 F2400
;TYPE:Perimeter
;WIDTH:0.449999
G1 F1500
G1 X92.853 Y88.026 E.02113
G1 X93.093 Y88.458 E.02035
G1 X93.296 Y88.935 E.02135
G1 X93.421 Y89.43 E.02104
G1 X93.476 Y90.066 E.0263
G1 X93.413 Y90.662 E.02468
G1 X93.195 Y91.369 E.0305
G1 X92.903 Y91.912 E.0254
G1 X92.447 Y92.468 E.02959
G1 X91.873 Y92.929 E.03035
G1 X91.342 Y93.206 E.02466
G1 X90.637 Y93.416 E.03031
G1 X89.909 Y93.474 E.0301
G1 X89.185 Y93.378 E.0301
G1 X88.491 Y93.131 E.03032
G1 X87.976 Y92.826 E.02466
G1 X87.427 Y92.336 E.03031
G1 X86.992 Y91.742 E.03032
G1 X86.736 Y91.196 E.02484
G1 X86.576 Y90.595 E.02562
G1 X86.527 Y89.879 E.02959
G1 X86.63 Y89.149 E.03035
G1 X86.828 Y88.579 E.02488
G1 X87.122 Y88.051 E.02488
G1 X87.6 Y87.486 E.03051
G1 X88.082 Y87.102 E.0254
G1 X88.719 Y86.769 E.02959
G1 X89.428 Y86.572 E.0303
G1 X90.043 Y86.525 E.0254
G1 X90.756 Y86.608 E.02959
G1 X91.454 Y86.843 E.03035
G1 X91.974 Y87.139 E.02466
G1 X92.491 Y87.584 E.02807
G1 X92.82 Y87.344 F9000
M204 P800
;TYPE:External perimeter
G1 F1500
G1 X93.242 Y87.878 E.02803
G1 X93.558 Y88.494 E.02853
G1 X93.678 Y88.826 E.01452
G1 X93.816 Y89.396 E.02417
G1 X93.874 Y90.07 E.02786
G1 X93.803 Y90.742 E.02783
G1 X93.562 Y91.523 E.03368
M73 P19 R2
G1 X93.233 Y92.134 E.02858
G1 X92.728 Y92.751 E.03288
G1 X92.091 Y93.262 E.03364
G1 X91.492 Y93.575 E.02782
G1 X90.71 Y93.808 E.03362
G1 X89.898 Y93.873 E.03355
G1 X89.091 Y93.766 E.03355
G1 X88.322 Y93.492 E.03363
G1 X87.741 Y93.147 E.02782
G1 X87.132 Y92.604 E.03362
G1 X86.65 Y91.945 E.03363
G1 X86.362 Y91.332 E.02788
G1 X86.183 Y90.66 E.02865
G1 X86.129 Y89.864 E.03288
G1 X86.243 Y89.056 E.03364
G1 X86.465 Y88.416 E.02789
G1 X86.795 Y87.825 E.02789
G1 X87.323 Y87.2 E.03369
G1 X87.865 Y86.768 E.02858
G1 X88.573 Y86.399 E.03288
G1 X89.359 Y86.179 E.03362
G1 X90.051 Y86.127 E.02858
G1 X90.843 Y86.219 E.03288
G1 X91.617 Y86.479 E.03364
G1 X92.204 Y86.814 E.02782
