; generated by PrusaSlicer 2.5.1+win64 on 2023-04-11 at 11:44:28 UTC


;
;

;
;
; 

; external perimeters extrusion width = 0.45mm
; perimeters extrusion width = 0.45mm
; infill extrusion width = 0.45mm
; solid infill extrusion width = 0.45mm
; top infill extrusion width = 0.40mm
; first layer extrusion width = 0.42mm

M73 P0 R16
M201 X2500 Y2500 Z400 E5000 ; sets maximum accelerations, mm/sec^2
M203 X180 Y180 Z12 E80 ; sets maximum feedrates, mm / sec
M204 P1250 R1250 T2500 ; sets acceleration (P, T) and retract acceleration (R), mm/sec^2
M205 X8.00 Y8.00 Z2.00 E10.00 ; sets the jerk limits, mm/sec
M205 S0 T0 ; sets the minimum extruding and travel feed rate, mm/sec
M107
;TYPE:Custom
M862.3 P "MINI" ; printer model check
G90 ; use absolute coordinates
M83 ; extruder relative mode
M104 S170 ; set extruder temp for bed leveling
M140 S60 ; set bed temp
M109 R170 ; wait for bed leveling temp
M190 S60 ; wait for bed temp
M204 T1250 ; set travel acceleration
G28 ; home all without mesh bed level
G29 ; mesh bed leveling 
M204 T2500 ; restore travel acceleration
M104 S215 ; set extruder temp
G92 E0
G1 Y-2 X179 F2400
G1 Z3 F720
M109 S215 ; wait for extruder temp

; intro line
G1 X170 F1000
G1 Z0.2 F720
G1 X110 E8 F900
G1 X40 E10 F700
G92 E0

M221 S95 ; set flow
G21 ; set units to millimeters
G90 ; use absolute coordinates
M83 ; use relative distances for extrusion
M900 K0.2 ; Filament gcode LA 1.5
; ; Filament gcode LA 1.0
M107
;LAYER_CHANGE
;Z:0.2
;HEIGHT:0.2
;BEFORE_LAYER_CHANGE
G92 E0.0
;0.2


G1 E-3.2 F4200
M73 P1 R15
G1 Z.2 F720
;AFTER_LAYER_CHANGE
;0.2
G1 Z.4
G1 X71.994 Y84.685 F9000
G1 Z.2 F720
G1 E3.2 F2400
M204 P800
;TYPE:Skirt/Brim
;WIDTH:0.42
G1 F1200
G1 X72.896 Y83.96 E.0363
G1 X73.965 Y83.469 E.03687
G1 X74.73 Y83.294 E.02461
G1 X75.4 Y83.246 E.02106
G1 X104.714 Y83.248 E.91911
G1 X105.494 Y83.332 E.02462
G1 X106.251 Y83.543 E.02461
G1 X107.104 Y83.96 E.02977
G1 X107.735 Y84.427 E.02461
G1 X108.42 Y85.171 E.03172
G1 X108.833 Y85.838 E.02461
G1 X109.178 Y86.723 E.02978
G1 X109.326 Y87.494 E.02461
G1 X109.345 Y92.279 E.15002
G1 X109.268 Y92.894 E.01945
G1 X109.057 Y93.651 E.02461
G1 X108.64 Y94.504 E.02978
G1 X107.902 Y95.419 E.03687
G1 X106.962 Y96.125 E.03687
G1 X106.035 Y96.531 E.03172
G1 X105.27 Y96.706 E.02461
G1 X104.6 Y96.754 E.02106
G1 X74.894 Y96.726 E.93141
G1 X73.595 Y96.397 E.04201
M73 P2 R15
G1 X73.038 Y96.125 E.01944
G1 X72.392 Y95.68 E.02461
G1 X71.484 Y94.694 E.04201
G1 X71.094 Y94.013 E.02461
G1 X70.869 Y93.435 E.01945
G1 X70.648 Y92.114 E.04201
G1 X70.646 Y88 E.12899
G1 X70.694 Y87.33 E.02106
G1 X70.869 Y86.565 E.02461
G1 X71.36 Y85.496 E.03687
G1 X71.957 Y84.732 E.0304
M204 P1000
G1 X72.26 Y84.977 F9000
M204 P800
G1 F1200
G1 X72.365 Y84.848 E.00523
G1 X73.231 Y84.199 E.03394
G1 X74.231 Y83.783 E.03394
G1 X75.4 Y83.623 E.037
G1 X104.698 Y83.625 E.91862
G1 X105.417 Y83.701 E.02266
G1 X106.113 Y83.894 E.02266
G1 X106.911 Y84.284 E.02782
G1 X107.491 Y84.715 E.02266
G1 X108.113 Y85.39 E.02879
G1 X108.494 Y86.004 E.02266
G1 X108.817 Y86.831 E.02782
G1 X108.952 Y87.541 E.02266
G1 X108.975 Y92.098 E.1429
G1 X108.899 Y92.817 E.02266
G1 X108.706 Y93.513 E.02266
G1 X108.209 Y94.475 E.03394
G1 X107.491 Y95.285 E.03394
G1 X106.769 Y95.801 E.02782
G1 X105.769 Y96.217 E.03394
G1 X104.6 Y96.377 E.037
G1 X74.941 Y96.352 E.92994
G1 X73.733 Y96.046 E.03908
G1 X73.089 Y95.716 E.02266
G1 X72.509 Y95.285 E.02266
G1 X71.684 Y94.311 E.04005
G1 X71.183 Y93.169 E.03908
G1 X71.025 Y92.098 E.03394
G1 X71.023 Y88 E.1285
G1 X71.068 Y87.377 E.01959
G1 X71.23 Y86.672 E.02266
G1 X71.684 Y85.689 E.03395
G1 X72.222 Y85.024 E.02683
M204 P1000
; printing object dc-motor-axel-size-test_16-23mm.stl id:0 copy 0
G1 E-2.24 F4200
;WIPE_START
G1 F7200
G1 X72.365 Y84.848 E-.1257
G1 X73.231 Y84.199 E-.59993
G1 X73.542 Y84.07 E-.18637
;WIPE_END
G1 E-.048 F4200
G1 Z.4 F720
G1 X90.579 Y89.678 F9000
G1 Z.2 F720
G1 E3.2 F2400
M204 P800
;TYPE:Perimeter
;WIDTH:0.488374
G1 F1200
G1 X90.598 Y89.755 E.00294
;WIDTH:0.514348
G1 X90.623 Y89.861 E.0043
G1 X90.715 Y89.593 E.01112
;WIDTH:0.467174
G1 X90.807 Y89.324 E.01001
;WIDTH:0.419999
G1 X91.13 Y88.818 E.01881
G1 X91.459 Y88.548 E.01335
G1 X91.997 Y88.312 E.01842
G1 X92.433 Y88.27 E.01374
G1 X93.023 Y88.381 E.01881
G1 X93.393 Y88.582 E.01323
G1 X93.752 Y88.91 E.01524
G1 X94.025 Y89.406 E.01774
;WIDTH:0.458801
G1 X94.078 Y89.541 E.00501
;WIDTH:0.497603
G1 X94.13 Y89.676 E.00548
;WIDTH:0.536404
G1 X94.183 Y89.811 E.00595
G1 X94.22 Y89.704 E.00466
;WIDTH:0.500042
G1 X94.257 Y89.597 E.00432
;WIDTH:0.463679
G1 X94.294 Y89.489 E.00397
;WIDTH:0.427316
G1 X94.505 Y89.051 E.01555
;WIDTH:0.419999
G1 X94.886 Y88.659 E.01712
G1 X95.059 Y88.544 E.00652
G1 X95.562 Y88.347 E.01695
G1 X96.032 Y88.325 E.01476
G1 X96.453 Y88.413 E.01346
G1 X96.65 Y88.495 E.0067
G1 X97.027 Y88.747 E.01421
G1 X97.363 Y89.179 E.01717
;WIDTH:0.469508
G1 X97.479 Y89.439 E.01011
;WIDTH:0.519016
G1 X97.596 Y89.699 E.01128
;WIDTH:0.54566
G1 X97.629 Y89.777 E.00355
G1 X97.722 Y89.571 E.00946
;WIDTH:0.503773
G1 X97.815 Y89.364 E.00867
;WIDTH:0.461886
G1 X97.907 Y89.158 E.00788
;WIDTH:0.419999
G1 X98.045 Y88.958 E.0076
G1 X98.485 Y88.583 E.01813
G1 X98.863 Y88.425 E.01285
G1 X99.304 Y88.369 E.01393
G1 X99.702 Y88.419 E.01259
G1 X99.903 Y88.485 E.00664
G1 X100.347 Y88.741 E.01605
G1 X100.675 Y89.123 E.01581
;WIDTH:0.463726
G1 X100.922 Y89.683 E.02141
;WIDTH:0.489511
G1 X100.949 Y89.782 E.00379
;WIDTH:0.515296
G1 X100.976 Y89.88 E.00401
G1 X101.067 Y89.611 E.01114
;WIDTH:0.467648
G1 X101.157 Y89.342 E.01002
;WIDTH:0.419999
G1 X101.483 Y88.872 E.01795
G1 X101.895 Y88.586 E.01571
G1 X102.094 Y88.502 E.00679
G1 X102.58 Y88.414 E.01547
G1 X103.094 Y88.5 E.01636
G1 X103.305 Y88.586 E.00715
G1 X103.717 Y88.872 E.01572
G1 X104.014 Y89.295 E.0162
G1 X104.099 Y89.498 E.00691
G1 X104.188 Y90 E.01598
G1 X104.099 Y90.502 E.01597
G1 X104.015 Y90.705 E.00691
G1 X103.728 Y91.117 E.01574
G1 X103.305 Y91.415 E.01622
G1 X103.101 Y91.499 E.00692
G1 X102.599 Y91.588 E.01596
G1 X102.098 Y91.499 E.01598
G1 X101.894 Y91.414 E.00692
G1 X101.483 Y91.128 E.01571
G1 X101.186 Y90.705 E.0162
;WIDTH:0.462754
G1 X101.083 Y90.412 E.01084
;WIDTH:0.505508
G1 X100.981 Y90.119 E.01194
;WIDTH:0.518584
G1 X100.967 Y90.068 E.00208
G1 X100.914 Y90.274 E.0084
;WIDTH:0.469292
G1 X100.862 Y90.48 E.00753
;WIDTH:0.419999
G1 X100.676 Y90.876 E.01372
G1 X100.348 Y91.259 E.01581
G1 X99.904 Y91.515 E.01606
G1 X99.465 Y91.627 E.01421
G1 X98.898 Y91.581 E.01784
G1 X98.697 Y91.515 E.00664
G1 X98.221 Y91.231 E.01737
G1 X97.847 Y90.753 E.01902
;WIDTH:0.469753
G1 X97.735 Y90.489 E.01019
;WIDTH:0.519507
G1 X97.623 Y90.224 E.01138
G1 X97.524 Y90.454 E.00991
;WIDTH:0.469753
G1 X97.425 Y90.683 E.00888
;WIDTH:0.419999
G1 X97.284 Y90.952 E.00951
G1 X96.944 Y91.325 E.01584
G1 X96.492 Y91.577 E.01621
G1 X96.056 Y91.674 E.01402
G1 X95.644 Y91.661 E.01293
G1 X95.44 Y91.617 E.00652
G1 X94.914 Y91.366 E.01828
G1 X94.606 Y91.071 E.01339
G1 X94.314 Y90.574 E.01806
;WIDTH:0.459148
G1 X94.265 Y90.447 E.0047
;WIDTH:0.498296
G1 X94.216 Y90.321 E.00514
;WIDTH:0.537444
G1 X94.167 Y90.194 E.00559
G1 X94.099 Y90.376 E.00799
;WIDTH:0.498296
G1 X94.031 Y90.558 E.00735
;WIDTH:0.459148
G1 X93.964 Y90.74 E.00672
;WIDTH:0.419999
G1 X93.794 Y91.013 E.01008
G1 X93.447 Y91.383 E.0159
G1 X93.061 Y91.6 E.01389
G1 X92.509 Y91.732 E.0178
G1 X91.883 Y91.656 E.01976
G1 X91.48 Y91.467 E.01398
G1 X91.044 Y91.082 E.01823
G1 X90.817 Y90.701 E.01388
;WIDTH:0.454151
G1 X90.751 Y90.516 E.00674
;WIDTH:0.488303
G1 X90.685 Y90.33 E.0073
;WIDTH:0.522454
G1 X90.619 Y90.144 E.00786
G1 X90.564 Y90.319 E.00734
;WIDTH:0.488303
G1 X90.509 Y90.495 E.00682
;WIDTH:0.454151
G1 X90.454 Y90.671 E.0063
;WIDTH:0.419999
G1 X90.124 Y91.197 E.01946
G1 X89.814 Y91.469 E.01293
G1 X89.435 Y91.663 E.01338
G1 X88.871 Y91.785 E.01808
G1 X88.395 Y91.735 E.015
G1 X87.851 Y91.512 E.01843
G1 X87.528 Y91.252 E.01299
G1 X87.274 Y90.925 E.01299
G1 X87.095 Y90.516 E.01401
;WIDTH:0.460267
G1 X87.031 Y90.311 E.00746
;WIDTH:0.500534
G1 X86.967 Y90.105 E.00818
G1 X86.875 Y90.4 E.01173
;WIDTH:0.460267
G1 X86.784 Y90.694 E.0107
;WIDTH:0.419999
G1 X86.665 Y90.958 E.00906
G1 X86.407 Y91.288 E.01312
G1 X86.084 Y91.549 E.01306
G1 X85.694 Y91.732 E.01349
G1 X85.136 Y91.837 E.0178
G1 X84.673 Y91.785 E.01463
G1 X84.281 Y91.642 E.01306
G1 X83.924 Y91.403 E.01349
G1 X83.539 Y90.968 E.01821
G1 X83.345 Y90.525 E.01517
;WIDTH:0.4615
G1 X83.281 Y90.315 E.00764
;WIDTH:0.503001
G1 X83.218 Y90.105 E.0084
G1 X83.127 Y90.403 E.01193
;WIDTH:0.4615
G1 X83.036 Y90.701 E.01086
;WIDTH:0.419999
G1 X82.932 Y90.943 E.00825
G1 X82.602 Y91.356 E.01658
M73 P3 R15
G1 X82.345 Y91.565 E.01037
G1 X81.809 Y91.815 E.01854
G1 X81.4 Y91.882 E.01303
G1 X80.955 Y91.85 E.01397
G1 X80.397 Y91.655 E.01854
G1 X80.035 Y91.393 E.01402
G1 X79.663 Y90.934 E.01852
;WIDTH:0.448067
G1 X79.544 Y90.644 E.01057
;WIDTH:0.476135
G1 X79.424 Y90.354 E.0113
;WIDTH:0.521126
G1 X79.371 Y90.186 E.00698
G1 X79.316 Y90.355 E.00705
;WIDTH:0.487417
G1 X79.26 Y90.523 E.00655
;WIDTH:0.453708
G1 X79.204 Y90.691 E.00605
;WIDTH:0.419999
G1 X78.867 Y91.257 E.02066
G1 X78.536 Y91.567 E.01419
G1 X78.049 Y91.819 E.01721
G1 X77.474 Y91.935 E.01838
G1 X77.027 Y91.899 E.01408
G1 X76.627 Y91.774 E.01312
G1 X76.264 Y91.567 E.01312
G1 X75.954 Y91.286 E.01312
G1 X75.711 Y90.945 E.01312
G1 X75.548 Y90.56 E.01312
G1 X75.471 Y90.118 E.01404
G1 X75.524 Y89.526 E.01864
G1 X75.678 Y89.126 E.01346
G1 X75.958 Y88.709 E.01573
G1 X76.264 Y88.434 E.01289
G1 X76.795 Y88.165 E.01869
G1 X77.326 Y88.065 E.01693
G1 X77.773 Y88.101 E.01408
G1 X78.173 Y88.226 E.01312
G1 X78.535 Y88.432 E.01307
G1 X78.85 Y88.724 E.01346
G1 X79.181 Y89.243 E.01931
;WIDTH:0.461837
G1 X79.249 Y89.375 E.00516
;WIDTH:0.503675
G1 X79.318 Y89.506 E.00567
;WIDTH:0.545512
G1 X79.386 Y89.637 E.00619
G1 X79.465 Y89.471 E.00768
;WIDTH:0.503675
G1 X79.544 Y89.305 E.00704
;WIDTH:0.461837
G1 X79.623 Y89.139 E.00641
;WIDTH:0.419999
G1 X79.852 Y88.793 E.01301
G1 X80.151 Y88.505 E.01302
G1 X80.507 Y88.29 E.01303
G1 X80.9 Y88.158 E.01301
G1 X81.326 Y88.119 E.01342
G1 X81.928 Y88.223 E.01915
G1 X82.302 Y88.404 E.01303
G1 X82.626 Y88.66 E.01293
G1 X82.918 Y89.053 E.01536
G1 X83.123 Y89.512 E.01575
;WIDTH:0.460926
G1 X83.174 Y89.721 E.0075
;WIDTH:0.501852
G1 X83.225 Y89.931 E.00824
G1 X83.3 Y89.661 E.01069
;WIDTH:0.460926
G1 X83.375 Y89.391 E.00974
;WIDTH:0.419999
G1 X83.537 Y89.057 E.01165
G1 X83.867 Y88.641 E.01663
G1 X84.219 Y88.395 E.01349
G1 X84.75 Y88.196 E.01775
G1 X85.227 Y88.174 E.01498
G1 X85.854 Y88.33 E.02026
G1 X86.308 Y88.616 E.01683
G1 X86.645 Y89.016 E.01642
G1 X86.866 Y89.493 E.01649
;WIDTH:0.463644
G1 X86.922 Y89.693 E.00726
;WIDTH:0.507288
G1 X86.978 Y89.893 E.00802
G1 X87.046 Y89.651 E.0097
;WIDTH:0.463644
G1 X87.113 Y89.409 E.00879
;WIDTH:0.419999
G1 X87.359 Y88.959 E.01609
G1 X87.5 Y88.781 E.00711
G1 X87.965 Y88.422 E.01841
G1 X88.351 Y88.272 E.01299
G1 X88.762 Y88.215 E.01299
G1 X89.205 Y88.265 E.01398
G1 X89.749 Y88.488 E.01843
G1 X90.074 Y88.75 E.0131
G1 X90.34 Y89.104 E.01386
;WIDTH:0.4624
G1 X90.56 Y89.621 E.0196
M204 P1000
G1 X90.146 Y89.664 F9000
M204 P800
;TYPE:External perimeter
;WIDTH:0.419999
G1 F1200
G1 X90.185 Y89.768 E.00348
G1 X90.197 Y90.073 E.00957
G1 X90.112 Y90.512 E.014
G1 X89.813 Y90.972 E.0172
G1 X89.625 Y91.143 E.00799
G1 X89.344 Y91.297 E.01003
G1 X88.86 Y91.408 E.01558
G1 X88.524 Y91.381 E.01057
G1 X88.076 Y91.209 E.01502
G1 X87.739 Y90.917 E.01401
G1 X87.541 Y90.618 E.01125
G1 X87.45 Y90.357 E.00866
G1 X87.392 Y89.967 E.01237
G1 X87.489 Y89.487 E.01533
G1 X87.743 Y89.07 E.01531
G1 X88.114 Y88.769 E.015
G1 X88.417 Y88.644 E.01026
G1 X88.74 Y88.592 E.01026
G1 X89.076 Y88.619 E.01057
G1 X89.524 Y88.791 E.01502
G1 X89.785 Y88.993 E.01037
G1 X89.994 Y89.253 E.01046
G1 X90.125 Y89.608 E.01187
M204 P1000
G1 X90.256 Y89.678 F9000
G1 X91.059 Y90.18
M204 P800
G1 F1200
G1 X91.07 Y89.746 E.01359
G1 X91.133 Y89.513 E.00758
G1 X91.388 Y89.093 E.01539
G1 X91.623 Y88.887 E.00981
G1 X92.066 Y88.682 E.01531
G1 X92.379 Y88.643 E.00989
G1 X92.861 Y88.721 E.0153
G1 X93.141 Y88.863 E.00986
G1 X93.492 Y89.194 E.01513
G1 X93.708 Y89.632 E.01529
G1 X93.756 Y89.943 E.00986
G1 X93.696 Y90.41 E.01478
G1 X93.507 Y90.769 E.01272
G1 X93.244 Y91.065 E.01242
G1 X92.96 Y91.237 E.01042
G1 X92.493 Y91.354 E.0151
G1 X92.024 Y91.306 E.01478
G1 X91.717 Y91.174 E.01049
G1 X91.328 Y90.83 E.01627
G1 X91.178 Y90.591 E.00885
G1 X91.076 Y90.237 E.01154
M204 P1000
G1 X90.692 Y90.021 F9000
G1 X90.619 Y90.144
M204 P800
;TYPE:Perimeter
;WIDTH:0.522454
G1 F1200
G1 X90.623 Y89.861 E.01126
M204 P1000
G1 E-2.24 F4200
;WIPE_START
G1 F7200
G1 X90.619 Y90.144 E-.15653
;WIPE_END
G1 E-.80347 F4200
G1 Z.4 F720
G1 X95.908 Y88.698 F9000
G1 Z.2 F720
G1 E3.2 F2400
M204 P800
;TYPE:External perimeter
;WIDTH:0.419999
G1 F1200
G1 X95.955 Y88.695 E.00149
G1 X96.442 Y88.81 E.01566
G1 X96.835 Y89.086 E.01509
G1 X97.102 Y89.485 E.01504
G1 X97.208 Y89.942 E.0147
G1 X97.182 Y90.254 E.00983
G1 X97.003 Y90.701 E.01509
G1 X96.67 Y91.059 E.01532
G1 X96.389 Y91.215 E.01009
G1 X96.067 Y91.297 E.01042
G1 X95.587 Y91.27 E.01507
G1 X95.126 Y91.052 E.01599
G1 X94.884 Y90.805 E.01084
G1 X94.671 Y90.452 E.01293
G1 X94.601 Y90.145 E.00986
G1 X94.63 Y89.676 E.01475
G1 X94.853 Y89.217 E.01599
G1 X95.206 Y88.892 E.01507
G1 X95.642 Y88.716 E.01472
G1 X95.848 Y88.702 E.00649
M204 P1000
G1 X95.926 Y88.654 F9000
G1 E-2.24 F4200
;WIPE_START
G1 F7200
G1 X95.955 Y88.695 E-.0596
G1 X96.442 Y88.81 E-.27683
G1 X96.835 Y89.086 E-.26669
G1 X97.102 Y89.485 E-.26589
G1 X97.12 Y89.561 E-.04299
;WIPE_END
G1 E-.048 F4200
G1 Z.4 F720
G1 X94.167 Y90.194 F9000
G1 Z.2 F720
G1 E3.2 F2400
M204 P800
;TYPE:Perimeter
;WIDTH:0.537444
G1 F1200
G1 X94.183 Y89.811 E.01576
M204 P1000
G1 E-2.24 F4200
;WIPE_START
G1 F7200
G1 X94.167 Y90.194 E-.21242
;WIPE_END
G1 E-.74758 F4200
G1 Z.4 F720
G1 X98.133 Y90.411 F9000
G1 Z.2 F720
G1 E3.2 F2400
M204 P800
;TYPE:External perimeter
;WIDTH:0.419999
G1 F1200
G1 X98.048 Y90.122 E.00944
G1 X98.091 Y89.653 E.01477
G1 X98.303 Y89.233 E.01476
G1 X98.645 Y88.924 E.01445
G1 X98.933 Y88.795 E.0099
G1 X99.256 Y88.743 E.01026
G1 X99.722 Y88.815 E.01477
G1 X100.129 Y89.054 E.01479
G1 X100.419 Y89.425 E.01477
G1 X100.552 Y89.877 E.01476
G1 X100.512 Y90.341 E.01462
G1 X100.385 Y90.636 E.01005
G1 X100.075 Y90.991 E.01478
G1 X99.667 Y91.205 E.01445
G1 X99.367 Y91.258 E.00953
G1 X98.878 Y91.185 E.01551
G1 X98.471 Y90.946 E.01479
G1 X98.181 Y90.575 E.01477
G1 X98.15 Y90.469 E.00346
M204 P1000
G1 X97.835 Y90.368 F9000
G1 X97.623 Y90.206
M204 P800
;TYPE:Perimeter
;WIDTH:0.54566
G1 F1200
G1 X97.629 Y89.777 E.01792
M204 P1000
G1 E-2.24 F4200
;WIPE_START
G1 F7200
G1 X97.623 Y90.206 E-.2375
;WIPE_END
G1 E-.7225 F4200
G1 Z.4 F720
G1 X103.082 Y91.095 F9000
G1 Z.2 F720
G1 E3.2 F2400
M204 P800
;TYPE:External perimeter
;WIDTH:0.419999
G1 F1200
G1 X103.027 Y91.129 E.00203
G1 X102.563 Y91.207 E.01477
G1 X102.103 Y91.101 E.01478
G1 X101.72 Y90.827 E.01476
G1 X101.47 Y90.422 E.01492
G1 X101.393 Y89.963 E.0146
G1 X101.499 Y89.504 E.01477
G1 X101.773 Y89.121 E.01477
G1 X102.171 Y88.871 E.01473
G1 X102.614 Y88.794 E.01412
G1 X103.096 Y88.899 E.01546
G1 X103.48 Y89.173 E.01479
G1 X103.729 Y89.572 E.01475
G1 X103.808 Y90.033 E.01465
G1 X103.701 Y90.496 E.0149
G1 X103.427 Y90.879 E.01477
G1 X103.133 Y91.063 E.01088
M204 P1000
G1 X103.089 Y91.159 F9000
G1 E-2.24 F4200
;WIPE_START
G1 F7200
G1 X103.027 Y91.129 E-.06907
G1 X102.563 Y91.207 E-.26113
G1 X102.103 Y91.101 E-.26114
G1 X101.72 Y90.827 E-.26096
G1 X101.664 Y90.735 E-.0597
;WIPE_END
G1 E-.048 F4200
G1 Z.4 F720
G1 X105.537 Y92.734 F9000
G1 Z.2 F720
G1 E3.2 F2400
M204 P800
;TYPE:Perimeter
G1 F1200
G1 X105.504 Y92.788 E.00199
G1 X105.184 Y93.056 E.01308
G1 X104.918 Y93.147 E.00884
G1 X104.572 Y93.213 E.01104
G1 X75.449 Y93.207 E.91311
G1 X74.916 Y93.103 E.01703
G1 X74.584 Y92.886 E.01244
G1 X74.34 Y92.573 E.01244
G1 X74.245 Y92.296 E.00921
G1 X74.187 Y91.972 E.01031
G1 X74.187 Y88.674 E.1034
G1 X74.213 Y87.832 E.02641
G1 X74.333 Y87.436 E.01299
G1 X74.591 Y87.104 E.01316
G1 X74.816 Y86.944 E.00865
G1 X75.038 Y86.868 E.00736
G1 X75.428 Y86.787 E.01251
G1 X104.623 Y86.791 E.91539
G1 X105.097 Y86.897 E.01522
