; generated by PrusaSlicer 2.5.2+win64 on 2023-04-13 at 10:19:36 UTC


;
;

;
;
; 

; external perimeters extrusion width = 0.45mm
; perimeters extrusion width = 0.45mm
; infill extrusion width = 0.45mm
; solid infill extrusion width = 0.45mm
; top infill extrusion width = 0.40mm
; first layer extrusion width = 0.42mm

M73 P0 R153
M201 X2500 Y2500 Z400 E5000 ; sets maximum accelerations, mm/sec^2
M203 X180 Y180 Z12 E80 ; sets maximum feedrates, mm / sec
M204 P2000 R1250 T2500 ; sets acceleration (P, T) and retract acceleration (R), mm/sec^2
M205 X8.00 Y8.00 Z2.00 E10.00 ; sets the jerk limits, mm/sec
M205 S0 T0 ; sets the minimum extruding and travel feed rate, mm/sec
M107
;TYPE:Custom
M862.3 P "MINI" ; printer model check
G90 ; use absolute coordinates
M83 ; extruder relative mode
M104 S170 ; set extruder temp for bed leveling
M140 S60 ; set bed temp
M109 R170 ; wait for bed leveling temp
M190 S60 ; wait for bed temp
M204 T1250 ; set travel acceleration
G28 ; home all without mesh bed level
G29 ; mesh bed leveling 
M204 T2500 ; restore travel acceleration
M104 S215 ; set extruder temp
G92 E0
G1 Y-2 X179 F2400
G1 Z3 F720
M109 S215 ; wait for extruder temp

; intro line
M73 P0 R152
G1 X170 F1000
G1 Z0.2 F720
G1 X110 E8 F900
G1 X40 E10 F700
G92 E0

M221 S95 ; set flow
G21 ; set units to millimeters
G90 ; use absolute coordinates
M83 ; use relative distances for extrusion
M900 K0.2 ; Filament gcode LA 1.5
; ; Filament gcode LA 1.0
M107
;LAYER_CHANGE
;Z:0.2
;HEIGHT:0.2
;BEFORE_LAYER_CHANGE
G92 E0.0
;0.2


G1 E-3.2 F4200
G1 Z.2 F720
;AFTER_LAYER_CHANGE
;0.2
G1 Z.4
G1 X31.628 Y31.895 F9000
G1 Z.2 F720
G1 E3.2 F2400
M204 P600
;TYPE:Skirt/Brim
;WIDTH:0.42
G1 F1200
G1 X33.021 Y30.513 E.06153
G1 X37.083 Y26.872 E.17103
G1 X39.297 Y25.081 E.08928
G1 X43.704 Y21.867 E.17103
G1 X46.087 Y20.307 E.08928
G1 X50.796 Y17.553 E.17103
G1 X53.323 Y16.242 E.08928
G1 X58.285 Y13.976 E.17103
G1 X60.857 Y12.953 E.08678
G1 X63.537 Y11.991 E.08928
G1 X68.758 Y10.411 E.17103
G1 X71.521 Y9.724 E.08928
G1 X74.317 Y9.132 E.08959
G1 X79.614 Y8.281 E.16822
G1 X82.445 Y7.971 E.08928
G1 X87.89 Y7.65 E.17103
G1 X90.738 Y7.626 E.08928
G1 X96.188 Y7.856 E.17103
G1 X99.023 Y8.118 E.08928
G1 X101.769 Y8.467 E.08678
G1 X107.139 Y9.425 E.17103
G1 X109.913 Y10.065 E.08928
G1 X115.16 Y11.558 E.17103
G1 X117.856 Y12.474 E.08928
G1 X122.926 Y14.487 E.17103
G1 X125.516 Y15.67 E.08928
G1 X130.358 Y18.183 E.17103
G1 X132.816 Y19.621 E.08928
G1 X137.38 Y22.608 E.17103
G1 X139.681 Y24.286 E.08928
G1 X143.921 Y27.718 E.17103
G1 X146.041 Y29.618 E.08928
G1 X149.915 Y33.459 E.17103
G1 X151.833 Y35.564 E.08928
G1 X155.3 Y39.775 E.17103
G1 X158.57 Y44.339 E.17604
G1 X161.441 Y48.977 E.17103
G1 X162.816 Y51.47 E.08928
G1 X165.207 Y56.374 E.17103
G1 X166.324 Y58.993 E.08928
G1 X168.209 Y64.112 E.17103
G1 X169.057 Y66.83 E.08928
G1 X170.417 Y72.113 E.17103
G1 X170.987 Y74.903 E.08928
G1 X171.809 Y80.295 E.17103
G1 X172.095 Y83.128 E.08928
G1 X172.37 Y88.576 E.17103
G1 X172.37 Y91.424 E.08928
G1 X172.276 Y94.19 E.08678
G1 X171.818 Y99.626 E.17103
G1 X171.437 Y102.447 E.08928
G1 X170.434 Y107.809 E.17103
G1 X169.771 Y110.579 E.08928
G1 X168.234 Y115.812 E.17103
G1 X167.295 Y118.501 E.08928
G1 X165.239 Y123.553 E.17103
G1 X164.035 Y126.134 E.08928
G1 X161.481 Y130.954 E.17103
G1 X160.023 Y133.4 E.08928
G1 X156.997 Y137.938 E.17103
G1 X155.3 Y140.225 E.08928
G1 X151.833 Y144.436 E.17103
G1 X149.915 Y146.541 E.08928
G1 X146.041 Y150.382 E.17103
G1 X143.921 Y152.282 E.08928
G1 X139.681 Y155.714 E.17103
G1 X137.38 Y157.392 E.08928
G1 X132.816 Y160.379 E.17103
G1 X130.358 Y161.817 E.08928
G1 X125.516 Y164.33 E.17103
G1 X120.371 Y166.576 E.17604
G1 X115.236 Y168.418 E.17103
G1 X112.511 Y169.243 E.08928
G1 X107.217 Y170.559 E.17103
G1 X104.501 Y171.091 E.08678
G1 X101.69 Y171.544 E.08928
G1 X96.267 Y172.138 E.17103
G1 X93.425 Y172.306 E.08928
G1 X87.97 Y172.352 E.17103
G1 X85.125 Y172.232 E.08928
G1 X79.693 Y171.729 E.17103
G1 X76.875 Y171.323 E.08928
G1 X71.521 Y170.276 E.17103
G1 X68.758 Y169.589 E.08928
G1 X63.537 Y168.009 E.17103
G1 X60.857 Y167.047 E.08928
G1 X58.203 Y165.989 E.08959
G1 X53.323 Y163.758 E.16822
G1 X50.796 Y162.447 E.08928
G1 X46.087 Y159.693 E.17103
G1 X43.704 Y158.133 E.08928
G1 X39.297 Y154.919 E.17103
G1 X37.083 Y153.128 E.08928
G1 X33.021 Y149.487 E.17103
G1 X30.999 Y147.482 E.08928
G1 X27.324 Y143.451 E.17103
G1 X25.514 Y141.252 E.08928
G1 X22.264 Y136.872 E.17103
G1 X20.728 Y134.57 E.08678
G1 X19.228 Y132.149 E.08928
G1 X16.594 Y127.372 E.17103
G1 X15.346 Y124.813 E.08928
G1 X13.206 Y119.795 E.17103
G1 X12.222 Y117.123 E.08928
G1 X10.598 Y111.916 E.17103
G1 X9.888 Y109.158 E.08928
G1 X8.795 Y103.814 E.17103
G1 X8.366 Y100.999 E.08928
G1 X7.818 Y95.571 E.17103
G1 X7.674 Y92.727 E.08928
G1 X7.674 Y87.273 E.17103
G1 X7.818 Y84.429 E.08928
G1 X8.366 Y79.001 E.17103
G1 X8.795 Y76.186 E.08928
G1 X9.888 Y70.842 E.17103
G1 X10.598 Y68.084 E.08928
G1 X12.222 Y62.877 E.17103
G1 X13.206 Y60.205 E.08928
G1 X15.346 Y55.187 E.17103
G1 X16.594 Y52.628 E.08928
G1 X19.228 Y47.851 E.17103
G1 X22.264 Y43.128 E.17604
G1 X25.514 Y38.748 E.17103
G1 X27.324 Y36.549 E.08928
G1 X30.999 Y32.518 E.17103
G1 X31.585 Y31.937 E.02587
M204 P1000
; printing object Disk-spiraling-holes-160mm.stl id:0 copy 0
G1 E-2.24 F4200
;WIPE_START
G1 F7200
G1 X32.754 Y30.778 E-.912
;WIPE_END
G1 E-.048 F4200
G1 Z.4 F720
G1 X31.467 Y36.635 F9000
G1 Z.2 F720
G1 E3.2 F2400
M204 P600
;TYPE:Perimeter
;WIDTH:0.419999
G1 F1200
G1 X33.292 Y34.698 E.08345
G1 X35.182 Y32.824 E.08344
G1 X37.199 Y30.959 E.08615
G1 X39.145 Y29.272 E.08075
G1 X41.214 Y27.598 E.08345
G1 X43.338 Y25.994 E.08344
G1 X45.514 Y24.462 E.08345
G1 X47.741 Y23.005 E.08345
G1 X50.016 Y21.623 E.08345
G1 X52.335 Y20.318 E.08345
G1 X54.697 Y19.092 E.08344
G1 X57.1 Y17.945 E.08345
G1 X59.539 Y16.881 E.08344
G1 X62.012 Y15.898 E.08345
G1 X64.517 Y15 E.08345
G1 X67.051 Y14.186 E.08345
G1 X69.611 Y13.458 E.08344
G1 X72.278 Y12.798 E.08615
G1 X74.797 Y12.261 E.08075
G1 X77.417 Y11.794 E.08345
G1 X80.051 Y11.415 E.08345
G1 X82.697 Y11.125 E.08345
G1 X85.351 Y10.924 E.08345
G1 X88.009 Y10.812 E.08344
G1 X90.757 Y10.792 E.08615
G1 X93.332 Y10.857 E.08075
G1 X95.988 Y11.013 E.08344
G1 X98.638 Y11.259 E.08345
G1 X101.279 Y11.593 E.08345
G1 X103.906 Y12.016 E.08344
G1 X106.518 Y12.527 E.08345
G1 X109.112 Y13.126 E.08345
G1 X111.683 Y13.811 E.08345
G1 X114.23 Y14.582 E.08345
G1 X116.75 Y15.439 E.08345
G1 X119.24 Y16.379 E.08344
G1 X121.697 Y17.403 E.08344
G1 X124.195 Y18.547 E.08615
G1 X126.5 Y19.695 E.08075
G1 X128.841 Y20.96 E.08344
G1 X131.211 Y22.35 E.08615
G1 X133.39 Y23.724 E.08075
G1 X135.591 Y25.219 E.08344
G1 X137.742 Y26.787 E.08345
G1 X139.839 Y28.426 E.08345
G1 X141.879 Y30.135 E.08345
G1 X143.861 Y31.911 E.08345
G1 X145.782 Y33.753 E.08345
G1 X147.64 Y35.659 E.08344
G1 X149.433 Y37.626 E.08345
G1 X151.159 Y39.652 E.08345
G1 X152.816 Y41.734 E.08345
G1 X154.402 Y43.872 E.08345
G1 X155.915 Y46.061 E.08345
G1 X157.354 Y48.3 E.08345
G1 X158.717 Y50.586 E.08345
G1 X160.002 Y52.916 E.08345
G1 X161.208 Y55.289 E.08345
G1 X162.334 Y57.7 E.08344
G1 X163.378 Y60.148 E.08345
G1 X164.34 Y62.63 E.08345
G1 X165.217 Y65.143 E.08345
G1 X166.01 Y67.683 E.08345
G1 X166.717 Y70.249 E.08345
G1 X167.337 Y72.837 E.08345
G1 X167.87 Y75.445 E.08345
G1 X168.315 Y78.069 E.08345
G1 X168.671 Y80.706 E.08344
G1 X168.939 Y83.354 E.08345
G1 X169.118 Y86.009 E.08345
G1 X169.207 Y88.711 E.08477
G1 X169.207 Y91.331 E.08213
G1 X169.118 Y93.991 E.08345
G1 X168.939 Y96.646 E.08345
G1 X168.671 Y99.294 E.08345
G1 X168.315 Y101.931 E.08344
G1 X167.87 Y104.555 E.08345
G1 X167.337 Y107.163 E.08345
G1 X166.717 Y109.751 E.08345
G1 X166.01 Y112.317 E.08344
G1 X165.217 Y114.857 E.08345
G1 X164.34 Y117.37 E.08345
G1 X163.378 Y119.852 E.08345
G1 X162.334 Y122.3 E.08345
G1 X161.208 Y124.711 E.08345
G1 X160.002 Y127.084 E.08344
G1 X158.717 Y129.414 E.08345
G1 X157.354 Y131.7 E.08345
G1 X155.915 Y133.939 E.08344
G1 X154.402 Y136.128 E.08345
G1 X152.816 Y138.266 E.08345
G1 X151.159 Y140.348 E.08344
G1 X149.433 Y142.374 E.08344
G1 X147.58 Y144.403 E.08615
G1 X145.782 Y146.247 E.08075
G1 X143.861 Y148.089 E.08345
G1 X141.879 Y149.865 E.08345
G1 X139.839 Y151.574 E.08345
G1 X137.742 Y153.213 E.08344
G1 X135.52 Y154.829 E.08615
G1 X133.39 Y156.276 E.08075
G1 X131.139 Y157.696 E.08345
G1 X128.841 Y159.04 E.08345
G1 X126.5 Y160.305 E.08345
G1 X124.118 Y161.492 E.08345
G1 X121.697 Y162.597 E.08344
G1 X119.24 Y163.621 E.08345
G1 X116.75 Y164.561 E.08344
G1 X114.23 Y165.418 E.08345
G1 X111.683 Y166.189 E.08344
G1 X109.112 Y166.874 E.08345
G1 X106.518 Y167.473 E.08345
G1 X103.906 Y167.984 E.08345
G1 X101.279 Y168.407 E.08344
G1 X98.638 Y168.741 E.08345
G1 X95.988 Y168.987 E.08345
G1 X93.332 Y169.143 E.08344
G1 X90.671 Y169.21 E.08345
G1 X88.01 Y169.188 E.08345
G1 X85.351 Y169.076 E.08345
G1 X82.697 Y168.875 E.08345
G1 X80.051 Y168.585 E.08345
G1 X77.417 Y168.206 E.08345
G1 X74.797 Y167.739 E.08345
G1 X72.194 Y167.184 E.08345
G1 X69.611 Y166.542 E.08345
G1 X67.051 Y165.814 E.08345
G1 X64.517 Y165 E.08344
G1 X62.012 Y164.101 E.08345
G1 X59.539 Y163.119 E.08345
G1 X57.099 Y162.055 E.08345
G1 X54.697 Y160.908 E.08345
G1 X52.335 Y159.682 E.08344
G1 X50.016 Y158.377 E.08345
G1 X47.741 Y156.995 E.08345
G1 X45.514 Y155.538 E.08345
G1 X43.338 Y154.006 E.08345
G1 X41.214 Y152.402 E.08344
G1 X39.145 Y150.728 E.08345
G1 X37.134 Y148.985 E.08344
G1 X35.182 Y147.176 E.08345
G1 X33.292 Y145.302 E.08344
M73 P0 R151
G1 X31.467 Y143.365 E.08345
G1 X29.707 Y141.369 E.08345
G1 X28.015 Y139.314 E.08344
G1 X26.394 Y137.204 E.08345
G1 X24.844 Y135.04 E.08345
G1 X23.368 Y132.826 E.08344
G1 X21.924 Y130.488 E.08615
G1 X20.642 Y128.254 E.08075
G1 X19.396 Y125.903 E.08345
G1 X18.23 Y123.51 E.08345
G1 X17.145 Y121.08 E.08345
G1 X16.142 Y118.615 E.08344
G1 X15.222 Y116.117 E.08345
G1 X14.387 Y113.591 E.08345
G1 X13.637 Y111.037 E.08345
G1 X12.974 Y108.46 E.08345
G1 X12.397 Y105.861 E.08345
G1 X11.908 Y103.245 E.08344
G1 X11.497 Y100.529 E.08615
G1 X11.195 Y97.971 E.08076
G1 X10.972 Y95.319 E.08343
G1 X10.836 Y92.575 E.08615
G1 X10.793 Y90 E.08075
G1 X10.838 Y87.339 E.08345
G1 X10.972 Y84.681 E.08345
G1 X11.195 Y82.029 E.08344
G1 X11.507 Y79.386 E.08345
G1 X11.908 Y76.755 E.08344
G1 X12.397 Y74.139 E.08345
G1 X12.974 Y71.541 E.08344
G1 X13.662 Y68.881 E.08615
G1 X14.387 Y66.409 E.08075
G1 X15.222 Y63.883 E.08345
G1 X16.142 Y61.385 E.08345
G1 X17.145 Y58.92 E.08344
G1 X18.23 Y56.49 E.08345
G1 X19.396 Y54.097 E.08345
G1 X20.642 Y51.746 E.08345
G1 X21.967 Y49.437 E.08345
G1 X23.368 Y47.174 E.08345
G1 X24.844 Y44.96 E.08345
G1 X26.394 Y42.796 E.08345
G1 X28.015 Y40.686 E.08345
G1 X29.707 Y38.631 E.08344
G1 X31.427 Y36.68 E.08157
M204 P1000
G1 X31.188 Y36.381 F9000
M204 P600
;TYPE:External perimeter
G1 F1200
G1 X33.022 Y34.435 E.08385
G1 X34.921 Y32.552 E.08384
G1 X36.947 Y30.678 E.08655
G1 X38.903 Y28.983 E.08114
G1 X40.982 Y27.301 E.08385
G1 X43.116 Y25.689 E.08384
G1 X45.303 Y24.15 E.08384
G1 X47.54 Y22.686 E.08385
G1 X49.825 Y21.297 E.08384
G1 X52.156 Y19.986 E.08385
G1 X54.529 Y18.754 E.08384
G1 X56.943 Y17.602 E.08385
G1 X59.394 Y16.533 E.08384
G1 X61.879 Y15.546 E.08385
G1 X64.396 Y14.643 E.08384
G1 X66.942 Y13.825 E.08384
G1 X69.514 Y13.093 E.08384
G1 X72.193 Y12.43 E.08655
G1 X74.724 Y11.891 E.08114
G1 X77.357 Y11.422 E.08384
G1 X80.004 Y11.041 E.08384
G1 X82.662 Y10.75 E.08385
G1 X85.328 Y10.548 E.08384
G1 X88 Y10.435 E.08384
G1 X90.76 Y10.415 E.08655
G1 X93.347 Y10.48 E.08114
G1 X96.017 Y10.637 E.08384
G1 X98.68 Y10.884 E.08385
G1 X101.333 Y11.22 E.08385
G1 X103.973 Y11.645 E.08384
G1 X106.597 Y12.159 E.08384
G1 X109.203 Y12.76 E.08384
G1 X111.786 Y13.448 E.08385
G1 X114.346 Y14.223 E.08384
G1 X116.878 Y15.084 E.08385
G1 X119.379 Y16.029 E.08384
G1 X121.848 Y17.057 E.08384
G1 X124.357 Y18.206 E.08654
G1 X126.674 Y19.36 E.08115
G1 X129.026 Y20.632 E.08384
G1 X131.407 Y22.028 E.08655
G1 X133.596 Y23.409 E.08114
G1 X135.809 Y24.91 E.08384
G1 X137.969 Y26.486 E.08385
G1 X140.076 Y28.133 E.08384
G1 X142.126 Y29.85 E.08384
G1 X144.117 Y31.635 E.08384
G1 X146.047 Y33.486 E.08385
G1 X147.914 Y35.4 E.08384
G1 X149.716 Y37.376 E.08385
G1 X151.45 Y39.412 E.08385
G1 X153.115 Y41.505 E.08384
G1 X154.708 Y43.652 E.08384
G1 X156.229 Y45.852 E.08384
G1 X157.674 Y48.101 E.08384
G1 X159.044 Y50.398 E.08384
G1 X160.335 Y52.74 E.08385
G1 X161.547 Y55.123 E.08384
G1 X162.678 Y57.546 E.08384
G1 X163.728 Y60.006 E.08385
G1 X164.694 Y62.5 E.08384
G1 X165.575 Y65.024 E.08384
G1 X166.372 Y67.577 E.08385
G1 X167.082 Y70.155 E.08384
G1 X167.705 Y72.755 E.08384
G1 X168.24 Y75.375 E.08385
G1 X168.688 Y78.012 E.08384
G1 X169.046 Y80.662 E.08384
G1 X169.315 Y83.322 E.08385
G1 X169.495 Y85.99 E.08385
G1 X169.584 Y88.711 E.08536
G1 X169.584 Y91.337 E.08232
G1 X169.495 Y94.01 E.08384
G1 X169.315 Y96.678 E.08385
G1 X169.046 Y99.338 E.08385
G1 X168.688 Y101.988 E.08384
G1 X168.24 Y104.625 E.08384
G1 X167.705 Y107.245 E.08385
G1 X167.082 Y109.845 E.08385
G1 X166.372 Y112.423 E.08384
G1 X165.575 Y114.976 E.08385
G1 X164.694 Y117.5 E.08384
G1 X163.728 Y119.994 E.08384
G1 X162.678 Y122.454 E.08385
G1 X161.547 Y124.877 E.08384
G1 X160.335 Y127.26 E.08384
G1 X159.044 Y129.602 E.08385
G1 X157.674 Y131.899 E.08384
G1 X156.229 Y134.148 E.08384
G1 X154.708 Y136.348 E.08385
G1 X153.115 Y138.495 E.08384
G1 X151.45 Y140.588 E.08384
G1 X149.716 Y142.624 E.08384
G1 X147.854 Y144.662 E.08654
G1 X146.047 Y146.514 E.08114
G1 X144.117 Y148.365 E.08385
G1 X142.126 Y150.15 E.08384
G1 X140.076 Y151.867 E.08384
G1 X137.969 Y153.514 E.08384
G1 X135.737 Y155.138 E.08655
G1 X133.596 Y156.592 E.08114
G1 X131.334 Y158.018 E.08384
G1 X129.026 Y159.368 E.08384
G1 X126.674 Y160.64 E.08384
G1 X124.28 Y161.832 E.08385
G1 X121.848 Y162.943 E.08384
G1 X119.379 Y163.971 E.08385
G1 X116.878 Y164.916 E.08384
G1 X114.346 Y165.777 E.08385
G1 X111.787 Y166.552 E.08384
G1 X109.203 Y167.24 E.08385
G1 X106.597 Y167.841 E.08384
G1 X103.973 Y168.355 E.08384
G1 X101.333 Y168.78 E.08384
G1 X98.68 Y169.116 E.08385
G1 X96.017 Y169.363 E.08385
G1 X93.347 Y169.52 E.08384
G1 X90.674 Y169.587 E.08384
G1 X88 Y169.565 E.08385
G1 X85.328 Y169.452 E.08384
G1 X82.662 Y169.25 E.08384
G1 X80.004 Y168.959 E.08385
G1 X77.357 Y168.578 E.08384
G1 X74.724 Y168.109 E.08384
G1 X72.109 Y167.552 E.08384
G1 X69.514 Y166.907 E.08384
G1 X66.942 Y166.175 E.08385
G1 X64.396 Y165.357 E.08384
G1 X61.879 Y164.454 E.08385
G1 X59.394 Y163.467 E.08384
G1 X56.943 Y162.398 E.08384
G1 X54.529 Y161.246 E.08385
G1 X52.156 Y160.014 E.08384
G1 X49.825 Y158.703 E.08385
G1 X47.54 Y157.314 E.08384
G1 X45.303 Y155.85 E.08384
G1 X43.116 Y154.311 E.08384
G1 X40.982 Y152.699 E.08384
G1 X38.903 Y151.017 E.08385
G1 X36.882 Y149.266 E.08384
G1 X34.921 Y147.448 E.08385
G1 X33.022 Y145.565 E.08384
G1 X31.188 Y143.619 E.08385
G1 X29.42 Y141.613 E.08385
G1 X27.72 Y139.549 E.08384
G1 X26.091 Y137.428 E.08385
G1 X24.534 Y135.255 E.08384
G1 X23.05 Y133.03 E.08384
G1 X21.6 Y130.681 E.08655
G1 X20.312 Y128.436 E.08114
G1 X19.06 Y126.073 E.08384
G1 X17.888 Y123.67 E.08384
G1 X16.798 Y121.228 E.08385
G1 X15.79 Y118.751 E.08384
G1 X14.866 Y116.242 E.08384
G1 X14.027 Y113.703 E.08384
G1 X13.274 Y111.137 E.08385
G1 X12.607 Y108.547 E.08384
G1 X12.028 Y105.937 E.08384
G1 X11.536 Y103.308 E.08384
G1 X11.123 Y100.579 E.08654
G1 X10.82 Y98.009 E.08115
G1 X10.595 Y95.345 E.08384
G1 X10.459 Y92.588 E.08655
G1 X10.416 Y90 E.08114
G1 X10.461 Y87.326 E.08384
G1 X10.595 Y84.656 E.08384
G1 X10.82 Y81.991 E.08384
G1 X11.133 Y79.335 E.08385
G1 X11.536 Y76.692 E.08384
G1 X12.028 Y74.063 E.08385
G1 X12.607 Y71.453 E.08384
G1 X13.298 Y68.78 E.08655
G1 X14.027 Y66.297 E.08114
G1 X14.866 Y63.758 E.08384
G1 X15.79 Y61.249 E.08384
G1 X16.798 Y58.772 E.08384
G1 X17.888 Y56.33 E.08385
G1 X19.06 Y53.927 E.08384
G1 X20.312 Y51.564 E.08384
G1 X21.643 Y49.244 E.08384
G1 X23.05 Y46.97 E.08385
G1 X24.534 Y44.745 E.08384
G1 X26.091 Y42.572 E.08384
G1 X27.72 Y40.451 E.08384
M73 P1 R151
G1 X29.42 Y38.387 E.08384
G1 X31.148 Y36.426 E.08196
M204 P1000
G1 X31.579 Y36.466 F9000
G1 E-2.24 F4200
;WIPE_START
G1 F7200
G1 X32.276 Y35.227 E-.912
;WIPE_END
G1 E-.048 F4200
G1 Z.4 F720
