; generated by PrusaSlicer 2.5.2+win64 on 2023-05-06 at 16:23:24 UTC


;
;

;
;
; 

; external perimeters extrusion width = 0.45mm
; perimeters extrusion width = 0.45mm
; infill extrusion width = 0.45mm
; solid infill extrusion width = 0.45mm
; top infill extrusion width = 0.40mm
; first layer extrusion width = 0.42mm

M73 P0 R65
M201 X2500 Y2500 Z400 E5000 ; sets maximum accelerations, mm/sec^2
M203 X180 Y180 Z12 E80 ; sets maximum feedrates, mm / sec
M204 P2000 R1250 T2500 ; sets acceleration (P, T) and retract acceleration (R), mm/sec^2
M205 X8.00 Y8.00 Z2.00 E10.00 ; sets the jerk limits, mm/sec
M205 S0 T0 ; sets the minimum extruding and travel feed rate, mm/sec
M107
;TYPE:Custom
M862.3 P "MINI" ; printer model check
G90 ; use absolute coordinates
M83 ; extruder relative mode
M104 S170 ; set extruder temp for bed leveling
M140 S60 ; set bed temp
M109 R170 ; wait for bed leveling temp
M190 S60 ; wait for bed temp
M204 T1250 ; set travel acceleration
G28 ; home all without mesh bed level
G29 ; mesh bed leveling 
M204 T2500 ; restore travel acceleration
M104 S215 ; set extruder temp
G92 E0
G1 Y-2 X179 F2400
G1 Z3 F720
M109 S215 ; wait for extruder temp

; intro line
G1 X170 F1000
G1 Z0.2 F720
G1 X110 E8 F900
G1 X40 E10 F700
G92 E0

M221 S95 ; set flow
G21 ; set units to millimeters
G90 ; use absolute coordinates
M83 ; use relative distances for extrusion
M900 K0.2 ; Filament gcode LA 1.5
; ; Filament gcode LA 1.0
M107
;LAYER_CHANGE
;Z:0.2
;HEIGHT:0.2
;BEFORE_LAYER_CHANGE
G92 E0.0
;0.2


G1 E-3.2 F4200
G1 Z.2 F720
;AFTER_LAYER_CHANGE
;0.2
G1 Z.4
G1 X40.715 Y24.265 F9000
G1 Z.2 F720
G1 E3.2 F2400
M204 P600
;TYPE:Skirt/Brim
;WIDTH:0.42
G1 F1200
G1 X46.481 Y14.589 E.35315
G1 X47.487 Y13.667 E.04278
G1 X48.556 Y13.43 E.03435
G1 X133.548 Y14.607 E2.66512
G1 X134.85 Y15.016 E.04278
G1 X135.59 Y15.823 E.03435
G1 X177.067 Y90.017 E2.66512
G1 X177.363 Y91.349 E.04278
G1 X177.034 Y92.394 E.03435
G1 X133.519 Y165.411 E2.66512
G1 X132.513 Y166.333 E.04278
G1 X131.444 Y166.57 E.03435
G1 X46.452 Y165.393 E2.66512
G1 X45.15 Y164.984 E.04278
G1 X44.41 Y164.177 E.03435
G1 X2.933 Y89.983 E2.66512
G1 X2.637 Y88.651 E.04278
G1 X2.966 Y87.606 E.03435
G1 X40.685 Y24.316 E2.31008
M204 P1000
; printing object disk-1_paula_holesize-2dot45.stl id:0 copy 0
G1 E-2.24 F4200
;WIPE_START
M73 P1 R64
G1 F7200
G1 X41.527 Y22.903 E-.912
;WIPE_END
G1 E-.048 F4200
G1 Z.4 F720
G1 X84.434 Y76.895 F9000
G1 Z.2 F720
G1 E3.2 F2400
M204 P600
;TYPE:Perimeter
;WIDTH:0.419999
G1 F1200
G1 X84.534 Y76.822 E.00389
G1 X84.68 Y76.543 E.00986
G1 X84.641 Y76.199 E.01086
G1 X71.9 Y47.936 E.97205
G1 X71.834 Y47.825 E.00403
G1 X71.654 Y47.672 E.00742
G1 X56.529 Y39.447 E.53982
G1 X50.14 Y18.422 E.68899
G1 X49.759 Y17.326 E.03639
G1 X50.754 Y17.922 E.03637
G1 X74.379 Y30.829 E.84407
G1 X85.646 Y75.848 E1.45507
G1 X85.83 Y76.143 E.0109
G1 X86.118 Y76.271 E.00986
G1 X86.314 Y76.263 E.00617
G1 X87.477 Y76.013 E.03728
G1 X88.896 Y75.838 E.04485
G1 X89.839 Y75.796 E.0296
G1 X91.617 Y75.851 E.05577
G1 X91.884 Y75.733 E.00916
G1 X92.054 Y75.506 E.00889
G1 X92.094 Y75.342 E.00529
G1 X93.368 Y61.023 E.45076
G1 X103.904 Y48.854 E.50469
G1 X104.402 Y48.174 E.02642
G1 X104.4 Y48.501 E.01023
G1 X104.438 Y49.015 E.01617
G1 X105.249 Y56.206 E.22689
G1 X95.635 Y76.364 E.70025
G1 X95.605 Y76.636 E.00857
G1 X95.719 Y76.907 E.0092
G1 X95.905 Y77.062 E.00762
G1 X96.871 Y77.559 E.03406
G1 X97.599 Y77.99 E.02652
G1 X98.498 Y78.596 E.03399
G1 X98.68 Y78.677 E.00624
G1 X98.994 Y78.664 E.00986
G1 X99.273 Y78.459 E.01086
G1 X117.378 Y53.293 E.97205
G1 X117.441 Y53.18 E.00403
G1 X117.485 Y52.948 E.00742
G1 X117.044 Y35.737 E.53982
G1 X132.058 Y19.692 E.68895
G1 X132.817 Y18.813 E.03643
G1 X132.799 Y19.974 E.03641
G1 X133.433 Y46.886 E.84404
G1 X100.079 Y79.154 E1.45507
G1 X99.916 Y79.46 E.0109
G1 X99.949 Y79.773 E.00986
G1 X100.053 Y79.94 E.00617
G1 X100.851 Y80.821 E.03728
G1 X101.712 Y81.963 E.04485
G1 X102.22 Y82.759 E.0296
G1 X103.062 Y84.326 E.05577
G1 X103.298 Y84.499 E.00916
G1 X103.579 Y84.532 E.00889
G1 X103.741 Y84.485 E.00529
G1 X116.779 Y78.428 E.45075
G1 X132.586 Y81.468 E.50469
G1 X133.423 Y81.56 E.02642
G1 X133.139 Y81.721 E.01023
G1 X132.713 Y82.011 E.01617
G1 X126.891 Y86.309 E.22689
G1 X104.627 Y88.062 E.70025
G1 X104.376 Y88.172 E.00857
G1 X104.199 Y88.406 E.0092
G1 X104.157 Y88.645 E.00762
G1 X104.21 Y89.73 E.03406
G1 X104.201 Y90.576 E.02652
G1 X104.125 Y91.657 E.03399
G1 X104.146 Y91.855 E.00624
G1 X104.314 Y92.121 E.00986
G1 X104.632 Y92.26 E.01086
G1 X135.479 Y95.357 E.97205
G1 X135.607 Y95.355 E.00403
G1 X135.83 Y95.276 E.00742
G1 X150.516 Y86.289 E.53982
G1 X171.917 Y91.269 E.68895
G1 X173.058 Y91.488 E.03643
G1 X172.043 Y92.052 E.03641
G1 X149.054 Y106.057 E.84404
G1 X104.433 Y93.306 E1.45507
G1 X104.086 Y93.318 E.0109
G1 X103.831 Y93.502 E.00986
G1 X103.739 Y93.676 E.00617
G1 X103.374 Y94.808 E.03728
G1 X102.816 Y96.125 E.04485
G1 X102.381 Y96.963 E.0296
G1 X101.445 Y98.475 E.05577
G1 X101.413 Y98.765 E.00916
G1 X101.525 Y99.026 E.00889
G1 X101.647 Y99.142 E.00529
G1 X113.411 Y107.405 E.45075
G1 X118.682 Y122.614 E.50469
G1 X119.021 Y123.385 E.02641
G1 X118.74 Y123.22 E.01023
G1 X118.275 Y122.996 E.01617
G1 X111.642 Y120.103 E.22689
G1 X98.991 Y101.698 E.70025
G1 X98.771 Y101.537 E.00857
G1 X98.48 Y101.499 E.0092
G1 X98.252 Y101.583 E.00762
G1 X97.339 Y102.171 E.03406
G1 X96.602 Y102.586 E.02652
G1 X95.627 Y103.061 E.03399
G1 X95.466 Y103.178 E.00624
G1 X95.32 Y103.457 E.00986
G1 X95.359 Y103.801 E.01086
G1 X108.1 Y132.064 E.97205
G1 X108.166 Y132.175 E.00403
G1 X108.346 Y132.328 E.00742
G1 X123.471 Y140.553 E.53982
G1 X129.859 Y161.577 E.68895
G1 X130.241 Y162.674 E.03643
M73 P2 R64
G1 X129.245 Y162.078 E.03641
G1 X105.621 Y149.171 E.84404
G1 X94.354 Y104.152 E1.45507
G1 X94.17 Y103.857 E.0109
G1 X93.882 Y103.729 E.00986
G1 X93.686 Y103.737 E.00617
G1 X92.523 Y103.987 E.03728
G1 X91.104 Y104.162 E.04485
G1 X90.161 Y104.204 E.0296
G1 X88.383 Y104.149 E.05577
G1 X88.116 Y104.267 E.00916
G1 X87.946 Y104.494 E.00889
G1 X87.906 Y104.658 E.00529
G1 X86.632 Y118.977 E.45075
G1 X76.096 Y131.146 E.50469
G1 X75.598 Y131.826 E.02642
G1 X75.6 Y131.499 E.01023
G1 X75.562 Y130.985 E.01617
G1 X74.751 Y123.794 E.22689
G1 X84.365 Y103.636 E.70025
G1 X84.395 Y103.364 E.00857
G1 X84.281 Y103.093 E.0092
G1 X84.095 Y102.938 E.00762
G1 X83.108 Y102.429 E.0348
G1 X82.401 Y102.01 E.02578
G1 X81.502 Y101.404 E.03399
G1 X81.32 Y101.323 E.00624
G1 X81.006 Y101.336 E.00986
G1 X80.727 Y101.541 E.01086
G1 X62.622 Y126.707 E.97205
G1 X62.559 Y126.82 E.00403
G1 X62.515 Y127.052 E.00742
G1 X62.956 Y144.263 E.53982
G1 X47.942 Y160.308 E.68895
G1 X47.183 Y161.187 E.03643
G1 X47.201 Y160.026 E.03641
G1 X46.567 Y133.114 E.84404
G1 X79.921 Y100.846 E1.45507
G1 X80.084 Y100.54 E.0109
G1 X80.051 Y100.227 E.00986
G1 X79.947 Y100.06 E.00617
G1 X79.467 Y99.53 E.02242
G1 X78.854 Y98.806 E.02974
G1 X78.291 Y98.042 E.02974
G1 X77.781 Y97.243 E.02974
G1 X76.938 Y95.674 E.05584
G1 X76.702 Y95.501 E.00916
G1 X76.421 Y95.468 E.00889
G1 X76.259 Y95.515 E.00529
G1 X63.221 Y101.572 E.45075
G1 X47.414 Y98.532 E.50469
G1 X46.577 Y98.44 E.02642
G1 X46.861 Y98.279 E.01023
G1 X47.287 Y97.989 E.01617
G1 X53.109 Y93.691 E.22689
G1 X75.373 Y91.938 E.70025
G1 X75.624 Y91.828 E.00857
G1 X75.801 Y91.594 E.0092
G1 X75.843 Y91.355 E.00762
G1 X75.79 Y90.27 E.03406
G1 X75.799 Y89.424 E.02652
G1 X75.875 Y88.343 E.03399
G1 X75.854 Y88.145 E.00624
G1 X75.686 Y87.879 E.00986
G1 X75.368 Y87.74 E.01086
G1 X44.521 Y84.643 E.97205
G1 X44.393 Y84.645 E.00403
G1 X44.17 Y84.724 E.00742
G1 X29.484 Y93.711 E.53982
G1 X8.083 Y88.731 E.68895
M73 P2 R63
G1 X6.942 Y88.512 E.03643
G1 X7.957 Y87.948 E.03641
G1 X30.946 Y73.943 E.84404
G1 X75.567 Y86.694 E1.45507
G1 X75.915 Y86.682 E.0109
G1 X76.169 Y86.498 E.00986
G1 X76.261 Y86.324 E.00617
G1 X76.626 Y85.192 E.03728
G1 X77.184 Y83.875 E.04485
G1 X77.619 Y83.037 E.0296
G1 X78.555 Y81.525 E.05577
G1 X78.587 Y81.235 E.00916
G1 X78.475 Y80.974 E.00889
G1 X78.353 Y80.858 E.00529
G1 X66.589 Y72.595 E.45075
G1 X61.318 Y57.386 E.50469
G1 X60.979 Y56.615 E.02641
G1 X61.26 Y56.78 E.01023
G1 X61.725 Y57.004 E.01617
G1 X68.358 Y59.897 E.22689
G1 X81.009 Y78.302 E.70025
G1 X81.229 Y78.463 E.00857
G1 X81.52 Y78.501 E.0092
G1 X81.748 Y78.417 E.00762
G1 X82.661 Y77.829 E.03406
G1 X83.398 Y77.414 E.02652
G1 X84.385 Y76.93 E.03446
M204 P1000
G1 X84.208 Y76.6 F9000
M204 P600
;TYPE:External perimeter
G1 F1200
G1 X84.31 Y76.468 E.00523
G1 X84.297 Y76.353 E.00362
G1 X71.556 Y48.091 E.97203
G1 X71.474 Y48.003 E.00377
G1 X56.213 Y39.705 E.54467
G1 X49.78 Y18.531 E.69384
G1 X49.455 Y17.566 E.03195
G1 X49.015 Y16.689 E.03076
G1 X48.874 Y16.237 E.01484
G1 X49.257 Y16.447 E.0137
G1 X49.653 Y16.778 E.01619
G1 X50.074 Y17.088 E.01638
G1 X50.935 Y17.591 E.03128
G1 X74.705 Y30.577 E.84924
G1 X86.012 Y75.756 E1.46025
G1 X86.074 Y75.854 E.00363
G1 X86.233 Y75.895 E.00515
G1 X87.41 Y75.642 E.03775
G1 X88.401 Y75.499 E.03138
G1 X89.346 Y75.425 E.02972
G1 X90.32 Y75.414 E.03055
G1 X91.475 Y75.478 E.03626
G1 X91.649 Y75.439 E.00559
G1 X91.718 Y75.309 E.00464
G1 X93.003 Y60.868 E.45457
G1 X103.619 Y48.607 E.50851
G1 X104.221 Y47.782 E.03201
M73 P3 R63
G1 X104.451 Y47.354 E.01526
G1 X104.762 Y46.986 E.0151
G1 X104.839 Y47.45 E.01475
G1 X104.782 Y47.97 E.0164
G1 X104.776 Y48.473 E.01576
G1 X104.813 Y48.976 E.01582
G1 X105.636 Y56.27 E.23017
G1 X95.996 Y76.478 E.702
G1 X95.99 Y76.627 E.00466
G1 X96.079 Y76.728 E.00423
G1 X97.054 Y77.229 E.03437
G1 X97.801 Y77.671 E.02722
G1 X98.709 Y78.284 E.03434
G1 X98.874 Y78.306 E.00523
G1 X98.967 Y78.238 E.00362
G1 X117.072 Y53.072 E.97203
G1 X117.108 Y52.957 E.00377
G1 X116.663 Y35.592 E.54467
G1 X131.782 Y19.435 E.6938
G1 X132.457 Y18.67 E.03198
G1 X132.996 Y17.851 E.03075
G1 X133.317 Y17.502 E.01486
G1 X133.328 Y17.939 E.01371
G1 X133.239 Y18.448 E.01619
G1 X133.181 Y18.967 E.01639
G1 X133.176 Y19.966 E.0313
G1 X133.814 Y47.042 E.8492
G1 X100.342 Y79.425 E1.46025
G1 X100.287 Y79.527 E.00363
G1 X100.332 Y79.685 E.00515
G1 X101.139 Y80.578 E.03775
G1 X101.759 Y81.364 E.03138
G1 X102.295 Y82.146 E.02972
G1 X102.792 Y82.984 E.03055
G1 X103.314 Y84.016 E.03626
G1 X103.434 Y84.147 E.00559
G1 X103.582 Y84.143 E.00464
G1 X116.731 Y78.035 E.45457
G1 X132.657 Y81.098 E.50851
G1 X133.672 Y81.207 E.03201
G1 X134.158 Y81.192 E.01526
G1 X134.632 Y81.277 E.0151
G1 X134.269 Y81.576 E.01475
G1 X133.79 Y81.787 E.0164
G1 X133.352 Y82.032 E.01576
G1 X132.935 Y82.316 E.01582
G1 X127.029 Y86.676 E.23017
G1 X104.708 Y88.432 E.702
G1 X104.576 Y88.5 E.00466
G1 X104.534 Y88.626 E.00415
G1 X104.587 Y89.723 E.03445
G1 X104.578 Y90.591 E.02722
G1 X104.501 Y91.684 E.03434
G1 X104.521 Y91.784 E.00319
G1 X104.67 Y91.885 E.00563
G1 X135.516 Y94.981 E.97203
G1 X135.634 Y94.955 E.00377
G1 X150.451 Y85.887 E.54467
G1 X172.003 Y90.902 E.6938
G1 X173.002 Y91.104 E.03198
G1 X173.981 Y91.161 E.03075
G1 X174.444 Y91.265 E.01486
G1 X174.07 Y91.493 E.01371
G1 X173.585 Y91.67 E.01619
G1 X173.106 Y91.879 E.01639
G1 X172.239 Y92.374 E.0313
G1 X149.109 Y106.465 E.8492
G1 X104.329 Y93.668 E1.46025
G1 X104.214 Y93.672 E.00363
G1 X104.099 Y93.79 E.00515
G1 X103.729 Y94.936 E.03775
G1 X103.358 Y95.865 E.03138
G1 X102.95 Y96.721 E.02972
G1 X102.472 Y97.57 E.03055
G1 X101.839 Y98.538 E.03626
G1 X101.786 Y98.708 E.00559
G1 X101.864 Y98.834 E.00464
G1 X113.728 Y107.167 E.45457
G1 X119.038 Y122.491 E.50851
G1 X119.451 Y123.425 E.03201
G1 X119.707 Y123.838 E.01526
G1 X119.87 Y124.291 E.0151
G1 X119.43 Y124.126 E.01475
G1 X119.008 Y123.817 E.0164
G1 X118.576 Y123.56 E.01576
G1 X118.122 Y123.341 E.01582
G1 X111.393 Y120.406 E.23017
G1 X98.712 Y101.954 E.702
G1 X98.587 Y101.874 E.00466
G1 X98.455 Y101.901 E.00423
G1 X97.533 Y102.494 E.03437
G1 X96.777 Y102.92 E.02722
G1 X95.792 Y103.4 E.03434
G1 X95.716 Y103.468 E.00319
G1 X95.703 Y103.647 E.00563
G1 X108.444 Y131.909 E.97203
G1 X108.526 Y131.997 E.00377
G1 X123.787 Y140.295 E.54467
G1 X130.22 Y161.467 E.69379
G1 X130.545 Y162.434 E.03198
G1 X130.985 Y163.311 E.03075
G1 X131.126 Y163.763 E.01486
G1 X130.742 Y163.553 E.01371
G1 X130.347 Y163.222 E.01619
G1 X129.926 Y162.912 E.01639
G1 X129.063 Y162.408 E.0313
G1 X105.295 Y149.423 E.8492
G1 X93.988 Y104.244 E1.46025
G1 X93.926 Y104.145 E.00363
G1 X93.767 Y104.105 E.00515
G1 X92.59 Y104.358 E.03775
G1 X91.599 Y104.501 E.03138
G1 X90.654 Y104.575 E.02972
G1 X89.68 Y104.586 E.03055
G1 X88.51 Y104.521 E.03673
G1 X88.351 Y104.561 E.00514
G1 X88.282 Y104.691 E.00464
G1 X86.997 Y119.132 E.45457
G1 X76.381 Y131.393 E.50851
G1 X75.779 Y132.218 E.03201
G1 X75.549 Y132.646 E.01526
G1 X75.238 Y133.014 E.0151
G1 X75.161 Y132.55 E.01475
G1 X75.218 Y132.03 E.0164
G1 X75.224 Y131.527 E.01576
G1 X75.187 Y131.024 E.01582
G1 X74.364 Y123.73 E.23017
G1 X84.004 Y103.522 E.702
G1 X84.01 Y103.373 E.00466
G1 X83.923 Y103.274 E.00415
G1 X82.926 Y102.759 E.03519
G1 X82.199 Y102.329 E.02648
G1 X81.291 Y101.716 E.03434
G1 X81.195 Y101.684 E.00319
G1 X81.033 Y101.762 E.00563
G1 X62.928 Y126.928 E.97203
G1 X62.892 Y127.043 E.00377
G1 X63.337 Y144.408 E.54467
G1 X48.218 Y160.565 E.6938
G1 X47.543 Y161.33 E.03198
G1 X47.004 Y162.149 E.03075
M73 P4 R63
G1 X46.683 Y162.498 E.01486
G1 X46.672 Y162.061 E.01371
G1 X46.761 Y161.552 E.01619
G1 X46.819 Y161.033 E.01639
G1 X46.824 Y160.034 E.0313
G1 X46.186 Y132.958 E.8492
G1 X79.658 Y100.575 E1.46025
G1 X79.713 Y100.473 E.00363
M73 P4 R62
G1 X79.668 Y100.315 E.00515
G1 X78.86 Y99.422 E.03776
G1 X78.256 Y98.657 E.03055
G1 X77.705 Y97.854 E.03055
G1 X77.208 Y97.016 E.03055
G1 X76.686 Y95.984 E.03626
G1 X76.566 Y95.853 E.00559
G1 X76.418 Y95.857 E.00464
G1 X63.269 Y101.965 E.45457
G1 X47.343 Y98.902 E.50851
G1 X46.328 Y98.793 E.03201
G1 X45.842 Y98.808 E.01526
G1 X45.368 Y98.723 E.0151
G1 X45.731 Y98.424 E.01475
G1 X46.21 Y98.213 E.0164
G1 X46.648 Y97.968 E.01576
G1 X47.065 Y97.684 E.01582
G1 X52.971 Y93.324 E.23017
G1 X75.292 Y91.568 E.702
G1 X75.424 Y91.5 E.00466
G1 X75.466 Y91.374 E.00415
G1 X75.413 Y90.277 E.03445
G1 X75.422 Y89.409 E.02722
G1 X75.499 Y88.316 E.03434
G1 X75.436 Y88.162 E.00523
G1 X75.33 Y88.115 E.00362
G1 X44.484 Y85.019 E.97203
G1 X44.366 Y85.045 E.00377
G1 X29.549 Y94.113 E.54467
G1 X7.997 Y89.098 E.6938
G1 X6.998 Y88.896 E.03198
G1 X6.019 Y88.839 E.03075
G1 X5.556 Y88.735 E.01486
G1 X5.93 Y88.507 E.01371
G1 X6.415 Y88.33 E.01619
G1 X6.894 Y88.121 E.01639
G1 X7.761 Y87.626 E.0313
G1 X30.891 Y73.535 E.8492
G1 X75.671 Y86.332 E1.46025
G1 X75.786 Y86.328 E.00363
G1 X75.901 Y86.21 E.00515
G1 X76.271 Y85.064 E.03775
G1 X76.642 Y84.135 E.03138
G1 X77.05 Y83.279 E.02972
G1 X77.528 Y82.43 E.03055
G1 X78.161 Y81.462 E.03626
G1 X78.214 Y81.292 E.00559
G1 X78.136 Y81.166 E.00464
G1 X66.272 Y72.833 E.45457
G1 X60.962 Y57.509 E.50851
G1 X60.549 Y56.575 E.03201
G1 X60.293 Y56.162 E.01526
G1 X60.13 Y55.709 E.0151
G1 X60.57 Y55.874 E.01475
G1 X60.992 Y56.183 E.0164
G1 X61.424 Y56.44 E.01576
G1 X61.878 Y56.659 E.01582
G1 X68.607 Y59.594 E.23017
G1 X81.288 Y78.046 E.702
G1 X81.413 Y78.126 E.00466
G1 X81.545 Y78.099 E.00423
G1 X82.467 Y77.506 E.03437
G1 X83.223 Y77.08 E.02722
G1 X84.154 Y76.626 E.03246
M204 P1000
G1 X84.368 Y76.646 F9000
G1 E-2.24 F4200
;WIPE_START
G1 F7200
G1 X84.31 Y76.468 E-.12318
G1 X84.297 Y76.353 E-.064
G1 X83.76 Y75.161 E-.72482
;WIPE_END
G1 E-.048 F4200
G1 Z.4 F720
G1 X171.955 Y91.907 F9000
G1 Z.2 F720
G1 E3.2 F2400
M204 P600
;TYPE:Solid infill
;WIDTH:0.420272
G1 F1200
G1 X171.59 Y91.542 E.01621
G1 X170.895 Y91.38 E.02241
G1 X171.5 Y91.985 E.02687
G1 X171.169 Y92.187 E.01218
G1 X170.199 Y91.218 E.04302
G1 X169.504 Y91.056 E.02241
G1 X170.837 Y92.39 E.05916
G1 X170.505 Y92.592 E.01218
G1 X168.808 Y90.894 E.07531
G1 X168.113 Y90.732 E.02241
G1 X170.174 Y92.794 E.09146
G1 X169.842 Y92.996 E.01218
G1 X167.417 Y90.571 E.1076
G1 X166.722 Y90.409 E.02241
G1 X169.511 Y93.198 E.12375
G1 X169.179 Y93.4 E.01218
G1 X166.026 Y90.247 E.1399
G1 X165.331 Y90.085 E.02241
G1 X168.847 Y93.602 E.15604
G1 X168.516 Y93.804 E.01218
G1 X164.635 Y89.923 E.17219
G1 X163.94 Y89.761 E.02241
G1 X168.184 Y94.006 E.18833
G1 X167.852 Y94.208 E.01218
G1 X163.244 Y89.6 E.20448
G1 X162.549 Y89.438 E.02241
G1 X167.521 Y94.41 E.22063
