; generated by PrusaSlicer 2.5.2+win64 on 2023-05-11 at 05:43:22 UTC


;
;

;
;
; 

; external perimeters extrusion width = 0.45mm
; perimeters extrusion width = 0.45mm
; infill extrusion width = 0.45mm
; solid infill extrusion width = 0.45mm
; top infill extrusion width = 0.40mm
; first layer extrusion width = 0.42mm

M73 P0 R69
M201 X2500 Y2500 Z400 E5000 ; sets maximum accelerations, mm/sec^2
M203 X180 Y180 Z12 E80 ; sets maximum feedrates, mm / sec
M204 P2000 R1250 T2500 ; sets acceleration (P, T) and retract acceleration (R), mm/sec^2
M205 X8.00 Y8.00 Z2.00 E10.00 ; sets the jerk limits, mm/sec
M205 S0 T0 ; sets the minimum extruding and travel feed rate, mm/sec
M107
;TYPE:Custom
M862.3 P "MINI" ; printer model check
G90 ; use absolute coordinates
M83 ; extruder relative mode
M104 S170 ; set extruder temp for bed leveling
M140 S60 ; set bed temp
M109 R170 ; wait for bed leveling temp
M190 S60 ; wait for bed temp
M204 T1250 ; set travel acceleration
G28 ; home all without mesh bed level
G29 ; mesh bed leveling 
M204 T2500 ; restore travel acceleration
M104 S215 ; set extruder temp
G92 E0
G1 Y-2 X179 F2400
G1 Z3 F720
M109 S215 ; wait for extruder temp

; intro line
G1 X170 F1000
G1 Z0.2 F720
G1 X110 E8 F900
G1 X40 E10 F700
G92 E0

M221 S95 ; set flow
G21 ; set units to millimeters
G90 ; use absolute coordinates
M83 ; use relative distances for extrusion
M900 K0.2 ; Filament gcode LA 1.5
; ; Filament gcode LA 1.0
M107
;LAYER_CHANGE
;Z:0.2
;HEIGHT:0.2
;BEFORE_LAYER_CHANGE
G92 E0.0
;0.2


M73 P0 R68
G1 E-3.2 F4200
G1 Z.2 F720
;AFTER_LAYER_CHANGE
;0.2
G1 Z.4
G1 X28.808 Y28.552 F9000
G1 Z.2 F720
G1 E3.2 F2400
M204 P600
;TYPE:Skirt/Brim
;WIDTH:0.42
G1 F1200
G1 X29.539 Y28.093 E.02709
G1 X88.972 Y3.474 E2.01703
G1 X89.722 Y3.288 E.02423
G1 X90.2 Y3.281 E.01497
G1 X112.081 Y6.157 E.69198
G1 X112.62 Y6.282 E.01732
G1 X133.029 Y14.729 E.69257
G1 X133.668 Y15.097 E.02313
G1 X151.045 Y28.43 E.68673
G1 X151.448 Y28.808 E.01732
G1 X151.907 Y29.539 E.02709
G1 X176.526 Y88.972 E2.01703
G1 X176.712 Y89.723 E.02424
G1 X176.72 Y90.181 E.01437
G1 X173.843 Y112.081 E.69257
G1 X173.718 Y112.619 E.01732
G1 X165.271 Y133.029 E.69257
G1 X164.903 Y133.668 E.02313
G1 X151.57 Y151.045 E.68673
G1 X151.192 Y151.448 E.01732
G1 X150.461 Y151.907 E.02708
G1 X91.028 Y176.526 E2.01703
G1 X90.278 Y176.712 E.02423
G1 X89.819 Y176.72 E.01438
G1 X67.919 Y173.843 E.69257
G1 X67.38 Y173.718 E.01732
G1 X46.971 Y165.271 E.69257
G1 X46.332 Y164.903 E.02313
G1 X28.955 Y151.57 E.68673
G1 X28.552 Y151.192 E.01732
G1 X28.093 Y150.461 E.02709
G1 X3.474 Y91.028 E2.01703
G1 X3.288 Y90.277 E.02424
G1 X3.28 Y89.819 E.01437
G1 X6.157 Y67.919 E.69257
G1 X6.282 Y67.381 E.01731
G1 X14.729 Y46.971 E.69258
G1 X15.097 Y46.332 E.02313
M73 P1 R68
G1 X28.43 Y28.955 E.68673
G1 X28.767 Y28.596 E.01544
M204 P1000
; printing object disk4.stl id:0 copy 0
G1 E-2.24 F4200
;WIPE_START
G1 F7200
G1 X29.539 Y28.093 E-.51093
G1 X30.208 Y27.816 E-.40107
;WIPE_END
G1 E-.048 F4200
G1 Z.4 F720
G1 X92.906 Y69.461 F9000
G1 Z.2 F720
G1 E3.2 F2400
M204 P600
;TYPE:Perimeter
;WIDTH:0.419999
G1 F1200
G1 X92.944 Y69.481 E.00136
G1 X93.464 Y69.55 E.01642
G1 X93.742 Y69.514 E.00879
G1 X93.987 Y69.327 E.00968
G1 X94.076 Y69.148 E.00628
G1 X96.417 Y61.162 E.26091
G1 X121.015 Y43.358 E.95207
G1 X121.306 Y43.088 E.01246
G1 X121.6 Y42.627 E.01714
G1 X126.65 Y30.843 E.40199
;WIDTH:0.464808
G1 X126.71 Y30.76 E.00359
;WIDTH:0.509616
G1 X126.77 Y30.677 E.00397
;WIDTH:0.554424
G1 X126.83 Y30.594 E.00435
;WIDTH:0.599232
G1 X126.89 Y30.511 E.00473
G1 X127.198 Y29.731 E.03878
;WIDTH:0.551818
G1 X127.507 Y28.951 E.03548
;WIDTH:0.504403
G1 X127.815 Y28.172 E.03217
;WIDTH:0.456989
G1 X128.123 Y27.392 E.02887
;WIDTH:0.409574
G1 X128.432 Y26.612 E.02556
;WIDTH:0.407835
G1 X128.479 Y26.56 E.00214
;WIDTH:0.45351
G1 X128.526 Y26.508 E.0024
;WIDTH:0.499185
G1 X128.573 Y26.456 E.00267
;WIDTH:0.54486
G1 X128.62 Y26.404 E.00294
;WIDTH:0.590535
G1 X128.668 Y26.351 E.0032
;WIDTH:0.63621
G1 X128.715 Y26.299 E.00347
G1 X128.718 Y26.37 E.00347
;WIDTH:0.590535
G1 X128.72 Y26.44 E.0032
;WIDTH:0.54486
G1 X128.723 Y26.51 E.00294
;WIDTH:0.499185
G1 X128.726 Y26.581 E.00267
;WIDTH:0.45351
G1 X128.729 Y26.651 E.0024
;WIDTH:0.407835
G1 X128.731 Y26.721 E.00214
;WIDTH:0.409574
G1 X128.467 Y27.517 E.02556
;WIDTH:0.456989
G1 X128.204 Y28.313 E.02887
;WIDTH:0.504403
G1 X127.94 Y29.109 E.03217
;WIDTH:0.551818
G1 X127.676 Y29.905 E.03548
;WIDTH:0.599232
G1 X127.412 Y30.7 E.03878
G1 X127.405 Y30.802 E.00473
;WIDTH:0.554424
G1 X127.397 Y30.904 E.00435
;WIDTH:0.509616
G1 X127.39 Y31.007 E.00397
;WIDTH:0.464808
G1 X127.383 Y31.109 E.00359
;WIDTH:0.419999
G1 X123.268 Y44.804 E.44837
G1 X123.135 Y44.996 E.00733
G1 X99.859 Y62.655 E.91607
G1 X99.702 Y62.839 E.00756
G1 X99.478 Y63.301 E.01611
G1 X97.874 Y70.32 E.22575
G1 X97.885 Y70.613 E.00919
G1 X97.998 Y70.817 E.00732
G1 X98.212 Y70.97 E.00826
G1 X98.731 Y71.172 E.01747
G1 X98.969 Y71.172 E.00746
G1 X99.231 Y71.038 E.00922
G1 X99.334 Y70.913 E.00508
G1 X103.662 Y63.806 E.26091
G1 X132.03 Y52.975 E.95207
G1 X132.381 Y52.789 E.01246
G1 X132.784 Y52.42 E.01714
G1 X140.713 Y42.344 E.40199
;WIDTH:0.464808
G1 X140.792 Y42.279 E.00359
;WIDTH:0.509616
G1 X140.871 Y42.215 E.00397
;WIDTH:0.554425
G1 X140.951 Y42.15 E.00435
;WIDTH:0.599233
G1 X141.03 Y42.086 E.00473
G1 X141.53 Y41.412 E.03878
;WIDTH:0.551819
G1 X142.029 Y40.739 E.03548
;WIDTH:0.504404
G1 X142.529 Y40.066 E.03217
;WIDTH:0.456989
G1 X143.028 Y39.392 E.02887
;WIDTH:0.409574
G1 X143.528 Y38.719 E.02556
;WIDTH:0.407835
G1 X143.587 Y38.681 E.00214
;WIDTH:0.45351
G1 X143.646 Y38.643 E.0024
;WIDTH:0.499186
G1 X143.705 Y38.605 E.00267
;WIDTH:0.544861
G1 X143.764 Y38.566 E.00294
;WIDTH:0.590537
G1 X143.824 Y38.528 E.0032
;WIDTH:0.636212
G1 X143.883 Y38.49 E.00347
G1 X143.867 Y38.559 E.00347
;WIDTH:0.590537
G1 X143.852 Y38.627 E.0032
;WIDTH:0.544861
G1 X143.836 Y38.696 E.00294
;WIDTH:0.499186
G1 X143.82 Y38.764 E.00267
;WIDTH:0.45351
G1 X143.805 Y38.833 E.0024
;WIDTH:0.407835
G1 X143.789 Y38.902 E.00214
;WIDTH:0.409574
G1 X143.328 Y39.602 E.02556
;WIDTH:0.456989
G1 X142.868 Y40.303 E.02887
;WIDTH:0.504404
G1 X142.407 Y41.003 E.03217
;WIDTH:0.551819
G1 X141.946 Y41.703 E.03548
;WIDTH:0.599233
G1 X141.485 Y42.404 E.03878
G1 X141.452 Y42.501 E.00473
;WIDTH:0.554425
G1 X141.418 Y42.597 E.00435
;WIDTH:0.509616
G1 X141.385 Y42.694 E.00397
;WIDTH:0.464808
G1 X141.351 Y42.791 E.00359
;WIDTH:0.419999
G1 X133.832 Y54.954 E.44837
G1 X133.654 Y55.105 E.00733
G1 X106.702 Y66.087 E.9125
G1 X106.283 Y66.383 E.01611
G1 X106.127 Y66.567 E.00756
G1 X98.941 Y80.142 E.48159
G1 X98.904 Y80.397 E.00808
G1 X98.99 Y80.651 E.00842
G1 X101.354 Y84.366 E.13806
G1 X101.712 Y84.889 E.01986
G1 X101.937 Y85.013 E.00805
G1 X102.223 Y85.018 E.00898
G1 X118.183 Y81.139 E.51497
G1 X145.9 Y93.539 E.95207
G1 X146.051 Y93.584 E.00495
G1 X146.67 Y93.688 E.01968
G1 X159.594 Y92.152 E.40806
;WIDTH:0.464804
G1 X159.696 Y92.163 E.00359
;WIDTH:0.509609
G1 X159.798 Y92.173 E.00397
;WIDTH:0.554414
G1 X159.899 Y92.184 E.00435
;WIDTH:0.599218
G1 X160.001 Y92.194 E.00473
G1 X160.827 Y92.072 E.03861
;WIDTH:0.551818
G1 X161.653 Y91.95 E.03532
;WIDTH:0.504418
G1 X162.479 Y91.828 E.03203
;WIDTH:0.457018
G1 X163.304 Y91.706 E.02874
;WIDTH:0.409618
G1 X164.13 Y91.584 E.02545
;WIDTH:0.407873
G1 X164.199 Y91.599 E.00214
;WIDTH:0.453528
G1 X164.268 Y91.614 E.0024
;WIDTH:0.499183
G1 X164.337 Y91.629 E.00267
;WIDTH:0.544838
G1 X164.405 Y91.644 E.00294
;WIDTH:0.590493
G1 X164.474 Y91.658 E.0032
;WIDTH:0.636148
G1 X164.543 Y91.673 E.00347
G1 X164.483 Y91.711 E.00347
;WIDTH:0.590493
G1 X164.424 Y91.748 E.0032
;WIDTH:0.544838
G1 X164.364 Y91.786 E.00294
;WIDTH:0.499183
G1 X164.305 Y91.823 E.00267
;WIDTH:0.453528
G1 X164.245 Y91.861 E.0024
;WIDTH:0.407873
G1 X164.186 Y91.898 E.00214
;WIDTH:0.409618
G1 X163.368 Y92.067 E.02545
;WIDTH:0.457018
G1 X162.551 Y92.235 E.02874
;WIDTH:0.504418
G1 X161.733 Y92.404 E.03203
;WIDTH:0.551818
G1 X160.916 Y92.573 E.03532
;WIDTH:0.599218
G1 X160.098 Y92.741 E.03861
G1 X160.006 Y92.786 E.00473
;WIDTH:0.554414
G1 X159.914 Y92.831 E.00435
;WIDTH:0.509609
G1 X159.822 Y92.875 E.00397
;WIDTH:0.464804
G1 X159.73 Y92.92 E.00359
;WIDTH:0.419999
G1 X145.775 Y96.213 E.44956
G1 X145.542 Y96.194 E.00733
G1 X118.611 Y84.866 E.91607
G1 X118.374 Y84.822 E.00756
G1 X117.861 Y84.858 E.01611
G1 X110.98 Y86.979 E.22575
G1 X110.834 Y87.048 E.00509
G1 X110.64 Y87.269 E.00922
G1 X110.582 Y87.5 E.00746
G1 X110.65 Y88.053 E.01747
G1 X110.711 Y88.24 E.00619
G1 X110.895 Y88.445 E.00864
G1 X111.197 Y88.54 E.00992
G1 X119.516 Y88.735 E.26091
G1 X143.08 Y107.886 E.95207
G1 X143.416 Y108.097 E.01245
G1 X143.938 Y108.262 E.01714
G1 X156.628 Y110.09 E.40199
;WIDTH:0.464808
G1 X156.723 Y110.127 E.00359
;WIDTH:0.509617
G1 X156.819 Y110.163 E.00397
;WIDTH:0.554426
G1 X156.914 Y110.2 E.00435
;WIDTH:0.599234
G1 X157.01 Y110.236 E.00473
G1 X157.843 Y110.332 E.03878
;WIDTH:0.55182
G1 X158.676 Y110.428 E.03548
;WIDTH:0.504405
G1 X159.509 Y110.524 E.03217
;WIDTH:0.456991
G1 X160.342 Y110.62 E.02887
;WIDTH:0.409576
G1 X161.175 Y110.716 E.02556
;WIDTH:0.407837
G1 X161.237 Y110.748 E.00214
;WIDTH:0.453513
G1 X161.3 Y110.78 E.0024
;WIDTH:0.499189
G1 X161.362 Y110.812 E.00267
;WIDTH:0.544865
G1 X161.425 Y110.845 E.00294
;WIDTH:0.590541
G1 X161.488 Y110.877 E.0032
;WIDTH:0.636216
G1 X161.55 Y110.909 E.00347
G1 X161.483 Y110.93 E.00347
;WIDTH:0.590541
G1 X161.416 Y110.95 E.0032
;WIDTH:0.544865
G1 X161.349 Y110.971 E.00294
;WIDTH:0.499189
G1 X161.281 Y110.992 E.00267
;WIDTH:0.453513
G1 X161.214 Y111.013 E.0024
;WIDTH:0.407837
G1 X161.147 Y111.034 E.00214
;WIDTH:0.409576
G1 X160.31 Y110.985 E.02556
;WIDTH:0.456991
G1 X159.473 Y110.936 E.02887
;WIDTH:0.504405
G1 X158.636 Y110.887 E.03217
;WIDTH:0.55182
G1 X157.799 Y110.838 E.03548
;WIDTH:0.599234
G1 X156.962 Y110.789 E.03878
G1 X156.862 Y110.809 E.00473
;WIDTH:0.554426
G1 X156.761 Y110.828 E.00435
;WIDTH:0.509617
G1 X156.661 Y110.848 E.00397
;WIDTH:0.464808
G1 X156.56 Y110.867 E.00359
;WIDTH:0.419999
G1 X142.267 Y110.437 E.44837
G1 X142.046 Y110.358 E.00733
G1 X118.965 Y92.446 E.91607
G1 X118.747 Y92.342 E.00756
G1 X118.242 Y92.244 E.01611
G1 X111.047 Y92.512 E.22575
G1 X110.78 Y92.59 E.00873
G1 X110.609 Y92.747 E.00728
G1 X110.514 Y92.967 E.0075
G1 X110.45 Y93.464 E.01571
G1 X110.486 Y93.742 E.00879
G1 X110.673 Y93.987 E.00968
G1 X110.852 Y94.076 E.00628
G1 X118.838 Y96.417 E.26091
G1 X136.642 Y121.015 E.95207
G1 X136.912 Y121.306 E.01245
M73 P1 R67
G1 X137.373 Y121.6 E.01714
G1 X149.157 Y126.65 E.40199
;WIDTH:0.464809
G1 X149.24 Y126.71 E.00359
;WIDTH:0.509618
G1 X149.323 Y126.77 E.00397
;WIDTH:0.554427
G1 X149.406 Y126.83 E.00435
;WIDTH:0.599236
G1 X149.489 Y126.89 E.00473
G1 X150.269 Y127.198 E.03878
;WIDTH:0.551822
G1 X151.049 Y127.507 E.03548
;WIDTH:0.504407
G1 X151.828 Y127.815 E.03217
;WIDTH:0.456992
G1 X152.608 Y128.123 E.02887
;WIDTH:0.409577
G1 X153.388 Y128.432 E.02556
;WIDTH:0.407838
G1 X153.44 Y128.479 E.00214
;WIDTH:0.453514
G1 X153.492 Y128.526 E.0024
;WIDTH:0.49919
G1 X153.544 Y128.573 E.00267
;WIDTH:0.544866
G1 X153.596 Y128.62 E.00294
;WIDTH:0.590542
G1 X153.649 Y128.668 E.0032
;WIDTH:0.636218
G1 X153.701 Y128.715 E.00347
G1 X153.63 Y128.718 E.00347
;WIDTH:0.590542
G1 X153.56 Y128.72 E.0032
;WIDTH:0.544866
G1 X153.49 Y128.723 E.00294
;WIDTH:0.49919
G1 X153.419 Y128.726 E.00267
;WIDTH:0.453514
G1 X153.349 Y128.729 E.0024
;WIDTH:0.407838
G1 X153.279 Y128.731 E.00214
;WIDTH:0.409577
G1 X152.483 Y128.467 E.02556
;WIDTH:0.456992
G1 X151.687 Y128.204 E.02887
;WIDTH:0.504407
G1 X150.891 Y127.94 E.03217
;WIDTH:0.551822
G1 X150.095 Y127.676 E.03548
;WIDTH:0.599236
G1 X149.3 Y127.412 E.03878
G1 X149.198 Y127.405 E.00473
;WIDTH:0.554427
G1 X149.095 Y127.397 E.00435
;WIDTH:0.509618
G1 X148.993 Y127.39 E.00397
;WIDTH:0.464809
G1 X148.891 Y127.383 E.00359
;WIDTH:0.419999
G1 X135.196 Y123.268 E.44837
G1 X135.004 Y123.135 E.00733
G1 X117.345 Y99.859 E.91607
G1 X117.161 Y99.702 E.00756
G1 X116.699 Y99.478 E.01611
G1 X109.853 Y97.913 E.22021
G1 X109.519 Y97.86 E.01058
G1 X109.228 Y97.963 E.00968
G1 X109.069 Y98.134 E.00732
G1 X108.857 Y98.638 E.01716
G1 X108.815 Y98.843 E.00654
G1 X108.875 Y99.103 E.00839
G1 X109.087 Y99.334 E.00983
G1 X116.194 Y103.662 E.26091
G1 X127.025 Y132.03 E.95207
G1 X127.211 Y132.381 E.01245
G1 X127.58 Y132.784 E.01714
G1 X137.656 Y140.713 E.40199
;WIDTH:0.464808
G1 X137.721 Y140.792 E.00359
;WIDTH:0.509617
G1 X137.785 Y140.871 E.00397
;WIDTH:0.554426
G1 X137.85 Y140.951 E.00435
;WIDTH:0.599235
G1 X137.914 Y141.03 E.00473
G1 X138.588 Y141.53 E.03878
;WIDTH:0.55182
G1 X139.261 Y142.029 E.03548
;WIDTH:0.504405
G1 X139.934 Y142.529 E.03217
;WIDTH:0.45699
G1 X140.608 Y143.028 E.02887
;WIDTH:0.409575
G1 X141.281 Y143.528 E.02556
;WIDTH:0.407836
G1 X141.319 Y143.587 E.00214
;WIDTH:0.453512
G1 X141.357 Y143.646 E.0024
;WIDTH:0.499187
G1 X141.395 Y143.705 E.00267
;WIDTH:0.544863
G1 X141.434 Y143.764 E.00294
;WIDTH:0.590539
G1 X141.472 Y143.824 E.0032
;WIDTH:0.636214
G1 X141.51 Y143.883 E.00347
G1 X141.441 Y143.867 E.00347
;WIDTH:0.590539
G1 X141.373 Y143.852 E.0032
;WIDTH:0.544863
G1 X141.304 Y143.836 E.00294
;WIDTH:0.499187
G1 X141.236 Y143.82 E.00267
;WIDTH:0.453512
G1 X141.167 Y143.805 E.0024
;WIDTH:0.407836
G1 X141.098 Y143.789 E.00214
;WIDTH:0.409575
G1 X140.398 Y143.328 E.02556
;WIDTH:0.45699
G1 X139.697 Y142.868 E.02887
;WIDTH:0.504405
G1 X138.997 Y142.407 E.03217
;WIDTH:0.55182
G1 X138.297 Y141.946 E.03548
;WIDTH:0.599235
G1 X137.596 Y141.485 E.03878
G1 X137.499 Y141.452 E.00473
;WIDTH:0.554426
G1 X137.403 Y141.418 E.00435
;WIDTH:0.509617
G1 X137.306 Y141.385 E.00397
;WIDTH:0.464808
G1 X137.209 Y141.351 E.00359
;WIDTH:0.419999
G1 X125.046 Y133.832 E.44837
G1 X124.895 Y133.654 E.00733
G1 X113.913 Y106.702 E.9125
G1 X113.617 Y106.283 E.01611
G1 X113.433 Y106.127 E.00756
G1 X99.518 Y98.759 E.49366
G1 X99.231 Y98.717 E.00911
G1 X98.992 Y98.802 E.00793
G1 X95.477 Y101.039 E.13063
G1 X95.039 Y101.336 E.01661
G1 X94.899 Y101.579 E.00879
G1 X94.895 Y101.864 E.00893
G1 X98.861 Y118.196 E.52695
G1 X86.461 Y145.9 E.9517
G1 X86.345 Y146.28 E.01246
G1 X86.32 Y146.826 E.01714
G1 X87.839 Y159.557 E.40199
;WIDTH:0.464809
G1 X87.828 Y159.659 E.00359
;WIDTH:0.509618
M73 P2 R67
G1 X87.818 Y159.761 E.00397
;WIDTH:0.554428
G1 X87.807 Y159.862 E.00435
;WIDTH:0.599237
G1 X87.797 Y159.964 E.00473
G1 X87.92 Y160.794 E.03878
;WIDTH:0.551823
G1 X88.043 Y161.623 E.03548
;WIDTH:0.504408
G1 X88.165 Y162.452 E.03217
;WIDTH:0.456993
G1 X88.288 Y163.282 E.02887
;WIDTH:0.409578
G1 X88.411 Y164.111 E.02556
;WIDTH:0.40784
G1 X88.396 Y164.18 E.00214
;WIDTH:0.453516
G1 X88.381 Y164.249 E.0024
;WIDTH:0.499193
G1 X88.367 Y164.318 E.00267
;WIDTH:0.544869
G1 X88.352 Y164.386 E.00294
;WIDTH:0.590546
G1 X88.337 Y164.455 E.0032
;WIDTH:0.636222
G1 X88.322 Y164.524 E.00347
G1 X88.285 Y164.464 E.00347
;WIDTH:0.590546
G1 X88.247 Y164.405 E.0032
;WIDTH:0.544869
G1 X88.21 Y164.345 E.00294
;WIDTH:0.499193
G1 X88.172 Y164.286 E.00267
;WIDTH:0.453516
G1 X88.135 Y164.226 E.0024
;WIDTH:0.40784
G1 X88.097 Y164.167 E.00214
;WIDTH:0.409578
G1 X87.928 Y163.346 E.02556
;WIDTH:0.456993
G1 X87.758 Y162.524 E.02887
;WIDTH:0.504408
G1 X87.589 Y161.703 E.03217
;WIDTH:0.551823
G1 X87.42 Y160.882 E.03548
;WIDTH:0.599237
G1 X87.25 Y160.061 E.03878
G1 X87.205 Y159.969 E.00473
;WIDTH:0.554428
G1 X87.161 Y159.877 E.00435
;WIDTH:0.509618
G1 X87.116 Y159.785 E.00397
;WIDTH:0.464809
G1 X87.071 Y159.693 E.00359
;WIDTH:0.419999
G1 X83.787 Y145.775 E.44837
G1 X83.806 Y145.542 E.00733
G1 X95.134 Y118.611 E.91607
G1 X95.178 Y118.374 E.00756
G1 X95.142 Y117.861 E.01611
G1 X93.021 Y110.98 E.22575
G1 X92.952 Y110.834 E.00509
G1 X92.731 Y110.64 E.00922
G1 X92.5 Y110.582 E.00746
G1 X91.947 Y110.65 E.01747
G1 X91.76 Y110.711 E.00619
G1 X91.555 Y110.895 E.00864
G1 X91.46 Y111.197 E.00992
G1 X91.265 Y119.516 E.26091
G1 X72.114 Y143.08 E.95207
G1 X71.903 Y143.416 E.01246
G1 X71.738 Y143.938 E.01714
G1 X69.91 Y156.628 E.40199
;WIDTH:0.464808
G1 X69.873 Y156.723 E.00359
;WIDTH:0.509617
G1 X69.837 Y156.819 E.00397
;WIDTH:0.554426
G1 X69.8 Y156.914 E.00435
;WIDTH:0.599235
G1 X69.764 Y157.01 E.00473
