; generated by PrusaSlicer 2.5.1+win64 on 2023-04-11 at 12:15:23 UTC


;
;

;
;
; 

; external perimeters extrusion width = 0.45mm
; perimeters extrusion width = 0.45mm
; infill extrusion width = 0.45mm
; solid infill extrusion width = 0.45mm
; top infill extrusion width = 0.40mm
; first layer extrusion width = 0.42mm

M73 P0 R39
M201 X2500 Y2500 Z400 E5000 ; sets maximum accelerations, mm/sec^2
M203 X180 Y180 Z12 E80 ; sets maximum feedrates, mm / sec
M204 P1250 R1250 T2500 ; sets acceleration (P, T) and retract acceleration (R), mm/sec^2
M205 X8.00 Y8.00 Z2.00 E10.00 ; sets the jerk limits, mm/sec
M205 S0 T0 ; sets the minimum extruding and travel feed rate, mm/sec
M107
;TYPE:Custom
M862.3 P "MINI" ; printer model check
G90 ; use absolute coordinates
M83 ; extruder relative mode
M104 S170 ; set extruder temp for bed leveling
M140 S60 ; set bed temp
M109 R170 ; wait for bed leveling temp
M190 S60 ; wait for bed temp
M204 T1250 ; set travel acceleration
G28 ; home all without mesh bed level
G29 ; mesh bed leveling 
M204 T2500 ; restore travel acceleration
M104 S215 ; set extruder temp
G92 E0
G1 Y-2 X179 F2400
G1 Z3 F720
M109 S215 ; wait for extruder temp

; intro line
G1 X170 F1000
G1 Z0.2 F720
G1 X110 E8 F900
G1 X40 E10 F700
G92 E0

M221 S95 ; set flow
G21 ; set units to millimeters
G90 ; use absolute coordinates
M83 ; use relative distances for extrusion
M900 K0.2 ; Filament gcode LA 1.5
; ; Filament gcode LA 1.0
M107
;LAYER_CHANGE
;Z:0.2
;HEIGHT:0.2
;BEFORE_LAYER_CHANGE
G92 E0.0
;0.2


G1 E-3.2 F4200
G1 Z.2 F720
;AFTER_LAYER_CHANGE
;0.2
G1 Z.4
G1 X68.481 Y64.509 F9000
G1 Z.2 F720
M73 P0 R38
G1 E3.2 F2400
M204 P800
;TYPE:Skirt/Brim
;WIDTH:0.42
G1 F1200
G1 X69.255 Y63.923 E.03042
G1 X75.107 Y60.195 E.21757
G1 X75.944 Y59.743 E.02984
G1 X76.686 Y59.454 E.02494
G1 X83.31 Y57.356 E.21787
G1 X84.234 Y57.142 E.02973
G1 X85.039 Y57.051 E.02542
G1 X92.419 Y56.751 E.23159
G1 X93.754 Y56.909 E.04215
G1 X100.535 Y58.41 E.21775
G1 X101.322 Y58.644 E.02575
G1 X102.177 Y59.011 E.02917
G1 X108.342 Y62.22 E.21793
G1 X109.151 Y62.72 E.02981
G1 X109.776 Y63.219 E.02508
G1 X115.469 Y68.477 E.24297
G1 X116.054 Y69.25 E.03042
G1 X119.783 Y75.102 E.21757
G1 X120.235 Y75.94 E.02984
G1 X120.524 Y76.681 E.02494
G1 X122.622 Y83.305 E.21787
G1 X122.836 Y84.229 E.02973
G1 X123.247 Y92.02 E.24461
G1 X123.228 Y92.838 E.02566
G1 X123.096 Y93.776 E.02971
G1 X121.595 Y100.557 E.21775
G1 X121.361 Y101.344 E.02575
G1 X120.993 Y102.199 E.02917
G1 X117.784 Y108.364 E.21793
G1 X117.285 Y109.173 E.02981
G1 X112.094 Y114.941 E.2433
G1 X111.407 Y115.594 E.02972
G1 X110.754 Y116.077 E.02546
G1 X104.214 Y120.187 E.24219
G1 X103.323 Y120.546 E.03012
G1 X96.699 Y122.644 E.21787
G1 X95.903 Y122.836 E.02567
G1 X94.97 Y122.949 E.02948
G1 X87.993 Y123.252 E.21895
G1 X87.154 Y123.221 E.02632
G1 X86.249 Y123.082 E.02871
G1 X79.443 Y121.563 E.21865
G1 X78.66 Y121.33 E.02563
G1 X77.805 Y120.962 E.02916
G1 X71.64 Y117.753 E.21793
G1 X70.831 Y117.254 E.02981
M73 P1 R38
G1 X70.206 Y116.754 E.02508
G1 X65.063 Y112.063 E.21826
G1 X64.411 Y111.376 E.02972
G1 X63.928 Y110.723 E.02546
G1 X59.818 Y104.183 E.24219
G1 X59.459 Y103.292 E.03012
G1 X57.36 Y96.668 E.21787
G1 X57.169 Y95.872 E.02567
G1 X57.056 Y94.939 E.02948
G1 X56.752 Y87.962 E.21895
G1 X56.784 Y87.124 E.02632
G1 X56.913 Y86.224 E.02851
G1 X58.414 Y79.443 E.21775
G1 X58.648 Y78.656 E.02575
G1 X59.015 Y77.801 E.02917
G1 X62.224 Y71.636 E.21793
G1 X62.724 Y70.827 E.02981
G1 X63.223 Y70.202 E.02508
G1 X68.44 Y64.553 E.24109
M204 P1000
; printing object disk-1-23mm.stl id:0 copy 0
G1 E-2.24 F4200
;WIPE_START
G1 F7200
G1 X69.255 Y63.923 E-.57041
G1 X69.775 Y63.592 E-.34159
;WIPE_END
G1 E-.048 F4200
G1 Z.4 F720
G1 X64.533 Y76.864 F9000
G1 Z.2 F720
G1 E3.2 F2400
M204 P800
;TYPE:Perimeter
;WIDTH:0.419999
G1 F1200
G1 X64.638 Y76.674 E.00679
G1 X64.654 Y76.486 E.00591
G1 X64.563 Y75.978 E.01617
G1 X64.5 Y75.435 E.01714
G1 X64.504 Y74.877 E.01749
G1 X64.587 Y74.323 E.01758
G1 X64.789 Y73.634 E.0225
G1 X65.026 Y73.108 E.0181
G1 X65.345 Y72.612 E.0185
G1 X65.837 Y72.055 E.02331
G1 X66.258 Y71.697 E.01731
G1 X66.708 Y71.411 E.01672
G1 X67.422 Y71.086 E.02461
G1 X67.911 Y70.94 E.01599
G1 X68.564 Y70.825 E.02079
G1 X68.851 Y70.682 E.01006
G1 X69.029 Y70.313 E.01285
G1 X69.065 Y69.87 E.01393
G1 X69.157 Y69.25 E.01966
G1 X69.293 Y68.769 E.01568
G1 X69.494 Y68.294 E.01614
G1 X69.901 Y67.62 E.0247
G1 X70.245 Y67.2 E.01704
G1 X70.664 Y66.813 E.01786
G1 X71.299 Y66.389 E.02395
G1 X71.791 Y66.155 E.01709
G1 X72.308 Y65.993 E.01697
G1 X73.03 Y65.876 E.02294
G1 X73.562 Y65.864 E.01669
G1 X74.224 Y65.934 E.02088
G1 X74.448 Y65.912 E.00703
G1 X74.689 Y65.766 E.00886
G1 X74.818 Y65.556 E.00772
G1 X75.034 Y64.931 E.02074
G1 X75.341 Y64.34 E.02088
G1 X75.757 Y63.778 E.0219
G1 X76.222 Y63.294 E.02106
G1 X76.805 Y62.866 E.02266
G1 X77.427 Y62.557 E.02179
G1 X78.116 Y62.354 E.02252
G1 X78.79 Y62.25 E.02136
G1 X79.422 Y62.265 E.01983
G1 X79.972 Y62.348 E.01746
G1 X80.456 Y62.481 E.01573
G1 X80.966 Y62.673 E.01708
G1 X81.194 Y62.713 E.00728
G1 X81.462 Y62.635 E.00875
G1 X81.644 Y62.464 E.00784
G1 X82.017 Y61.91 E.02093
G1 X82.48 Y61.402 E.02157
G1 X82.995 Y60.975 E.02097
G1 X83.602 Y60.63 E.02189
G1 X84.248 Y60.379 E.02172
G1 X84.94 Y60.243 E.02212
G1 X85.44 Y60.21 E.0157
G1 X86.122 Y60.253 E.02145
G1 X86.804 Y60.419 E.02201
G1 X87.424 Y60.665 E.02089
G1 X88.539 Y61.353 E.0411
G1 X88.818 Y61.362 E.00876
G1 X89.057 Y61.246 E.00835
G1 X89.565 Y60.825 E.02066
G1 X90.135 Y60.432 E.02172
G1 X90.76 Y60.158 E.02141
G1 X91.417 Y59.977 E.02137
G1 X92.111 Y59.918 E.02183
G1 X92.612 Y59.94 E.01572
G1 X93.116 Y60.015 E.01599
G1 X93.754 Y60.193 E.02077
G1 X94.388 Y60.492 E.02196
G1 X94.949 Y60.884 E.02147
G1 X95.433 Y61.334 E.02071
G1 X95.853 Y61.849 E.02086
G1 X96.008 Y61.981 E.00639
G1 X96.285 Y62.058 E.009
G1 X96.536 Y62.002 E.00805
G1 X97.135 Y61.716 E.02082
G1 X97.752 Y61.518 E.02033
G1 X98.477 Y61.404 E.02299
G1 X99.138 Y61.388 E.02073
G1 X99.841 Y61.498 E.02233
G1 X100.489 Y61.722 E.02148
G1 X101.119 Y62.061 E.02245
G1 X101.532 Y62.348 E.01575
G1 X102.011 Y62.791 E.02046
G1 X102.425 Y63.333 E.02141
G1 X102.682 Y63.774 E.01599
G1 X102.925 Y64.309 E.01842
G1 X103.052 Y64.492 E.00698
G1 X103.276 Y64.625 E.00818
G1 X103.548 Y64.642 E.00853
G1 X104.199 Y64.521 E.02078
G1 X104.752 Y64.49 E.01736
G1 X105.449 Y64.545 E.02193
G1 X106.001 Y64.664 E.01768
G1 X106.533 Y64.862 E.01782
G1 X107.19 Y65.217 E.0234
G1 X107.653 Y65.566 E.01818
G1 X108.043 Y65.964 E.01745
G1 X108.447 Y66.508 E.02126
G1 X108.698 Y66.957 E.01614
G1 X108.893 Y67.419 E.0157
G1 X109.038 Y67.906 E.01596
G1 X109.153 Y68.559 E.02079
G1 X109.361 Y68.906 E.01267
G1 X109.665 Y69.025 E.01024
G1 X110.22 Y69.069 E.01746
G1 X110.774 Y69.161 E.01762
G1 X111.259 Y69.309 E.01588
G1 X111.976 Y69.646 E.02484
G1 X112.417 Y69.936 E.01655
G1 X112.83 Y70.295 E.01714
G1 X113.345 Y70.899 E.02492
G1 X113.633 Y71.368 E.01723
G1 X113.85 Y71.868 E.01709
G1 X114.044 Y72.579 E.02313
G1 X114.111 Y73.11 E.01676
G1 X114.104 Y73.646 E.01681
G1 X114.041 Y74.3 E.02062
G1 X114.152 Y74.615 E.01045
G1 X114.39 Y74.801 E.00949
G1 X114.867 Y74.967 E.01583
G1 X115.45 Y75.222 E.01994
G1 X115.977 Y75.566 E.01973
G1 X116.402 Y75.927 E.01748
G1 X116.838 Y76.404 E.02028
G1 X117.196 Y76.955 E.02061
G1 X117.441 Y77.474 E.01797
G1 X117.635 Y78.101 E.02057
G1 X117.72 Y78.738 E.02016
G1 X117.722 Y79.294 E.01744
G1 X117.646 Y79.916 E.01963
G1 X117.471 Y80.519 E.01969
G1 X117.267 Y81.123 E.01999
G1 X117.318 Y81.411 E.00917
G1 X117.504 Y81.633 E.00909
G1 X118.043 Y82.014 E.02069
G1 X118.572 Y82.463 E.02176
G1 X118.99 Y82.982 E.02088
G1 X119.252 Y83.409 E.01571
G1 X119.524 Y84.011 E.02073
G1 X119.709 Y84.72 E.02297
G1 X119.768 Y85.396 E.02129
G1 X119.723 Y86.033 E.02002
G1 X119.626 Y86.568 E.01704
G1 X119.402 Y87.198 E.02097
G1 X119.091 Y87.818 E.02174
G1 X118.706 Y88.365 E.02097
G1 X118.617 Y88.568 E.00695
G1 X118.625 Y88.845 E.00868
G1 X118.779 Y89.104 E.00947
G1 X119.307 Y89.766 E.02654
G1 X119.651 Y90.351 E.02128
G1 X119.895 Y90.997 E.02164
G1 X120.048 Y91.676 E.02182
G1 X120.077 Y92.384 E.02224
G1 X120.002 Y93.109 E.02285
G1 X119.803 Y93.782 E.022
G1 X119.517 Y94.403 E.02145
G1 X119.125 Y94.964 E.02145
G1 X118.671 Y95.455 E.02097
G1 X118.155 Y95.875 E.02085
G1 X118.024 Y96.029 E.00633
G1 X117.947 Y96.303 E.00893
G1 X118.002 Y96.558 E.00817
G1 X118.288 Y97.157 E.02082
G1 X118.486 Y97.774 E.02033
G1 X118.601 Y98.499 E.02299
G1 X118.617 Y99.16 E.02073
G1 X118.506 Y99.863 E.02233
G1 X118.283 Y100.511 E.02148
G1 X117.943 Y101.141 E.02245
G1 X117.657 Y101.554 E.01575
G1 X117.213 Y102.033 E.02046
G1 X116.671 Y102.447 E.02141
G1 X116.081 Y102.782 E.02128
G1 X115.552 Y103.037 E.0184
G1 X115.382 Y103.289 E.00954
G1 X115.363 Y103.57 E.00882
G1 X115.463 Y104.112 E.0173
G1 X115.517 Y104.67 E.01756
G1 X115.491 Y105.226 E.01746
G1 X115.364 Y105.922 E.02218
G1 X115.186 Y106.463 E.01786
G1 X114.93 Y106.978 E.01802
G1 X114.497 Y107.6 E.0238
G1 X114.109 Y108.009 E.01765
G1 X113.683 Y108.347 E.01706
G1 X113.116 Y108.685 E.02071
G1 X112.586 Y108.915 E.0181
G1 X112.098 Y109.06 E.01596
G1 X111.445 Y109.175 E.02079
G1 X111.082 Y109.405 E.01346
G1 X110.979 Y109.687 E.00942
G1 X110.93 Y110.309 E.01956
G1 X110.852 Y110.75 E.01405
G1 X110.715 Y111.231 E.01569
G1 X110.515 Y111.706 E.01615
G1 X110.108 Y112.38 E.02468
G1 X109.763 Y112.8 E.01705
G1 X109.344 Y113.187 E.01788
G1 X108.711 Y113.611 E.02392
G1 X108.218 Y113.845 E.01711
G1 X107.7 Y114.007 E.01699
G1 X106.979 Y114.124 E.02291
G1 X106.447 Y114.136 E.01671
G1 X105.784 Y114.066 E.02088
G1 X105.568 Y114.085 E.0068
G1 X105.325 Y114.229 E.00885
G1 X105.208 Y114.4 E.00651
G1 X105.037 Y114.888 E.01619
G1 X104.783 Y115.472 E.01997
G1 X104.438 Y115.999 E.01975
G1 X104.078 Y116.423 E.01745
G1 X103.6 Y116.86 E.02029
G1 X103.049 Y117.218 E.02062
G1 X102.531 Y117.463 E.01795
G1 X101.904 Y117.657 E.02058
G1 X101.266 Y117.742 E.02017
G1 X100.711 Y117.744 E.0174
G1 X100.089 Y117.669 E.01966
G1 X98.863 Y117.287 E.04023
G1 X98.591 Y117.341 E.00871
G1 X98.371 Y117.526 E.009
G1 X97.991 Y118.065 E.02069
G1 X97.541 Y118.594 E.02176
G1 X97.023 Y119.012 E.02088
G1 X96.596 Y119.274 E.01571
G1 X95.993 Y119.546 E.02073
G1 X95.284 Y119.731 E.02297
G1 X94.608 Y119.79 E.02129
G1 X93.876 Y119.733 E.02303
G1 X93.226 Y119.593 E.02084
G1 X92.579 Y119.332 E.02188
G1 X92.001 Y118.983 E.02116
G1 X91.57 Y118.686 E.01642
G1 X91.324 Y118.625 E.00793
G1 X91.071 Y118.679 E.00813
G1 X90.25 Y119.329 E.03284
G1 X89.673 Y119.672 E.02105
G1 X89.036 Y119.911 E.02133
G1 X88.363 Y120.058 E.02161
G1 X87.643 Y120.077 E.02257
G1 X86.93 Y119.991 E.02251
G1 X86.24 Y119.78 E.02262
G1 X85.614 Y119.489 E.02165
G1 X85.042 Y119.091 E.02185
G1 X84.549 Y118.639 E.02098
G1 X84.175 Y118.181 E.01852
G1 X83.975 Y117.993 E.00862
G1 X83.701 Y117.916 E.00891
G1 X83.447 Y117.971 E.00817
G1 X82.847 Y118.257 E.02082
G1 X82.23 Y118.455 E.02033
G1 X81.506 Y118.57 E.02299
G1 X80.845 Y118.586 E.02074
G1 X80.141 Y118.475 E.02233
G1 X79.493 Y118.252 E.02148
G1 X78.863 Y117.912 E.02245
G1 X78.451 Y117.626 E.01575
G1 X77.972 Y117.183 E.02046
G1 X77.557 Y116.64 E.0214
G1 X77.222 Y116.05 E.02128
G1 X76.972 Y115.526 E.01819
G1 X76.753 Y115.365 E.00852
G1 X76.435 Y115.332 E.01004
G1 X75.892 Y115.432 E.0173
G1 X75.335 Y115.486 E.01755
G1 X74.778 Y115.46 E.01747
G1 X74.082 Y115.333 E.02217
G1 X73.542 Y115.155 E.01785
G1 X73.027 Y114.899 E.01802
G1 X72.404 Y114.466 E.02378
G1 X71.995 Y114.078 E.01766
G1 X71.657 Y113.652 E.01705
G1 X71.268 Y112.985 E.02423
G1 X71.069 Y112.503 E.01634
G1 X70.936 Y112.018 E.01579
G1 X70.811 Y111.34 E.0216
G1 X70.692 Y111.134 E.00747
G1 X70.358 Y110.953 E.01192
G1 X69.611 Y110.888 E.0235
G1 X68.825 Y110.7 E.02534
G1 X68.352 Y110.513 E.01593
G1 X67.894 Y110.26 E.01643
G1 X67.262 Y109.781 E.02486
G1 X66.872 Y109.386 E.0174
G1 X66.544 Y108.935 E.01749
G1 X66.281 Y108.455 E.01715
G1 X66.043 Y107.836 E.02078
G1 X65.92 Y107.312 E.01689
G1 X65.871 Y106.778 E.01681
G1 X65.926 Y105.563 E.03813
G1 X65.775 Y105.294 E.00966
G1 X65.56 Y105.16 E.00796
G1 X64.935 Y104.944 E.02074
G1 X64.38 Y104.659 E.01956
G1 X63.927 Y104.348 E.01721
G1 X63.449 Y103.923 E.02006
G1 X63.041 Y103.419 E.02033
G1 X62.757 Y102.966 E.01677
G1 X62.542 Y102.5 E.0161
G1 X62.348 Y101.873 E.02057
G1 X62.263 Y101.236 E.02016
G1 X62.26 Y100.68 E.01743
G1 X62.336 Y100.058 E.01964
G1 X62.511 Y99.454 E.0197
G1 X62.716 Y98.852 E.01995
G1 X62.664 Y98.563 E.0092
G1 X62.478 Y98.34 E.00909
G1 X61.939 Y97.96 E.02069
G1 X61.41 Y97.511 E.02176
G1 X60.993 Y96.992 E.02088
G1 X60.73 Y96.565 E.01571
G1 X60.458 Y95.963 E.02073
G1 X60.273 Y95.254 E.02297
G1 X60.215 Y94.577 E.02129
G1 X60.272 Y93.845 E.02303
G1 X60.411 Y93.195 E.02085
G1 X60.673 Y92.548 E.02188
G1 X61.022 Y91.97 E.02117
G1 X61.339 Y91.492 E.01798
G1 X61.379 Y91.244 E.00788
G1 X61.29 Y90.976 E.00884
G1 X60.957 Y90.583 E.01616
G1 X60.55 Y90.039 E.02132
G1 X60.244 Y89.431 E.02132
G1 X60.028 Y88.786 E.02134
G1 X59.931 Y88.099 E.02175
G1 X59.929 Y87.578 E.01632
G1 X60.007 Y86.891 E.02169
G1 X60.206 Y86.218 E.022
G1 X60.492 Y85.597 E.02145
G1 X60.884 Y85.036 E.02145
G1 X61.338 Y84.545 E.02097
G1 X61.828 Y84.145 E.01982
G1 X61.985 Y83.971 E.00737
G1 X62.062 Y83.694 E.00901
G1 X62.007 Y83.442 E.00807
G1 X61.721 Y82.843 E.02082
G1 X61.523 Y82.226 E.02033
G1 X61.408 Y81.501 E.02299
G1 X61.392 Y80.84 E.02074
G1 X61.503 Y80.137 E.02233
G1 X61.726 Y79.489 E.02148
G1 X62.065 Y78.859 E.02245
G1 X62.352 Y78.446 E.01575
G1 X62.795 Y77.967 E.02046
G1 X63.338 Y77.553 E.02141
G1 X63.779 Y77.296 E.01599
G1 X64.313 Y77.052 E.01842
G1 X64.504 Y76.916 E.00736
M204 P1000
G1 X64.239 Y76.648 F9000
M204 P800
;TYPE:External perimeter
G1 F1200
G1 X64.275 Y76.499 E.00484
G1 X64.175 Y75.956 E.01729
G1 X64.115 Y75.34 E.01943
G1 X64.144 Y74.724 E.01931
G1 X64.278 Y73.992 E.02334
G1 X64.433 Y73.51 E.0159
G1 X64.642 Y73.037 E.0162
G1 X64.899 Y72.593 E.01611
G1 X65.215 Y72.167 E.01661
G1 X65.568 Y71.79 E.0162
G1 X65.957 Y71.457 E.01604
G1 X66.375 Y71.17 E.01591
G1 X66.893 Y70.89 E.01846
G1 X67.425 Y70.687 E.01786
G1 X68.575 Y70.422 E.03699
G1 X68.653 Y70.283 E.005
G1 X68.689 Y69.84 E.01393
G1 X68.786 Y69.181 E.0209
G1 X68.937 Y68.644 E.01747
G1 X69.161 Y68.117 E.01797
G1 X69.406 Y67.678 E.01573
G1 X69.698 Y67.264 E.01591
G1 X70.039 Y66.876 E.0162
G1 X70.437 Y66.512 E.01692
G1 X70.923 Y66.173 E.01857
G1 X71.479 Y65.883 E.01966
G1 X72.023 Y65.681 E.01821
G1 X72.605 Y65.543 E.01875
G1 X73.197 Y65.489 E.01862
G1 X73.766 Y65.507 E.01788
G1 X74.296 Y65.559 E.0167
G1 X74.442 Y65.474 E.00528
G1 X74.615 Y64.989 E.01615
G1 X74.808 Y64.528 E.01568
G1 X75.149 Y63.931 E.02154
G1 X75.463 Y63.542 E.0157
G1 X75.979 Y63.004 E.02336
G1 X76.602 Y62.548 E.02421
G1 X77.056 Y62.299 E.01622
G1 X77.532 Y62.11 E.01606
G1 X78.026 Y61.988 E.01595
G1 X78.768 Y61.873 E.02355
G1 X79.459 Y61.89 E.02166
G1 X80.047 Y61.978 E.01867
G1 X80.568 Y62.121 E.01693
G1 X81.118 Y62.328 E.01842
G1 X81.271 Y62.31 E.00482
G1 X82.033 Y61.308 E.03949
G1 X82.574 Y60.824 E.02276
G1 X83 Y60.529 E.01625
G1 X83.44 Y60.29 E.01569
G1 X83.911 Y60.097 E.01595
G1 X84.412 Y59.953 E.01637
G1 X84.925 Y59.865 E.01632
G1 X85.436 Y59.833 E.01604
G1 X85.94 Y59.856 E.01584
G1 X86.436 Y59.932 E.01572
G1 X87.137 Y60.13 E.02286
G1 X87.787 Y60.436 E.02252
G1 X88.674 Y60.997 E.0329
G1 X88.817 Y60.955 E.00467
G1 X89.538 Y60.357 E.02938
G1 X90.142 Y60.009 E.02186
G1 X90.634 Y59.803 E.01672
G1 X91.35 Y59.605 E.02331
G1 X91.854 Y59.543 E.0159
G1 X92.364 Y59.538 E.01599
G1 X92.903 Y59.588 E.01699
G1 X93.411 Y59.689 E.01625
G1 X93.892 Y59.841 E.01581
G1 X94.571 Y60.162 E.02354
G1 X95.185 Y60.591 E.02349
G1 X95.713 Y61.08 E.02255
G1 X96.163 Y61.63 E.0223
G1 X96.31 Y61.68 E.00486
G1 X97.25 Y61.275 E.03208
G1 X97.931 Y61.086 E.02215
G1 X98.434 Y61.029 E.01589
G1 X99.171 Y61.011 E.0231
G1 X99.926 Y61.13 E.02398
G1 X100.419 Y61.281 E.01617
G1 X100.895 Y61.486 E.01624
G1 X101.551 Y61.88 E.02399
G1 X102.094 Y62.343 E.02238
G1 X102.438 Y62.718 E.01595
G1 X102.74 Y63.125 E.01589
G1 X103.016 Y63.599 E.0172
G1 X103.272 Y64.16 E.01933
G1 X103.355 Y64.251 E.00386
G1 X103.479 Y64.271 E.00396
G1 X104.022 Y64.171 E.01729
G1 X104.638 Y64.11 E.01943
