; generated by PrusaSlicer 2.5.2+win64 on 2023-04-13 at 08:26:57 UTC


;
;

;
;
; 

; external perimeters extrusion width = 0.45mm
; perimeters extrusion width = 0.45mm
; infill extrusion width = 0.45mm
; solid infill extrusion width = 0.45mm
; top infill extrusion width = 0.40mm
; first layer extrusion width = 0.42mm

M73 P0 R4
M201 X2500 Y2500 Z400 E5000 ; sets maximum accelerations, mm/sec^2
M203 X180 Y180 Z12 E80 ; sets maximum feedrates, mm / sec
M204 P2000 R1250 T2500 ; sets acceleration (P, T) and retract acceleration (R), mm/sec^2
M205 X8.00 Y8.00 Z2.00 E10.00 ; sets the jerk limits, mm/sec
M205 S0 T0 ; sets the minimum extruding and travel feed rate, mm/sec
M107
;TYPE:Custom
M862.3 P "MINI" ; printer model check
G90 ; use absolute coordinates
M83 ; extruder relative mode
M104 S170 ; set extruder temp for bed leveling
M140 S60 ; set bed temp
M109 R170 ; wait for bed leveling temp
M190 S60 ; wait for bed temp
M204 T1250 ; set travel acceleration
G28 ; home all without mesh bed level
G29 ; mesh bed leveling 
M204 T2500 ; restore travel acceleration
M104 S215 ; set extruder temp
G92 E0
G1 Y-2 X179 F2400
G1 Z3 F720
M109 S215 ; wait for extruder temp

; intro line
M73 P1 R4
G1 X170 F1000
G1 Z0.2 F720
M73 P2 R3
G1 X110 E8 F900
G1 X40 E10 F700
G92 E0

M221 S95 ; set flow
G21 ; set units to millimeters
G90 ; use absolute coordinates
M83 ; use relative distances for extrusion
M900 K0.2 ; Filament gcode LA 1.5
; ; Filament gcode LA 1.0
M107
;LAYER_CHANGE
;Z:0.2
;HEIGHT:0.2
;BEFORE_LAYER_CHANGE
G92 E0.0
;0.2


M73 P3 R3
G1 E-3.2 F4200
M73 P6 R3
G1 Z.2 F720
;AFTER_LAYER_CHANGE
;0.2
G1 Z.4
G1 X83.852 Y83.66 F9000
G1 Z.2 F720
G1 E3.2 F2400
M204 P600
;TYPE:Skirt/Brim
;WIDTH:0.42
G1 F1200
G1 X85.114 Y82.643 E.05083
G1 X86.723 Y81.8 E.05694
G1 X88.364 Y81.322 E.05359
G1 X90.003 Y81.169 E.05162
G1 X91.784 Y81.351 E.05615
G1 X93.417 Y81.857 E.05359
G1 X95.01 Y82.728 E.05694
G1 X96.255 Y83.767 E.05083
G1 X97.398 Y85.178 E.05694
M73 P7 R3
G1 X98.188 Y86.694 E.05359
G1 X98.691 Y88.438 E.05694
G1 X98.83 Y90.054 E.05083
G1 X98.633 Y91.859 E.05694
G1 X98.113 Y93.487 E.05359
G1 X97.339 Y94.912 E.05083
G1 X96.179 Y96.309 E.05694
G1 X94.848 Y97.381 E.05359
G1 X93.417 Y98.143 E.05083
G1 X91.784 Y98.649 E.05359
G1 X89.978 Y98.831 E.05694
G1 X88.363 Y98.678 E.05083
G1 X86.623 Y98.16 E.05694
G1 X85.114 Y97.357 E.05359
G1 X83.713 Y96.202 E.05694
G1 X82.685 Y94.948 E.05083
G1 X81.828 Y93.347 E.05694
G1 X81.316 Y91.605 E.05694
G1 X81.169 Y89.902 E.05359
G1 X81.341 Y88.265 E.05163
G1 X81.869 Y86.553 E.05615
G1 X82.685 Y85.052 E.05359
G1 X83.813 Y83.706 E.05506
M204 P1000
G1 X84.101 Y83.948 F9000
M204 P600
G1 F1200
G1 X85.32 Y82.96 E.04919
G1 X86.859 Y82.151 E.05451
G1 X88.437 Y81.692 E.05156
G1 X90 Y81.546 E.04919
G1 X91.704 Y81.72 E.05372
M73 P8 R3
G1 X93.275 Y82.206 E.05156
G1 X94.8 Y83.041 E.05451
G1 X95.985 Y84.03 E.0484
G1 X97.08 Y85.381 E.05451
G1 X97.84 Y86.839 E.05156
G1 X98.284 Y88.317 E.0484
G1 X98.453 Y90.047 E.05451
G1 X98.265 Y91.775 E.05451
G1 X97.765 Y93.342 E.05156
G1 X97.028 Y94.698 E.0484
G1 X95.918 Y96.037 E.05451
G1 X94.637 Y97.068 E.05156
G1 X93.275 Y97.794 E.0484
G1 X91.704 Y98.28 E.05156
G1 X89.974 Y98.454 E.05451
G1 X88.437 Y98.308 E.0484
G1 X86.771 Y97.813 E.05451
G1 X85.32 Y97.04 E.05156
G1 X83.978 Y95.934 E.05451
G1 X83 Y94.74 E.0484
G1 X82.178 Y93.208 E.05451
G1 X81.687 Y91.541 E.05451
G1 X81.546 Y89.902 E.05156
G1 X81.71 Y88.342 E.04919
G1 X82.214 Y86.704 E.05372
G1 X83 Y85.26 E.05156
G1 X84.062 Y83.994 E.05183
M204 P1000
G1 X84.348 Y84.236 F9000
M204 P600
G1 F1200
G1 X85.525 Y83.276 E.04761
G1 X86.995 Y82.503 E.05208
M73 P9 R3
G1 X88.511 Y82.061 E.04953
G1 X89.996 Y81.923 E.04676
G1 X91.624 Y82.088 E.05128
G1 X93.133 Y82.556 E.04953
G1 X94.589 Y83.354 E.05208
G1 X95.715 Y84.293 E.04597
G1 X96.762 Y85.583 E.05208
G1 X97.492 Y86.984 E.04953
G1 X97.914 Y88.388 E.04597
G1 X98.076 Y90.041 E.05208
G1 X97.897 Y91.692 E.05208
G1 X97.417 Y93.197 E.04953
G1 X96.717 Y94.485 E.04597
G1 X95.715 Y95.707 E.04953
G1 X94.427 Y96.755 E.05208
G1 X93.133 Y97.444 E.04597
G1 X91.624 Y97.912 E.04953
G1 X89.971 Y98.077 E.05208
G1 X88.511 Y97.939 E.04597
G1 X86.919 Y97.466 E.05208
G1 X85.457 Y96.678 E.05208
G1 X84.244 Y95.666 E.04953
G1 X83.314 Y94.532 E.04597
G1 X82.529 Y93.069 E.05208
G1 X82.059 Y91.476 E.05208
G1 X81.923 Y89.902 E.04953
G1 X82.079 Y88.419 E.04676
G1 X82.56 Y86.855 E.05129
G1 X83.361 Y85.4 E.05208
G1 X84.31 Y84.282 E.04598
M204 P1000
; printing object Disks axyl holder.stl id:0 copy 0
G1 E-2.24 F4200
;WIPE_START
M73 P10 R3
G1 F7200
G1 X85.525 Y83.276 E-.87422
G1 X85.585 Y83.244 E-.03778
;WIPE_END
G1 E-.048 F4200
G1 Z.4 F720
G1 X89.805 Y94.899 F9000
G1 Z.2 F720
G1 E3.2 F2400
M204 P600
;TYPE:Perimeter
;WIDTH:0.419999
G1 F1200
G1 X89.508 Y94.885 E.00931
G1 X89.007 Y94.808 E.0159
G1 X88.515 Y94.68 E.01594
G1 X88.038 Y94.501 E.01597
G1 X87.581 Y94.273 E.01601
G1 X87.127 Y93.984 E.01686
G1 X86.507 Y93.448 E.02569
G1 X86.154 Y93.056 E.01655
G1 X85.703 Y92.372 E.02568
G1 X85.479 Y91.918 E.01588
G1 X85.306 Y91.443 E.01585
G1 X85.182 Y90.953 E.01586
G1 X85.11 Y90.453 E.01584
G1 X85.089 Y89.947 E.01586
G1 X85.122 Y89.421 E.01654
G1 X85.29 Y88.619 E.02568
G1 X85.455 Y88.14 E.01588
G1 X85.67 Y87.683 E.01584
G1 X85.931 Y87.25 E.01586
G1 X86.236 Y86.846 E.01585
G1 X86.58 Y86.476 E.01586
G1 X86.977 Y86.129 E.01654
G1 X87.651 Y85.692 E.02517
G1 X88.105 Y85.47 E.01586
G1 X88.578 Y85.301 E.01574
G1 X89.066 Y85.18 E.01578
G1 X89.611 Y85.104 E.01726
G1 X90.398 Y85.111 E.02469
G1 X90.91 Y85.175 E.01616
G1 X91.403 Y85.295 E.01593
G1 X91.883 Y85.466 E.01597
G1 X92.374 Y85.7 E.01705
G1 X93.051 Y86.156 E.02561
G1 X93.435 Y86.491 E.01595
G1 X93.777 Y86.862 E.01584
G1 X94.093 Y87.285 E.01655
G1 X94.504 Y88.042 E.02701
G1 X94.687 Y88.537 E.01655
G1 X94.813 Y89.026 E.01584
G1 X94.887 Y89.527 E.01586
G1 X94.91 Y89.968 E.01386
G1 X94.887 Y90.473 E.01585
G1 X94.813 Y90.973 E.01585
G1 X94.687 Y91.463 E.01585
G1 X94.512 Y91.937 E.01585
G1 X94.279 Y92.411 E.01655
G1 X93.816 Y93.086 E.02567
G1 X93.479 Y93.465 E.01588
G1 X93.106 Y93.803 E.01578
G1 X92.679 Y94.116 E.01661
G1 X91.975 Y94.491 E.025
G1 X91.502 Y94.674 E.01593
G1 X91.015 Y94.803 E.01577
G1 X90.518 Y94.882 E.0158
G1 X89.864 Y94.902 E.02049
M204 P1000
G1 X89.788 Y95.28 F9000
M204 P600
;TYPE:External perimeter
G1 F1200
G1 X89.411 Y95.257 E.01186
G1 X88.873 Y95.168 E.01708
G1 X88.348 Y95.025 E.01708
G1 X87.84 Y94.829 E.01707
G1 X87.355 Y94.581 E.01708
G1 X86.9 Y94.286 E.01698
G1 X86.209 Y93.689 E.02864
G1 X85.854 Y93.285 E.01688
G1 X85.351 Y92.523 E.02863
G1 X85.117 Y92.035 E.01697
G1 X84.934 Y91.522 E.01708
G1 X84.804 Y90.993 E.01708
G1 X84.729 Y90.453 E.01708
G1 X84.711 Y89.909 E.01708
G1 X84.748 Y89.369 E.01698
G1 X84.935 Y88.475 E.02863
M73 P11 R3
G1 X85.117 Y87.965 E.01697
G1 X85.352 Y87.474 E.01708
G1 X85.636 Y87.01 E.01708
G1 X85.967 Y86.577 E.01708
G1 X86.34 Y86.18 E.01708
G1 X86.75 Y85.826 E.01698
G1 X87.516 Y85.33 E.02863
G1 X88.007 Y85.1 E.01697
G1 X88.521 Y84.921 E.01708
G1 X89.051 Y84.796 E.01708
G1 X89.588 Y84.726 E.01698
G1 X90.402 Y84.733 E.0255
G1 X90.964 Y84.802 E.01778
G1 X91.496 Y84.93 E.01715
G1 X92.013 Y85.112 E.01718
G1 X92.488 Y85.336 E.01646
G1 X93.373 Y85.93 E.03342
G1 X93.758 Y86.281 E.01635
G1 X94.121 Y86.688 E.01708
G1 X94.484 Y87.216 E.02011
G1 X94.872 Y87.948 E.02597
G1 X95.052 Y88.441 E.01645
G1 X95.191 Y89.003 E.01816
G1 X95.264 Y89.507 E.01597
G1 X95.289 Y90 E.01547
G1 X95.261 Y90.544 E.01708
G1 X95.177 Y91.082 E.01707
G1 X95.039 Y91.609 E.01708
G1 X94.847 Y92.118 E.01708
G1 X94.604 Y92.603 E.01698
G1 X94.088 Y93.356 E.02863
G1 X93.724 Y93.756 E.01697
G1 X93.318 Y94.119 E.01708
G1 X92.879 Y94.437 E.01698
G1 X92.073 Y94.866 E.02863
G1 X91.565 Y95.053 E.01697
G1 X91.037 Y95.187 E.01708
G1 X90.498 Y95.266 E.01708
G1 X89.848 Y95.283 E.0204
M204 P1000
G1 X89.604 Y94.949 F9000
G1 E-2.24 F4200
;WIPE_START
G1 F7200
G1 X89.411 Y95.257 E-.24286
G1 X88.873 Y95.168 E-.30182
G1 X88.348 Y95.025 E-.30181
G1 X88.237 Y94.983 E-.06551
;WIPE_END
G1 E-.048 F4200
G1 Z.4 F720
G1 X87.359 Y92.566 F9000
G1 Z.2 F720
G1 E3.2 F2400
M204 P600
;TYPE:Perimeter
G1 F1200
G1 X87.302 Y92.515 E.00241
G1 X86.884 Y91.967 E.02159
G1 X86.528 Y91.237 E.02548
G1 X86.375 Y90.664 E.0186
G1 X86.315 Y89.966 E.02196
G1 X86.388 Y89.27 E.02196
G1 X86.591 Y88.6 E.02196
G1 X86.918 Y87.98 E.02197
G1 X87.309 Y87.476 E.02002
G1 X87.578 Y87.29 E.01024
G1 X88.115 Y87.263 E.01686
G1 X92.248 Y87.263 E.12958
G1 X92.453 Y87.301 E.00654
G1 X92.69 Y87.476 E.00922
G1 X93.027 Y87.898 E.01694
G1 X93.366 Y88.501 E.02169
G1 X93.589 Y89.165 E.02196
G1 X93.682 Y89.859 E.02195
G1 X93.654 Y90.397 E.01692
G1 X93.609 Y90.719 E.01019
G1 X93.471 Y91.237 E.01679
G1 X93.194 Y91.83 E.02051
G1 X92.814 Y92.361 E.0205
G1 X92.546 Y92.652 E.01239
M73 P12 R3
G1 X92.248 Y92.737 E.00973
G1 X87.752 Y92.737 E.14096
G1 X87.461 Y92.657 E.00944
G1 X87.404 Y92.606 E.00241
M204 P1000
G1 X87.594 Y92.275 F9000
M204 P600
;TYPE:External perimeter
G1 F1200
G1 X87.184 Y91.738 E.02119
G1 X86.893 Y91.139 E.02089
G1 X86.738 Y90.564 E.01868
G1 X86.691 Y89.939 E.01964
G1 X86.762 Y89.314 E.01972
G1 X86.95 Y88.714 E.01972
G1 X87.249 Y88.16 E.01973
G1 X87.604 Y87.711 E.01797
G1 X87.751 Y87.64 E.00513
G1 X92.248 Y87.64 E.14098
G1 X92.395 Y87.711 E.00513
G1 X92.732 Y88.133 E.01694
G1 X93.035 Y88.681 E.01963
G1 X93.229 Y89.279 E.01972
G1 X93.307 Y89.903 E.01972
G1 X93.266 Y90.531 E.01972
G1 X93.131 Y91.049 E.01679
G1 X92.855 Y91.665 E.02116
G1 X92.514 Y92.133 E.01815
G1 X92.313 Y92.348 E.00926
G1 X87.752 Y92.36 E.14301
G1 X87.644 Y92.307 E.00377
M204 P1000
G1 X87.23 Y92.442 F9000
G1 E-2.24 F4200
;WIPE_START
G1 F7200
G1 X87.184 Y91.738 E-.40515
G1 X86.893 Y91.139 E-.36924
G1 X86.828 Y90.899 E-.13761
;WIPE_END
G1 E-.048 F4200
G1 Z.4 F720
G1 X92.357 Y85.893 F9000
G1 Z.2 F720
G1 E3.2 F2400
M204 P600
;TYPE:Solid infill
;WIDTH:0.423757
G1 F1200
G1 X93.243 Y86.779 E.03968
G1 X93.536 Y87.101 E.01378
G1 X93.806 Y87.468 E.01442
G1 X94.195 Y88.184 E.0258
G1 X94.247 Y88.322 E.00469
G1 X91.676 Y85.751 E.11514
G1 X91.353 Y85.632 E.01091
G1 X90.905 Y85.519 E.01463
G1 X92.321 Y86.935 E.06341
G1 X92.576 Y86.982 E.00822
G1 X92.84 Y87.144 E.00981
G1 X92.918 Y87.22 E.00345
G1 X93.346 Y87.759 E.02179
G1 X93.59 Y88.203 E.01605
G1 X94.683 Y89.297 E.04897
M204 P1000
G1 X93.646 Y88.799 F9000
M204 P600
G1 F1200
M73 P13 R3
G1 X94.557 Y89.709 E.04078
G1 X94.572 Y90 E.00922
G1 X94.559 Y90.25 E.00793
G1 X93.994 Y89.685 E.0253
G1 X94.024 Y89.978 E.00931
G1 X94.005 Y90.234 E.00815
G1 X94.506 Y90.736 E.02247
G1 X94.475 Y90.935 E.00639
G1 X94.411 Y91.179 E.00799
G1 X93.955 Y90.724 E.0204
G1 X93.844 Y91.151 E.01398
G1 X94.281 Y91.588 E.01957
G1 X94.121 Y91.967 E.01302
G1 X93.706 Y91.551 E.01861
G1 X93.526 Y91.91 E.01271
G1 X93.932 Y92.316 E.01818
G1 X93.713 Y92.636 E.01227
G1 X93.326 Y92.249 E.01734
G1 X93.093 Y92.554 E.01217
G1 X93.489 Y92.95 E.01772
G1 X93.232 Y93.232 E.01207
G1 X92.84 Y92.839 E.01758
G1 X92.731 Y92.938 E.00465
G1 X92.497 Y93.035 E.00803
G1 X92.949 Y93.488 E.02028
G1 X92.868 Y93.561 E.00347
G1 X92.645 Y93.722 E.00871
G1 X91.999 Y93.076 E.02892
G1 X91.461 Y93.076 E.01705
G1 X92.312 Y93.927 E.03812
G1 X91.96 Y94.114 E.01261
G1 X90.922 Y93.076 E.0465
G1 X90.384 Y93.076 E.01705
G1 X91.588 Y94.281 E.05395
G1 X91.18 Y94.411 E.01357
G1 X89.845 Y93.076 E.05979
G1 X89.307 Y93.076 E.01705
G1 X90.737 Y94.507 E.06407
G1 X90.251 Y94.56 E.01548
G1 X88.768 Y93.076 E.06643
G1 X88.229 Y93.076 E.01705
G1 X89.891 Y94.738 E.07441
M204 P1000
G1 E-2.24 F4200
;WIPE_START
G1 F7200
G1 X88.727 Y93.574 E-.912
;WIPE_END
G1 E-.048 F4200
G1 Z.4 F720
G1 X91.941 Y87.093 F9000
G1 Z.2 F720
G1 E3.2 F2400
M204 P600
G1 F1200
G1 X90.297 Y85.449 E.07363
G1 X89.753 Y85.444 E.0172
G1 X91.233 Y86.924 E.06624
G1 X90.694 Y86.924 E.01706
M73 P14 R3
G1 X89.263 Y85.492 E.06409
G1 X89.179 Y85.502 E.00268
G1 X88.819 Y85.587 E.01171
G1 X90.155 Y86.924 E.05986
G1 X89.617 Y86.924 E.01706
G1 X88.411 Y85.718 E.05399
G1 X88.033 Y85.879 E.013
G1 X89.078 Y86.924 E.04679
G1 X88.54 Y86.924 E.01706
G1 X87.688 Y86.072 E.03813
G1 X87.361 Y86.284 E.01233
G1 X88.001 Y86.924 E.02865
G1 X87.74 Y86.924 E.00828
G1 X87.5 Y86.961 E.00768
G1 X87.052 Y86.513 E.02009
G1 X86.77 Y86.769 E.01207
G1 X87.154 Y87.154 E.01722
G1 X86.904 Y87.442 E.01209
G1 X86.509 Y87.047 E.0177
G1 X86.276 Y87.353 E.01217
G1 X86.668 Y87.744 E.01755
G1 X86.475 Y88.09 E.01254
G1 X86.065 Y87.681 E.01833
G1 X85.982 Y87.817 E.00504
G1 X85.879 Y88.033 E.00759
G1 X86.287 Y88.441 E.01827
G1 X86.158 Y88.85 E.0136
G1 X85.718 Y88.411 E.01968
G1 X85.626 Y88.67 E.0087
G1 X85.593 Y88.825 E.00501
G1 X86.048 Y89.28 E.02038
G1 X85.994 Y89.764 E.01544
G1 X85.5 Y89.27 E.02212
G1 X85.459 Y89.467 E.00638
G1 X85.44 Y89.748 E.00892
G1 X86 Y90.308 E.02509
G1 X86.025 Y90.646 E.0107
G1 X86.105 Y90.952 E.01005
G1 X85.441 Y90.287 E.02978
G1 X85.52 Y90.906 E.01974
G1 X86.424 Y91.81 E.04048
G1 X86.575 Y92.119 E.01091
G1 X87.037 Y92.727 E.02416
G1 X87.159 Y92.856 E.00563
G1 X87.293 Y92.953 E.00526
G1 X87.599 Y93.065 E.01029
G1 X87.686 Y93.072 E.00278
G1 X89.093 Y94.478 E.063
G1 X88.572 Y94.344 E.01705
G1 X88.324 Y94.248 E.00843
G1 X85.748 Y91.672 E.11534
G1 X85.976 Y92.169 E.01731
G1 X86.425 Y92.849 E.0258
G1 X86.7 Y93.163 E.01323
G1 X87.661 Y94.123 E.043
M204 P1000
; stop printing object Disks axyl holder.stl id:0 copy 0
M106 S84.15
;LAYER_CHANGE
;Z:0.45
;HEIGHT:0.25
;BEFORE_LAYER_CHANGE
G92 E0.0
;0.45


G1 E-2.24 F4200
;WIPE_START
G1 F7200
G1 X86.7 Y93.163 E-.75255
G1 X86.51 Y92.947 E-.15945
;WIPE_END
G1 E-.048 F4200
G1 Z.4 F720
G1 Z.45
;AFTER_LAYER_CHANGE
;0.45
G1 Z.65
G1 X83.241 Y95.627 F9000
G1 Z.45 F720
M73 P15 R3
G1 E3.2 F2400
;TYPE:Skirt/Brim
;WIDTH:0.42
G1 X82.685 Y94.948 E.03342
G1 X81.828 Y93.347 E.06915
G1 X81.316 Y91.605 E.06915
G1 X81.169 Y89.902 E.06508
G1 X81.341 Y88.265 E.0627
G1 X81.869 Y86.553 E.06818
G1 X82.685 Y85.052 E.06508
G1 X83.852 Y83.66 E.06915
G1 X85.114 Y82.643 E.06173
G1 X86.723 Y81.8 E.06915
G1 X88.364 Y81.322 E.06508
G1 X90.003 Y81.169 E.06269
G1 X91.784 Y81.351 E.06819
G1 X93.417 Y81.857 E.06508
G1 X95.01 Y82.728 E.06915
G1 X96.255 Y83.767 E.06173
G1 X97.398 Y85.178 E.06915
G1 X98.188 Y86.694 E.06508
G1 X98.691 Y88.438 E.06915
G1 X98.83 Y90.054 E.06173
G1 X98.633 Y91.859 E.06915
G1 X98.113 Y93.487 E.06508
G1 X97.339 Y94.912 E.06173
G1 X96.179 Y96.309 E.06915
G1 X94.848 Y97.381 E.06508
G1 X93.417 Y98.143 E.06173
G1 X91.784 Y98.649 E.06508
G1 X89.978 Y98.831 E.06915
G1 X88.363 Y98.678 E.06173
G1 X86.623 Y98.16 E.06915
G1 X85.114 Y97.357 E.06508
G1 X83.713 Y96.202 E.06915
G1 X83.279 Y95.673 E.02603
G1 X83.57 Y95.435 F9000
G1 F2400
G1 X83 Y94.74 E.03422
G1 X82.178 Y93.208 E.06619
G1 X81.687 Y91.541 E.0662
G1 X81.546 Y89.902 E.06262
G1 X81.71 Y88.342 E.05974
G1 X82.214 Y86.704 E.06524
G1 X83 Y85.26 E.06261
G1 X84.117 Y83.928 E.0662
G1 X85.32 Y82.96 E.05878
G1 X86.859 Y82.151 E.0662
G1 X88.437 Y81.692 E.06262
G1 X90 Y81.546 E.05974
G1 X91.704 Y81.72 E.06523
G1 X93.275 Y82.206 E.06261
G1 X94.8 Y83.041 E.0662
G1 X95.985 Y84.03 E.05878
G1 X97.08 Y85.381 E.0662
G1 X97.84 Y86.839 E.06262
G1 X98.284 Y88.317 E.05878
G1 X98.453 Y90.047 E.0662
G1 X98.265 Y91.775 E.0662
G1 X97.765 Y93.342 E.06262
M73 P16 R3
G1 X97.028 Y94.698 E.05878
G1 X95.918 Y96.037 E.0662
G1 X94.637 Y97.068 E.06261
G1 X93.275 Y97.794 E.05878
G1 X91.704 Y98.28 E.06262
G1 X89.974 Y98.454 E.0662
G1 X88.437 Y98.308 E.05878
G1 X86.771 Y97.813 E.0662
G1 X85.32 Y97.04 E.06262
G1 X83.978 Y95.934 E.0662
G1 X83.608 Y95.482 E.02227
G1 X83.898 Y95.244 F9000
G1 F2400
G1 X83.314 Y94.532 E.03503
G1 X82.529 Y93.069 E.06324
G1 X82.059 Y91.476 E.06324
G1 X81.923 Y89.902 E.06016
G1 X82.079 Y88.419 E.05679
G1 X82.56 Y86.855 E.06228
G1 X83.361 Y85.4 E.06324
G1 X84.383 Y84.196 E.06015
G1 X85.525 Y83.276 E.05583
G1 X86.995 Y82.503 E.06324
G1 X88.511 Y82.061 E.06015
G1 X89.996 Y81.923 E.05679
G1 X91.624 Y82.088 E.06228
G1 X93.133 Y82.556 E.06015
G1 X94.589 Y83.354 E.06324
G1 X95.715 Y84.293 E.05583
G1 X96.762 Y85.583 E.06325
G1 X97.492 Y86.984 E.06015
G1 X97.914 Y88.388 E.05583
G1 X98.076 Y90.041 E.06324
G1 X97.897 Y91.692 E.06324
G1 X97.417 Y93.197 E.06015
G1 X96.717 Y94.485 E.05583
G1 X95.715 Y95.707 E.06015
