; generated by PrusaSlicer 2.5.2+win64 on 2023-05-01 at 07:39:20 UTC


;
;

;
;
; 

; external perimeters extrusion width = 0.45mm
; perimeters extrusion width = 0.45mm
; infill extrusion width = 0.45mm
; solid infill extrusion width = 0.45mm
; top infill extrusion width = 0.40mm
; first layer extrusion width = 0.42mm

M73 P0 R191
M201 X2500 Y2500 Z400 E5000 ; sets maximum accelerations, mm/sec^2
M203 X180 Y180 Z12 E80 ; sets maximum feedrates, mm / sec
M204 P2000 R1250 T2500 ; sets acceleration (P, T) and retract acceleration (R), mm/sec^2
M205 X8.00 Y8.00 Z2.00 E10.00 ; sets the jerk limits, mm/sec
M205 S0 T0 ; sets the minimum extruding and travel feed rate, mm/sec
M107
;TYPE:Custom
M862.3 P "MINI" ; printer model check
G90 ; use absolute coordinates
M83 ; extruder relative mode
M104 S170 ; set extruder temp for bed leveling
M140 S60 ; set bed temp
M109 R170 ; wait for bed leveling temp
M190 S60 ; wait for bed temp
M204 T1250 ; set travel acceleration
G28 ; home all without mesh bed level
G29 ; mesh bed leveling 
M204 T2500 ; restore travel acceleration
M104 S215 ; set extruder temp
G92 E0
G1 Y-2 X179 F2400
G1 Z3 F720
M109 S215 ; wait for extruder temp

; intro line
G1 X170 F1000
G1 Z0.2 F720
G1 X110 E8 F900
G1 X40 E10 F700
G92 E0

M221 S95 ; set flow
G21 ; set units to millimeters
G90 ; use absolute coordinates
M83 ; use relative distances for extrusion
M900 K0.2 ; Filament gcode LA 1.5
; ; Filament gcode LA 1.0
M107
;LAYER_CHANGE
;Z:0.2
;HEIGHT:0.2
;BEFORE_LAYER_CHANGE
G92 E0.0
;0.2


G1 E-3.2 F4200
G1 Z.2 F720
;AFTER_LAYER_CHANGE
;0.2
G1 Z.4
G1 X28.107 Y28.089 F9000
G1 Z.2 F720
G1 E3.2 F2400
M204 P600
;TYPE:Skirt/Brim
;WIDTH:0.42
G1 F1200
G1 X29.606 Y26.589 E.06649
G1 X32.761 Y23.725 E.13361
G1 X36.098 Y20.98 E.13547
G1 X39.475 Y18.469 E.13194
G1 X41.233 Y17.257 E.06695
G1 X51.233 Y11.478 E.36213
G1 X53.285 Y10.49 E.07142
G1 X57.084 Y8.84 E.12987
G1 X59.099 Y8.05 E.06786
G1 X63.035 Y6.671 E.13076
G1 X67.167 Y5.446 E.13512
G1 X71.324 Y4.434 E.13413
G1 X75.554 Y3.624 E.13506
G1 X79.794 Y3.027 E.13426
G1 X84.339 Y2.625 E.14307
G1 X95.88 Y2.632 E.36185
G1 X100.182 Y3.02 E.13544
G1 X104.481 Y3.624 E.13612
G1 X108.712 Y4.434 E.13506
G1 X112.868 Y5.446 E.13413
G1 X116.945 Y6.653 E.1333
G1 X120.936 Y8.05 E.13258
G1 X124.836 Y9.632 E.13196
G1 X128.639 Y11.392 E.13141
G1 X138.642 Y17.156 E.36199
G1 X140.568 Y18.476 E.07318
G1 X143.954 Y20.997 E.13237
G1 X147.253 Y23.71 E.13393
G1 X150.413 Y26.576 E.13375
G1 X153.429 Y29.589 E.13365
G1 X156.293 Y32.744 E.13361
G1 X159.038 Y36.08 E.13547
G1 X161.549 Y39.457 E.13195
G1 X162.76 Y41.215 E.06695
G1 X168.509 Y51.259 E.36285
G1 X169.492 Y53.303 E.0711
G1 X171.142 Y57.102 E.12987
G1 X171.932 Y59.117 E.06786
G1 X173.311 Y63.053 E.13076
G1 X174.536 Y67.185 E.13512
G1 X175.548 Y71.341 E.13413
G1 X176.359 Y75.572 E.13506
G1 X176.956 Y79.812 E.13426
G1 X177.358 Y84.357 E.14307
G1 X177.35 Y95.897 E.36185
G1 X176.963 Y100.2 E.13544
G1 X176.359 Y104.499 E.13612
G1 X175.548 Y108.729 E.13506
G1 X174.536 Y112.886 E.13413
G1 X173.329 Y116.962 E.1333
G1 X171.932 Y120.953 E.13258
G1 X170.351 Y124.854 E.13196
G1 X168.59 Y128.657 E.13141
G1 X162.826 Y138.66 E.36199
G1 X161.507 Y140.586 E.07318
G1 X158.986 Y143.972 E.13237
G1 X156.273 Y147.271 E.13393
G1 X153.407 Y150.431 E.13375
G1 X150.394 Y153.446 E.13365
G1 X147.239 Y156.311 E.13361
G1 X143.902 Y159.055 E.13547
G1 X140.525 Y161.567 E.13195
G1 X138.767 Y162.778 E.06695
G1 X128.767 Y168.557 E.36213
G1 X126.71 Y169.541 E.07152
G1 X122.911 Y171.181 E.12972
G1 X120.897 Y171.966 E.06777
G1 X116.962 Y173.339 E.13068
G1 X112.831 Y174.559 E.13504
G1 X108.676 Y175.568 E.13408
G1 X104.446 Y176.377 E.13504
G1 X100.206 Y176.973 E.13425
G1 X95.661 Y177.375 E.14306
G1 X84.12 Y177.368 E.36186
G1 X79.829 Y176.98 E.13508
G1 X75.539 Y176.376 E.13585
G1 X71.314 Y175.565 E.13486
G1 X67.162 Y174.554 E.134
G1 X63.088 Y173.347 E.13322
G1 X59.099 Y171.95 E.13254
G1 X55.199 Y170.368 E.13194
G1 X51.396 Y168.608 E.1314
G1 X41.393 Y162.844 E.36199
G1 X39.467 Y161.524 E.07318
G1 X36.081 Y159.003 E.13237
G1 X32.782 Y156.29 E.13393
G1 X29.622 Y153.425 E.13375
G1 X26.607 Y150.411 E.13365
G1 X23.742 Y147.257 E.13361
G1 X20.998 Y143.92 E.13547
G1 X18.486 Y140.543 E.13195
G1 X17.275 Y138.785 E.06695
G1 X11.496 Y128.785 E.36213
M73 P0 R190
G1 X10.508 Y126.732 E.07142
G1 X8.858 Y122.933 E.12987
G1 X8.068 Y120.918 E.06786
G1 X6.689 Y116.982 E.13076
G1 X5.464 Y112.851 E.13512
G1 X4.452 Y108.694 E.13413
G1 X3.641 Y104.464 E.13506
G1 X3.044 Y100.223 E.13426
G1 X2.642 Y95.678 E.14307
G1 X2.649 Y84.138 E.36185
G1 X3.037 Y79.836 E.13544
G1 X3.641 Y75.536 E.13612
G1 X4.452 Y71.306 E.13506
G1 X5.464 Y67.149 E.13413
G1 X6.671 Y63.073 E.1333
G1 X8.068 Y59.082 E.13258
G1 X9.649 Y55.182 E.13196
G1 X11.41 Y51.378 E.13141
G1 X17.174 Y41.375 E.36199
G1 X18.493 Y39.45 E.07318
G1 X21.014 Y36.063 E.13237
G1 X23.727 Y32.764 E.13393
G1 X26.593 Y29.604 E.13375
G1 X28.065 Y28.131 E.06528
M204 P1000
; printing object disk_180mm_2-2mm.stl id:0 copy 0
G1 E-2.24 F4200
;WIPE_START
G1 F7200
G1 X29.228 Y26.967 E-.912
;WIPE_END
G1 E-.048 F4200
G1 Z.4 F720
G1 X137.572 Y159.759 F9000
G1 Z.2 F720
G1 E3.2 F2400
M204 P600
;TYPE:Perimeter
;WIDTH:0.419999
G1 F1200
G1 X137.263 Y159.399 E.01487
G1 X136.785 Y158.97 E.02014
G1 X136.324 Y158.625 E.01804
G1 X135.811 Y158.311 E.01888
G1 X135.273 Y158.047 E.01878
G1 X134.715 Y157.834 E.01873
G1 X134.14 Y157.672 E.01871
G1 X133.553 Y157.564 E.01872
G1 X132.957 Y157.51 E.01877
G1 X132.356 Y157.512 E.01885
G1 X131.753 Y157.57 E.01898
G1 X131.154 Y157.686 E.01914
G1 X130.486 Y157.891 E.02191
G1 X129.981 Y158.095 E.01707
G1 X129.417 Y158.39 E.01995
G1 X128.885 Y158.738 E.01995
G1 X128.397 Y159.13 E.01961
G1 X127.955 Y159.561 E.01934
G1 X127.561 Y160.026 E.01912
G1 X127.215 Y160.522 E.01895
G1 X126.919 Y161.044 E.01883
G1 X126.658 Y161.633 E.02018
G1 X126.479 Y162.153 E.01727
G1 X126.336 Y162.732 E.01869
G1 X126.247 Y163.322 E.0187
G1 X126.212 Y163.919 E.01875
G1 X126.232 Y164.519 E.01883
G1 X126.308 Y165.119 E.01895
G1 X126.569 Y166.106 E.03203
G1 X125.413 Y166.655 E.04014
G1 X123.568 Y167.478 E.06332
G1 X121.7 Y168.257 E.06346
G1 X119.81 Y168.994 E.06361
G1 X117.898 Y169.687 E.06377
G1 X115.965 Y170.336 E.06394
G1 X114.011 Y170.939 E.06412
G1 X112.037 Y171.496 E.06431
G1 X110.044 Y172.006 E.06451
G1 X108.032 Y172.47 E.06472
G1 X106.003 Y172.885 E.06495
G1 X103.956 Y173.251 E.06519
G1 X101.893 Y173.567 E.06545
G1 X99.813 Y173.834 E.06573
G1 X97.719 Y174.049 E.06601
G1 X96.322 Y174.157 E.04393
G1 X96.234 Y173.691 E.01489
G1 X96.011 Y173.024 E.02205
G1 X95.809 Y172.553 E.01605
G1 X95.523 Y172.025 E.01884
G1 X95.191 Y171.527 E.01875
G1 X94.817 Y171.063 E.0187
G1 X94.402 Y170.636 E.01868
G1 X93.949 Y170.247 E.0187
G1 X93.461 Y169.902 E.01875
G1 X92.941 Y169.601 E.01884
G1 X92.391 Y169.349 E.01897
G1 X91.814 Y169.149 E.01915
G1 X91.214 Y169.003 E.01938
G1 X90.593 Y168.914 E.01967
G1 X89.955 Y168.886 E.02003
G1 X89.256 Y168.929 E.02193
G1 X88.624 Y169.034 E.02009
G1 X88.111 Y169.165 E.01661
G1 X87.538 Y169.37 E.01907
G1 X86.992 Y169.626 E.01891
G1 X86.475 Y169.93 E.01881
G1 X85.99 Y170.279 E.01874
G1 X85.54 Y170.67 E.0187
G1 X85.127 Y171.1 E.0187
G1 X84.754 Y171.567 E.01873
G1 X84.424 Y172.067 E.01879
G1 X84.139 Y172.598 E.01889
G1 X83.903 Y173.157 E.01902
G1 X83.628 Y174.156 E.0325
G1 X82.252 Y174.049 E.04327
G1 X80.163 Y173.834 E.06585
G1 X78.089 Y173.567 E.06558
G1 X76.03 Y173.25 E.06533
G1 X73.986 Y172.884 E.06509
G1 X71.96 Y172.468 E.06487
G1 X69.951 Y172.004 E.06465
G1 X67.959 Y171.492 E.06446
G1 X65.987 Y170.933 E.06427
G1 X64.035 Y170.327 E.0641
G1 X62.102 Y169.676 E.06394
G1 X60.191 Y168.98 E.06379
G1 X58.301 Y168.239 E.06364
G1 X56.433 Y167.455 E.06351
G1 X54.589 Y166.627 E.06338
G1 X53.42 Y166.068 E.04063
G1 X53.581 Y165.619 E.01496
G1 X53.713 Y165.02 E.01924
G1 X53.787 Y164.418 E.01903
G1 X53.803 Y163.816 E.01888
G1 X53.763 Y163.218 E.01877
G1 X53.668 Y162.629 E.01871
G1 X53.519 Y162.052 E.01868
G1 X53.317 Y161.491 E.01869
G1 X53.064 Y160.95 E.01874
G1 X52.761 Y160.432 E.01883
G1 X52.409 Y159.941 E.01895
G1 X52.008 Y159.481 E.01911
G1 X51.476 Y158.988 E.02276
G1 X51.015 Y158.635 E.01819
G1 X50.535 Y158.327 E.01788
G1 X49.969 Y158.037 E.01995
G1 X49.387 Y157.808 E.01962
G1 X48.794 Y157.638 E.01934
G1 X48.18 Y157.526 E.01955
G1 X47.524 Y157.474 E.02063
G1 X46.991 Y157.477 E.01673
G1 X46.395 Y157.536 E.01876
G1 X45.809 Y157.649 E.01872
G1 X45.236 Y157.815 E.01871
G1 X44.68 Y158.033 E.01874
G1 X44.144 Y158.301 E.0188
G1 X43.632 Y158.62 E.01889
G1 X43.149 Y158.987 E.01902
G1 X42.416 Y159.715 E.0324
G1 X41.318 Y158.958 E.0418
G1 X39.648 Y157.746 E.06473
G1 X38.009 Y156.494 E.06465
G1 X36.403 Y155.205 E.06459
G1 X34.829 Y153.878 E.06454
G1 X33.289 Y152.514 E.0645
G1 X31.783 Y151.114 E.06446
G1 X30.313 Y149.678 E.06444
G1 X28.878 Y148.208 E.06441
G1 X27.479 Y146.704 E.06441
G1 X26.117 Y145.166 E.0644
G1 X24.793 Y143.595 E.06441
G1 X23.508 Y141.993 E.06442
G1 X22.261 Y140.359 E.06445
G1 X21.053 Y138.693 E.06449
G1 X20.294 Y137.59 E.04202
G1 X20.654 Y137.281 E.01487
G1 X21.083 Y136.803 E.02014
G1 X21.427 Y136.342 E.01804
G1 X21.742 Y135.828 E.01888
G1 X22.006 Y135.291 E.01879
G1 X22.219 Y134.733 E.01873
G1 X22.381 Y134.158 E.01871
G1 X22.489 Y133.571 E.01872
G1 X22.543 Y132.975 E.01877
G1 X22.541 Y132.373 E.01885
G1 X22.483 Y131.771 E.01898
G1 X22.367 Y131.171 E.01914
G1 X22.192 Y130.579 E.01936
G1 X21.958 Y129.999 E.01963
G1 X21.663 Y129.435 E.01995
G1 X21.314 Y128.902 E.01995
G1 X20.923 Y128.415 E.01961
G1 X20.492 Y127.973 E.01934
G1 X20.027 Y127.579 E.01912
G1 X19.531 Y127.233 E.01896
G1 X18.995 Y126.931 E.0193
G1 X18.384 Y126.663 E.02091
G1 X17.9 Y126.496 E.01606
G1 X17.321 Y126.354 E.01869
G1 X16.731 Y126.264 E.0187
G1 X16.134 Y126.229 E.01875
G1 X15.534 Y126.249 E.01883
G1 X14.934 Y126.326 E.01895
G1 X13.945 Y126.588 E.03209
G1 X13.391 Y125.428 E.04028
G1 X12.563 Y123.584 E.06338
G1 X11.779 Y121.717 E.06351
G1 X11.038 Y119.827 E.06365
G1 X10.342 Y117.915 E.0638
G1 X9.69 Y115.981 E.06396
G1 X9.085 Y114.028 E.06413
G1 X8.526 Y112.054 E.06432
G1 X8.014 Y110.061 E.06451
G1 X7.55 Y108.05 E.06473
G1 X7.134 Y106.02 E.06495
G1 X6.767 Y103.973 E.06519
G1 X6.451 Y101.91 E.06545
G1 X6.184 Y99.831 E.06573
G1 X5.969 Y97.736 E.06602
G1 X5.86 Y96.34 E.04393
G1 X6.327 Y96.251 E.01489
G1 X6.994 Y96.028 E.02205
G1 X7.464 Y95.827 E.01605
G1 X7.993 Y95.541 E.01884
G1 X8.49 Y95.209 E.01875
G1 X8.955 Y94.835 E.0187
G1 X9.382 Y94.42 E.01868
G1 X9.77 Y93.967 E.0187
G1 X10.116 Y93.479 E.01875
G1 X10.416 Y92.959 E.01884
G1 X10.668 Y92.409 E.01897
G1 X10.869 Y91.832 E.01915
G1 X11.022 Y91.184 E.02086
G1 X11.105 Y90.588 E.01888
G1 X11.132 Y89.972 E.01932
G1 X11.098 Y89.34 E.01985
G1 X11.004 Y88.724 E.01953
G1 X10.853 Y88.128 E.01927
G1 X10.648 Y87.556 E.01907
G1 X10.392 Y87.01 E.01891
G1 X10.06 Y86.454 E.02031
G1 X9.739 Y86.008 E.01723
G1 X9.348 Y85.557 E.0187
G1 X8.918 Y85.144 E.0187
G1 X8.451 Y84.771 E.01873
G1 X7.951 Y84.441 E.01879
G1 X7.42 Y84.157 E.01889
G1 X6.861 Y83.921 E.01902
G1 X5.861 Y83.646 E.0325
G1 X5.969 Y82.264 E.04348
G1 X6.184 Y80.169 E.06602
G1 X6.451 Y78.09 E.06573
G1 X6.767 Y76.027 E.06545
G1 X7.134 Y73.98 E.06519
G1 X7.55 Y71.95 E.06495
G1 X8.014 Y69.939 E.06472
G1 X8.526 Y67.946 E.06451
G1 X9.085 Y65.972 E.06432
G1 X9.69 Y64.019 E.06413
G1 X10.342 Y62.085 E.06396
G1 X11.038 Y60.173 E.0638
G1 X11.779 Y58.283 E.06365
G1 X12.563 Y56.416 E.06351
G1 X13.391 Y54.571 E.06338
G1 X13.949 Y53.402 E.04062
G1 X14.398 Y53.564 E.01496
G1 X14.998 Y53.696 E.01924
G1 X15.6 Y53.769 E.01903
G1 X16.202 Y53.785 E.01888
G1 X16.799 Y53.745 E.01877
G1 X17.388 Y53.65 E.01871
G1 X17.965 Y53.501 E.01868
G1 X18.526 Y53.3 E.01869
G1 X19.068 Y53.047 E.01874
G1 X19.586 Y52.743 E.01882
G1 X20.077 Y52.391 E.01895
G1 X20.537 Y51.991 E.01911
G1 X20.962 Y51.544 E.01933
G1 X21.347 Y51.053 E.01959
G1 X21.69 Y50.517 E.01993
G1 X21.98 Y49.951 E.01995
G1 X22.21 Y49.369 E.01962
G1 X22.38 Y48.776 E.01934
G1 X22.491 Y48.176 E.01912
G1 X22.544 Y47.574 E.01896
G1 X22.54 Y46.973 E.01884
G1 X22.482 Y46.378 E.01876
G1 X22.369 Y45.792 E.01872
G1 X22.203 Y45.218 E.01871
G1 X21.985 Y44.662 E.01874
G1 X21.716 Y44.126 E.01879
G1 X21.398 Y43.615 E.01889
G1 X21.03 Y43.132 E.01902
G1 X20.303 Y42.398 E.0324
G1 X21.059 Y41.301 E.0418
G1 X22.272 Y39.63 E.06473
G1 X23.524 Y37.991 E.06465
G1 X24.813 Y36.385 E.06459
G1 X26.14 Y34.811 E.06454
G1 X27.504 Y33.271 E.0645
G1 X28.904 Y31.766 E.06446
G1 X30.339 Y30.295 E.06444
G1 X31.809 Y28.86 E.06442
G1 X33.314 Y27.461 E.0644
G1 X34.852 Y26.1 E.06441
G1 X36.422 Y24.776 E.06441
G1 X38.025 Y23.49 E.06443
G1 X39.659 Y22.243 E.06445
G1 X41.324 Y21.036 E.06449
G1 X42.428 Y20.276 E.04202
G1 X42.737 Y20.636 E.01487
G1 X43.215 Y21.065 E.02014
G1 X43.676 Y21.41 E.01804
G1 X44.189 Y21.724 E.01888
G1 X44.727 Y21.988 E.01879
G1 X45.285 Y22.202 E.01873
G1 X45.86 Y22.363 E.01871
G1 X46.447 Y22.471 E.01873
G1 X47.043 Y22.525 E.01877
G1 X47.644 Y22.524 E.01885
G1 X48.247 Y22.465 E.01898
G1 X48.846 Y22.349 E.01914
G1 X49.514 Y22.144 E.02191
G1 X50.019 Y21.94 E.01707
G1 X50.583 Y21.645 E.01995
G1 X51.115 Y21.297 E.01995
G1 X51.603 Y20.905 E.01961
G1 X52.045 Y20.475 E.01934
G1 X52.439 Y20.009 E.01912
G1 X52.785 Y19.513 E.01896
G1 X53.081 Y18.991 E.01883
G1 X53.342 Y18.403 E.02018
G1 X53.521 Y17.882 E.01727
G1 X53.664 Y17.303 E.01869
G1 X53.753 Y16.714 E.0187
G1 X53.788 Y16.117 E.01875
G1 X53.768 Y15.516 E.01883
G1 X53.692 Y14.917 E.01895
G1 X53.43 Y13.927 E.03209
G1 X54.589 Y13.373 E.04028
G1 X56.434 Y12.545 E.06338
G1 X58.301 Y11.761 E.06351
G1 X60.191 Y11.02 E.06365
G1 X62.103 Y10.324 E.0638
G1 X64.036 Y9.673 E.06396
G1 X65.99 Y9.067 E.06413
G1 X67.964 Y8.508 E.06432
G1 X69.957 Y7.996 E.06451
G1 X71.968 Y7.532 E.06472
G1 X73.998 Y7.116 E.06495
G1 X76.044 Y6.75 E.06519
G1 X78.107 Y6.433 E.06545
G1 X80.187 Y6.166 E.06573
G1 X82.281 Y5.951 E.06601
G1 X83.678 Y5.843 E.04393
G1 X83.766 Y6.309 E.01489
G1 X83.989 Y6.976 E.02205
G1 X84.191 Y7.447 E.01605
G1 X84.477 Y7.975 E.01884
G1 X84.809 Y8.473 E.01875
G1 X85.183 Y8.937 E.0187
G1 X85.598 Y9.364 E.01868
G1 X86.051 Y9.753 E.0187
G1 X86.539 Y10.098 E.01875
G1 X87.059 Y10.399 E.01884
G1 X87.609 Y10.651 E.01897
G1 X88.186 Y10.851 E.01915
G1 X88.786 Y10.997 E.01938
G1 X89.407 Y11.086 E.01967
G1 X90.045 Y11.114 E.02002
G1 X90.708 Y11.076 E.02079
G1 X91.341 Y10.975 E.02012
G1 X91.889 Y10.835 E.01773
G1 X92.462 Y10.63 E.01907
G1 X93.008 Y10.374 E.01891
G1 X93.525 Y10.07 E.0188
G1 X94.01 Y9.721 E.01874
G1 X94.46 Y9.33 E.0187
G1 X94.873 Y8.9 E.0187
G1 X95.246 Y8.433 E.01873
G1 X95.577 Y7.933 E.01879
G1 X95.861 Y7.402 E.01889
G1 X96.097 Y6.843 E.01902
G1 X96.372 Y5.844 E.0325
G1 X97.754 Y5.951 E.04348
G1 X99.849 Y6.166 E.06601
G1 X101.928 Y6.433 E.06573
G1 X103.991 Y6.75 E.06545
G1 X106.038 Y7.116 E.06519
G1 X108.067 Y7.532 E.06495
G1 X110.079 Y7.996 E.06472
G1 X112.072 Y8.508 E.06452
G1 X114.045 Y9.067 E.06432
G1 X115.999 Y9.673 E.06413
G1 X117.932 Y10.324 E.06396
G1 X119.844 Y11.02 E.0638
G1 X121.734 Y11.761 E.06365
G1 X123.602 Y12.545 E.06351
G1 X125.446 Y13.373 E.06338
G1 X126.615 Y13.932 E.04063
G1 X126.454 Y14.381 E.01496
G1 X126.322 Y14.98 E.01924
G1 X126.248 Y15.582 E.01903
G1 X126.232 Y16.184 E.01888
G1 X126.272 Y16.782 E.01877
G1 X126.367 Y17.371 E.01871
G1 X126.516 Y17.948 E.01868
G1 X126.718 Y18.509 E.01869
G1 X126.971 Y19.05 E.01874
G1 X127.274 Y19.568 E.01883
G1 X127.627 Y20.059 E.01895
G1 X128.027 Y20.519 E.01911
G1 X128.586 Y21.033 E.0238
G1 X129.03 Y21.372 E.0175
G1 X129.5 Y21.673 E.01752
G1 X130.067 Y21.963 E.01995
G1 X130.649 Y22.192 E.01962
G1 X131.242 Y22.362 E.01934
G1 X131.841 Y22.473 E.01912
G1 X132.444 Y22.526 E.01896
G1 X133.086 Y22.519 E.02014
G1 X133.64 Y22.464 E.01745
G1 X134.226 Y22.351 E.01872
G1 X134.799 Y22.185 E.01871
G1 X135.356 Y21.967 E.01874
G1 X135.892 Y21.699 E.0188
G1 X136.403 Y21.38 E.01889
G1 X136.886 Y21.013 E.01903
G1 X137.619 Y20.285 E.0324
G1 X138.717 Y21.042 E.0418
G1 X140.387 Y22.254 E.06473
G1 X142.026 Y23.506 E.06465
G1 X143.633 Y24.795 E.06459
G1 X145.206 Y26.122 E.06454
G1 X146.746 Y27.486 E.0645
G1 X148.252 Y28.886 E.06446
G1 X149.722 Y30.322 E.06443
G1 X151.157 Y31.792 E.06442
