; generated by PrusaSlicer 2.5.2+win64 on 2023-04-13 at 08:08:53 UTC


;
;

;
;
; 

; external perimeters extrusion width = 0.45mm
; perimeters extrusion width = 0.45mm
; infill extrusion width = 0.45mm
; solid infill extrusion width = 0.45mm
; top infill extrusion width = 0.40mm
; first layer extrusion width = 0.42mm

M73 P0 R4
M201 X2500 Y2500 Z400 E5000 ; sets maximum accelerations, mm/sec^2
M203 X180 Y180 Z12 E80 ; sets maximum feedrates, mm / sec
M204 P2000 R1250 T2500 ; sets acceleration (P, T) and retract acceleration (R), mm/sec^2
M205 X8.00 Y8.00 Z2.00 E10.00 ; sets the jerk limits, mm/sec
M205 S0 T0 ; sets the minimum extruding and travel feed rate, mm/sec
M107
;TYPE:Custom
M862.3 P "MINI" ; printer model check
G90 ; use absolute coordinates
M83 ; extruder relative mode
M104 S170 ; set extruder temp for bed leveling
M140 S60 ; set bed temp
M109 R170 ; wait for bed leveling temp
M190 S60 ; wait for bed temp
M204 T1250 ; set travel acceleration
G28 ; home all without mesh bed level
G29 ; mesh bed leveling 
M204 T2500 ; restore travel acceleration
M104 S215 ; set extruder temp
G92 E0
G1 Y-2 X179 F2400
G1 Z3 F720
M109 S215 ; wait for extruder temp

; intro line
M73 P1 R4
G1 X170 F1000
G1 Z0.2 F720
M73 P2 R4
G1 X110 E8 F900
G1 X40 E10 F700
G92 E0

M221 S95 ; set flow
G21 ; set units to millimeters
G90 ; use absolute coordinates
M83 ; use relative distances for extrusion
M900 K0.2 ; Filament gcode LA 1.5
; ; Filament gcode LA 1.0
M107
;LAYER_CHANGE
;Z:0.2
;HEIGHT:0.2
;BEFORE_LAYER_CHANGE
G92 E0.0
;0.2


M73 P3 R3
G1 E-3.2 F4200
M73 P6 R3
G1 Z.2 F720
;AFTER_LAYER_CHANGE
;0.2
G1 Z.4
G1 X83.852 Y83.66 F9000
G1 Z.2 F720
G1 E3.2 F2400
M204 P600
;TYPE:Skirt/Brim
;WIDTH:0.42
G1 F1200
G1 X85.114 Y82.643 E.05083
G1 X86.723 Y81.8 E.05694
G1 X88.364 Y81.322 E.05359
G1 X90.003 Y81.169 E.05162
G1 X91.784 Y81.351 E.05615
G1 X93.417 Y81.857 E.05359
G1 X95.01 Y82.728 E.05694
G1 X96.255 Y83.767 E.05083
G1 X97.398 Y85.178 E.05694
G1 X98.188 Y86.694 E.05359
G1 X98.691 Y88.438 E.05694
M73 P7 R3
G1 X98.83 Y90.054 E.05083
G1 X98.633 Y91.859 E.05694
G1 X98.113 Y93.487 E.05359
G1 X97.339 Y94.912 E.05083
G1 X96.179 Y96.309 E.05694
G1 X94.848 Y97.381 E.05359
G1 X93.417 Y98.143 E.05083
G1 X91.784 Y98.649 E.05359
G1 X89.978 Y98.831 E.05694
G1 X88.363 Y98.678 E.05083
G1 X86.623 Y98.16 E.05694
G1 X85.114 Y97.357 E.05359
G1 X83.713 Y96.202 E.05694
G1 X82.685 Y94.948 E.05083
G1 X81.828 Y93.347 E.05694
G1 X81.316 Y91.605 E.05694
G1 X81.169 Y89.902 E.05359
G1 X81.341 Y88.265 E.05163
G1 X81.869 Y86.553 E.05615
G1 X82.685 Y85.052 E.05359
G1 X83.813 Y83.706 E.05506
M204 P1000
G1 X84.101 Y83.948 F9000
M204 P600
G1 F1200
G1 X85.32 Y82.96 E.04919
G1 X86.859 Y82.151 E.05451
G1 X88.437 Y81.692 E.05156
G1 X90 Y81.546 E.04919
G1 X91.704 Y81.72 E.05372
G1 X93.275 Y82.206 E.05156
G1 X94.8 Y83.041 E.05451
G1 X95.985 Y84.03 E.0484
M73 P8 R3
G1 X97.08 Y85.381 E.05451
G1 X97.84 Y86.839 E.05156
G1 X98.284 Y88.317 E.0484
G1 X98.453 Y90.047 E.05451
G1 X98.265 Y91.775 E.05451
G1 X97.765 Y93.342 E.05156
G1 X97.028 Y94.698 E.0484
G1 X95.918 Y96.037 E.05451
G1 X94.637 Y97.068 E.05156
G1 X93.275 Y97.794 E.0484
G1 X91.704 Y98.28 E.05156
G1 X89.974 Y98.454 E.05451
G1 X88.437 Y98.308 E.0484
G1 X86.771 Y97.813 E.05451
G1 X85.32 Y97.04 E.05156
G1 X83.978 Y95.934 E.05451
G1 X83 Y94.74 E.0484
G1 X82.178 Y93.208 E.05451
G1 X81.687 Y91.541 E.05451
G1 X81.546 Y89.902 E.05156
G1 X81.71 Y88.342 E.04919
G1 X82.214 Y86.704 E.05372
G1 X83 Y85.26 E.05156
G1 X84.062 Y83.994 E.05183
M204 P1000
G1 X84.348 Y84.236 F9000
M204 P600
G1 F1200
G1 X85.525 Y83.276 E.04761
G1 X86.995 Y82.503 E.05208
G1 X88.511 Y82.061 E.04953
G1 X89.996 Y81.923 E.04676
G1 X91.624 Y82.088 E.05128
M73 P9 R3
G1 X93.133 Y82.556 E.04953
G1 X94.589 Y83.354 E.05208
G1 X95.715 Y84.293 E.04597
G1 X96.762 Y85.583 E.05208
G1 X97.492 Y86.984 E.04953
G1 X97.914 Y88.388 E.04597
G1 X98.076 Y90.041 E.05208
G1 X97.897 Y91.692 E.05208
G1 X97.417 Y93.197 E.04953
G1 X96.717 Y94.485 E.04597
G1 X95.715 Y95.707 E.04953
G1 X94.427 Y96.755 E.05208
G1 X93.133 Y97.444 E.04597
G1 X91.624 Y97.912 E.04953
G1 X89.971 Y98.077 E.05208
G1 X88.511 Y97.939 E.04597
G1 X86.919 Y97.466 E.05208
G1 X85.457 Y96.678 E.05208
G1 X84.244 Y95.666 E.04953
G1 X83.314 Y94.532 E.04597
G1 X82.529 Y93.069 E.05208
G1 X82.059 Y91.476 E.05208
G1 X81.923 Y89.902 E.04953
G1 X82.079 Y88.419 E.04676
G1 X82.56 Y86.855 E.05129
G1 X83.361 Y85.4 E.05208
G1 X84.31 Y84.282 E.04598
M204 P1000
; printing object Geared DC motor axyl connector testv1.stl id:0 copy 0
G1 E-2.24 F4200
;WIPE_START
G1 F7200
G1 X85.525 Y83.276 E-.87422
G1 X85.585 Y83.244 E-.03778
;WIPE_END
G1 E-.048 F4200
G1 Z.4 F720
G1 X93.774 Y86.859 F9000
G1 Z.2 F720
M73 P10 R3
G1 E3.2 F2400
M204 P600
;TYPE:Perimeter
;WIDTH:0.419999
G1 F1200
G1 X94.093 Y87.285 E.01671
G1 X94.504 Y88.042 E.02701
G1 X94.688 Y88.542 E.0167
G1 X94.814 Y89.032 E.01585
G1 X94.888 Y89.532 E.01585
G1 X94.91 Y89.963 E.01354
G1 X94.888 Y90.468 E.01585
G1 X94.814 Y90.968 E.01586
G1 X94.688 Y91.458 E.01585
G1 X94.514 Y91.933 E.01585
G1 X94.279 Y92.411 E.01671
G1 X93.82 Y93.081 E.02547
G1 X93.483 Y93.461 E.01592
G1 X93.11 Y93.799 E.01577
G1 X92.679 Y94.116 E.01679
G1 X91.982 Y94.488 E.02477
G1 X91.507 Y94.673 E.01599
G1 X91.021 Y94.802 E.01577
G1 X90.523 Y94.881 E.0158
G1 X90.019 Y94.909 E.01583
G1 X89.513 Y94.885 E.01587
G1 X89.012 Y94.809 E.0159
G1 X88.52 Y94.681 E.01593
G1 X88.043 Y94.503 E.01597
G1 X87.586 Y94.276 E.01601
G1 X87.127 Y93.984 E.01703
G1 X86.512 Y93.453 E.02548
G1 X86.154 Y93.056 E.01677
G1 X85.707 Y92.378 E.02547
G1 X85.481 Y91.923 E.01592
G1 X85.308 Y91.448 E.01586
G1 X85.184 Y90.958 E.01584
G1 X85.111 Y90.458 E.01586
G1 X85.089 Y89.953 E.01584
G1 X85.122 Y89.421 E.01671
G1 X85.288 Y88.626 E.02546
G1 X85.453 Y88.145 E.01593
G1 X85.668 Y87.688 E.01585
G1 X85.929 Y87.254 E.01586
G1 X86.233 Y86.85 E.01586
G1 X86.576 Y86.48 E.01584
G1 X86.977 Y86.129 E.01671
G1 X87.644 Y85.696 E.02494
G1 X88.1 Y85.473 E.01592
G1 X88.573 Y85.302 E.01574
G1 X89.061 Y85.181 E.01578
G1 X89.611 Y85.104 E.01742
G1 X90.391 Y85.11 E.02447
G1 X90.904 Y85.175 E.01621
G1 X91.398 Y85.294 E.01593
G1 X91.878 Y85.464 E.01596
G1 X92.374 Y85.7 E.01721
G1 X93.045 Y86.152 E.02537
G1 X93.431 Y86.487 E.01602
G1 X93.733 Y86.814 E.01397
M204 P1000
G1 X94.066 Y86.623 F9000
M204 P600
;TYPE:External perimeter
G1 F1200
G1 X94.367 Y87.021 E.01566
G1 X94.621 Y87.467 E.01608
G1 X94.874 Y87.955 E.01725
G1 X95.053 Y88.446 E.01638
G1 X95.186 Y88.974 E.01707
G1 X95.264 Y89.512 E.01706
G1 X95.289 Y90 E.01531
G1 X95.261 Y90.544 E.01708
G1 X95.177 Y91.082 E.01707
G1 X95.039 Y91.609 E.01708
G1 X94.847 Y92.118 E.01708
G1 X94.604 Y92.603 E.01698
G1 X94.088 Y93.356 E.02863
G1 X93.724 Y93.756 E.01697
G1 X93.318 Y94.119 E.01708
G1 X92.879 Y94.437 E.01698
G1 X92.073 Y94.866 E.02863
G1 X91.565 Y95.053 E.01697
G1 X91.037 Y95.187 E.01708
G1 X90.498 Y95.266 E.01708
G1 X89.954 Y95.289 E.01708
G1 X89.411 Y95.257 E.01708
G1 X88.873 Y95.168 E.01708
G1 X88.348 Y95.025 E.01708
G1 X87.84 Y94.829 E.01707
G1 X87.355 Y94.581 E.01708
G1 X86.9 Y94.286 E.01698
M73 P11 R3
G1 X86.209 Y93.689 E.02864
G1 X85.854 Y93.285 E.01688
G1 X85.351 Y92.523 E.02863
G1 X85.117 Y92.035 E.01697
G1 X84.934 Y91.522 E.01708
G1 X84.804 Y90.993 E.01708
G1 X84.729 Y90.453 E.01708
G1 X84.711 Y89.909 E.01708
G1 X84.748 Y89.369 E.01698
G1 X84.935 Y88.475 E.02863
G1 X85.117 Y87.965 E.01697
G1 X85.352 Y87.474 E.01708
G1 X85.636 Y87.01 E.01708
G1 X85.967 Y86.577 E.01708
G1 X86.34 Y86.18 E.01708
G1 X86.75 Y85.826 E.01698
G1 X87.516 Y85.33 E.02863
G1 X88.007 Y85.1 E.01697
G1 X88.521 Y84.921 E.01708
G1 X89.051 Y84.796 E.01708
G1 X89.588 Y84.726 E.01698
G1 X90.502 Y84.734 E.02863
G1 X91.037 Y84.813 E.01697
G1 X91.565 Y84.947 E.01708
G1 X92.076 Y85.135 E.01708
G1 X92.563 Y85.373 E.01698
G1 X93.255 Y85.839 E.02618
G1 X93.682 Y86.206 E.01764
G1 X94.027 Y86.577 E.01589
M204 P1000
G1 X93.929 Y86.998 F9000
G1 E-2.24 F4200
;WIPE_START
G1 F7200
G1 X94.367 Y87.021 E-.31
G1 X94.621 Y87.467 E-.28422
G1 X94.874 Y87.955 E-.30482
G1 X94.882 Y87.977 E-.01297
;WIPE_END
G1 E-.048 F4200
G1 Z.4 F720
G1 X87.452 Y92.367 F9000
G1 Z.2 F720
G1 E3.2 F2400
M204 P600
;TYPE:Perimeter
G1 F1200
G1 X87.369 Y92.289 E.00358
G1 X86.916 Y91.619 E.02534
G1 X86.654 Y90.974 E.02185
G1 X86.528 Y90.309 E.02122
G1 X86.534 Y89.632 E.02122
G1 X86.69 Y88.946 E.02205
G1 X86.765 Y88.704 E.00795
G1 X87.017 Y88.198 E.01774
G1 X87.37 Y87.709 E.0189
G1 X87.513 Y87.565 E.00637
G1 X87.671 Y87.488 E.00548
G1 X88.543 Y87.463 E.02737
G1 X92.162 Y87.463 E.11346
G1 X92.357 Y87.498 E.00622
G1 X92.58 Y87.648 E.00843
G1 X93.143 Y88.496 E.03192
G1 X93.346 Y89.026 E.01779
G1 X93.47 Y89.689 E.02116
G1 X93.45 Y90.396 E.02216
G1 X93.418 Y90.669 E.00863
G1 X93.274 Y91.192 E.01698
G1 X93.019 Y91.728 E.01861
G1 X92.659 Y92.251 E.01993
G1 X92.46 Y92.452 E.00886
G1 X92.162 Y92.537 E.00973
G1 X87.837 Y92.537 E.13559
G1 X87.547 Y92.457 E.00944
G1 X87.496 Y92.408 E.00222
M204 P1000
G1 X87.695 Y92.095 F9000
M204 P600
;TYPE:External perimeter
G1 F1200
G1 X87.228 Y91.408 E.02606
G1 X87.006 Y90.839 E.01914
M73 P12 R3
G1 X86.9 Y90.245 E.01893
G1 X86.911 Y89.641 E.01893
G1 X87.056 Y89.037 E.01948
G1 X87.295 Y88.485 E.01884
G1 X87.672 Y87.934 E.02094
G1 X87.782 Y87.848 E.00436
G1 X88.543 Y87.84 E.02387
G1 X92.162 Y87.84 E.11346
G1 X92.301 Y87.902 E.00478
G1 X92.771 Y88.592 E.02618
G1 X92.976 Y89.114 E.01757
G1 X93.099 Y89.753 E.02042
G1 X93.073 Y90.378 E.01959
G1 X92.94 Y90.986 E.01954
G1 X92.682 Y91.559 E.01971
G1 X92.357 Y92.025 E.01782
G1 X92.224 Y92.149 E.0057
G1 X87.837 Y92.16 E.13754
G1 X87.75 Y92.12 E.00302
M204 P1000
G1 X87.326 Y92.249 F9000
G1 E-2.24 F4200
;WIPE_START
G1 F7200
G1 X87.228 Y91.408 E-.48927
G1 X87.006 Y90.839 E-.33832
G1 X86.979 Y90.689 E-.08441
;WIPE_END
G1 E-.048 F4200
G1 Z.4 F720
G1 X92.357 Y85.893 F9000
G1 Z.2 F720
G1 E3.2 F2400
M204 P600
;TYPE:Solid infill
;WIDTH:0.423757
G1 F1200
G1 X93.243 Y86.779 E.03968
G1 X93.536 Y87.101 E.01378
G1 X93.806 Y87.468 E.01442
G1 X94.195 Y88.184 E.0258
G1 X94.247 Y88.322 E.00469
G1 X91.676 Y85.751 E.11514
G1 X91.353 Y85.632 E.01091
G1 X90.905 Y85.519 E.01463
G1 X94.48 Y89.093 E.16009
G1 X94.548 Y89.53 E.01398
G1 X94.557 Y89.709 E.00569
G1 X93.602 Y88.755 E.04274
G1 X93.693 Y88.996 E.00815
G1 X93.776 Y89.467 E.01514
G1 X94.559 Y90.25 E.03508
G1 X94.506 Y90.736 E.01548
G1 X93.806 Y90.036 E.03135
G1 X93.779 Y90.547 E.01621
G1 X94.411 Y91.179 E.02832
G1 X94.281 Y91.588 E.01358
G1 X93.679 Y90.985 E.02698
G1 X93.556 Y91.402 E.01374
G1 X94.121 Y91.967 E.0253
M73 P13 R3
G1 X93.986 Y92.238 E.00961
G1 X93.932 Y92.316 E.00299
G1 X93.376 Y91.76 E.02491
G1 X93.187 Y92.109 E.01258
G1 X93.713 Y92.636 E.02357
G1 X93.489 Y92.95 E.01223
G1 X92.955 Y92.417 E.02389
G1 X92.83 Y92.584 E.00663
G1 X92.696 Y92.695 E.00552
G1 X93.232 Y93.232 E.02404
G1 X92.949 Y93.488 E.01208
G1 X92.317 Y92.855 E.02833
G1 X92.21 Y92.876 E.00344
G1 X91.799 Y92.876 E.01302
G1 X92.645 Y93.722 E.0379
G1 X92.499 Y93.828 E.00571
G1 X92.312 Y93.927 E.00671
G1 X91.26 Y92.876 E.04709
G1 X90.722 Y92.876 E.01705
G1 X91.96 Y94.114 E.05547
G1 X91.78 Y94.211 E.00648
G1 X91.588 Y94.281 E.00646
G1 X90.183 Y92.876 E.06292
G1 X89.645 Y92.876 E.01705
G1 X91.18 Y94.411 E.06875
G1 X90.737 Y94.507 E.01435
G1 X89.106 Y92.876 E.07303
G1 X88.568 Y92.876 E.01705
G1 X90.251 Y94.56 E.07539
G1 X89.96 Y94.572 E.00922
G1 X89.71 Y94.557 E.00794
G1 X87.86 Y92.707 E.08286
M204 P1000
G1 E-2.24 F4200
;WIPE_START
G1 F7200
G1 X89.024 Y93.87 E-.912
;WIPE_END
G1 E-.048 F4200
G1 Z.4 F720
G1 X92.141 Y87.293 F9000
G1 Z.2 F720
G1 E3.2 F2400
M204 P600
G1 F1200
G1 X90.297 Y85.449 E.08259
G1 X89.753 Y85.444 E.0172
G1 X91.433 Y87.124 E.0752
G1 X90.894 Y87.124 E.01706
G1 X89.263 Y85.493 E.07304
G1 X88.819 Y85.587 E.01438
G1 X90.355 Y87.124 E.06881
G1 X89.817 Y87.124 E.01706
M73 P14 R3
G1 X88.411 Y85.718 E.06295
G1 X88.033 Y85.879 E.013
G1 X89.278 Y87.124 E.05575
G1 X88.74 Y87.124 E.01706
G1 X87.688 Y86.072 E.04709
G1 X87.361 Y86.284 E.01233
G1 X88.201 Y87.124 E.03761
G1 X87.826 Y87.124 E.01188
G1 X87.684 Y87.145 E.00455
G1 X87.052 Y86.513 E.02832
G1 X86.77 Y86.769 E.01207
G1 X87.301 Y87.301 E.02381
G1 X87.119 Y87.478 E.00805
G1 X87.043 Y87.581 E.00405
G1 X86.509 Y87.047 E.02391
G1 X86.276 Y87.353 E.01217
G1 X86.814 Y87.891 E.02411
G1 X86.751 Y87.977 E.00339
G1 X86.622 Y88.238 E.0092
G1 X86.065 Y87.681 E.02493
G1 X85.879 Y88.033 E.01262
G1 X86.444 Y88.598 E.02532
G1 X86.329 Y89.022 E.0139
G1 X85.718 Y88.411 E.02735
G1 X85.626 Y88.67 E.0087
G1 X85.593 Y88.825 E.00501
G1 X86.225 Y89.456 E.02828
G1 X86.197 Y89.574 E.00385
G1 X86.188 Y89.958 E.01214
G1 X85.5 Y89.27 E.03079
G1 X85.459 Y89.467 E.00638
G1 X85.44 Y89.748 E.00892
G1 X86.227 Y90.535 E.03526
G1 X86.292 Y90.938 E.01291
G1 X86.407 Y91.254 E.01066
G1 X85.441 Y90.287 E.0433
G1 X85.52 Y90.906 E.01974
G1 X89.092 Y94.478 E.15996
G1 X88.572 Y94.344 E.01701
G1 X88.324 Y94.248 E.00843
G1 X85.748 Y91.672 E.11534
G1 X85.976 Y92.169 E.01731
G1 X86.425 Y92.849 E.0258
G1 X86.7 Y93.163 E.01323
G1 X87.661 Y94.123 E.043
M204 P1000
; stop printing object Geared DC motor axyl connector testv1.stl id:0 copy 0
M106 S84.15
;LAYER_CHANGE
;Z:0.45
;HEIGHT:0.25
;BEFORE_LAYER_CHANGE
G92 E0.0
;0.45


G1 E-2.24 F4200
;WIPE_START
G1 F7200
G1 X86.7 Y93.163 E-.75257
G1 X86.51 Y92.947 E-.15943
;WIPE_END
G1 E-.048 F4200
G1 Z.4 F720
G1 Z.45
;AFTER_LAYER_CHANGE
;0.45
G1 Z.65
G1 X83.241 Y95.627 F9000
G1 Z.45 F720
M73 P15 R3
G1 E3.2 F2400
;TYPE:Skirt/Brim
;WIDTH:0.42
G1 X82.685 Y94.948 E.03342
G1 X81.828 Y93.347 E.06915
G1 X81.316 Y91.605 E.06915
G1 X81.169 Y89.902 E.06508
G1 X81.341 Y88.265 E.0627
G1 X81.869 Y86.553 E.06818
G1 X82.685 Y85.052 E.06508
G1 X83.852 Y83.66 E.06915
G1 X85.114 Y82.643 E.06173
G1 X86.723 Y81.8 E.06915
G1 X88.364 Y81.322 E.06508
G1 X90.003 Y81.169 E.06269
G1 X91.784 Y81.351 E.06819
G1 X93.417 Y81.857 E.06508
G1 X95.01 Y82.728 E.06915
G1 X96.255 Y83.767 E.06173
G1 X97.398 Y85.178 E.06915
G1 X98.188 Y86.694 E.06508
G1 X98.691 Y88.438 E.06915
G1 X98.83 Y90.054 E.06173
G1 X98.633 Y91.859 E.06915
G1 X98.113 Y93.487 E.06508
G1 X97.339 Y94.912 E.06173
G1 X96.179 Y96.309 E.06915
G1 X94.848 Y97.381 E.06508
G1 X93.417 Y98.143 E.06173
G1 X91.784 Y98.649 E.06508
G1 X89.978 Y98.831 E.06915
G1 X88.363 Y98.678 E.06173
G1 X86.623 Y98.16 E.06915
G1 X85.114 Y97.357 E.06508
G1 X83.713 Y96.202 E.06915
G1 X83.279 Y95.673 E.02603
G1 X83.57 Y95.435 F9000
G1 F2400
G1 X83 Y94.74 E.03422
G1 X82.178 Y93.208 E.06619
G1 X81.687 Y91.541 E.0662
G1 X81.546 Y89.902 E.06262
G1 X81.71 Y88.342 E.05974
G1 X82.214 Y86.704 E.06524
G1 X83 Y85.26 E.06261
G1 X84.117 Y83.928 E.0662
G1 X85.32 Y82.96 E.05878
G1 X86.859 Y82.151 E.0662
G1 X88.437 Y81.692 E.06262
G1 X90 Y81.546 E.05974
G1 X91.704 Y81.72 E.06523
G1 X93.275 Y82.206 E.06261
G1 X94.8 Y83.041 E.0662
G1 X95.985 Y84.03 E.05878
G1 X97.08 Y85.381 E.0662
G1 X97.84 Y86.839 E.06262
G1 X98.284 Y88.317 E.05878
G1 X98.453 Y90.047 E.0662
G1 X98.265 Y91.775 E.0662
G1 X97.765 Y93.342 E.06262
G1 X97.028 Y94.698 E.05878
M73 P16 R3
G1 X95.918 Y96.037 E.0662
G1 X94.637 Y97.068 E.06261
G1 X93.275 Y97.794 E.05878
G1 X91.704 Y98.28 E.06262
G1 X89.974 Y98.454 E.0662
G1 X88.437 Y98.308 E.05878
G1 X86.771 Y97.813 E.0662
G1 X85.32 Y97.04 E.06262
G1 X83.978 Y95.934 E.0662
G1 X83.608 Y95.482 E.02227
G1 X83.898 Y95.244 F9000
G1 F2400
G1 X83.314 Y94.532 E.03503
G1 X82.529 Y93.069 E.06324
G1 X82.059 Y91.476 E.06324
G1 X81.923 Y89.902 E.06016
G1 X82.079 Y88.419 E.05679
G1 X82.56 Y86.855 E.06228
G1 X83.361 Y85.4 E.06324
G1 X84.383 Y84.196 E.06015
G1 X85.525 Y83.276 E.05583
G1 X86.995 Y82.503 E.06324
G1 X88.511 Y82.061 E.06015
G1 X89.996 Y81.923 E.05679
G1 X91.624 Y82.088 E.06228
G1 X93.133 Y82.556 E.06015
G1 X94.589 Y83.354 E.06324
G1 X95.715 Y84.293 E.05583
G1 X96.762 Y85.583 E.06325
G1 X97.492 Y86.984 E.06015
G1 X97.914 Y88.388 E.05583
G1 X98.076 Y90.041 E.06324
G1 X97.897 Y91.692 E.06324
G1 X97.417 Y93.197 E.06015
G1 X96.717 Y94.485 E.05583
G1 X95.715 Y95.707 E.06015
G1 X94.427 Y96.755 E.06324
G1 X93.133 Y97.444 E.05583
G1 X91.624 Y97.912 E.06015
G1 X89.971 Y98.077 E.06324
G1 X88.511 Y97.939 E.05583
G1 X86.919 Y97.466 E.06324
G1 X85.457 Y96.678 E.06324
G1 X84.244 Y95.666 E.06015
