; generated by PrusaSlicer 2.5.2+win64 on 2023-05-09 at 07:02:50 UTC


;
;

;
;
; 

; external perimeters extrusion width = 0.45mm
; perimeters extrusion width = 0.45mm
; infill extrusion width = 0.45mm
; solid infill extrusion width = 0.45mm
; top infill extrusion width = 0.40mm
; first layer extrusion width = 0.42mm

M73 P0 R65
M201 X2500 Y2500 Z400 E5000 ; sets maximum accelerations, mm/sec^2
M203 X180 Y180 Z12 E80 ; sets maximum feedrates, mm / sec
M204 P2000 R1250 T2500 ; sets acceleration (P, T) and retract acceleration (R), mm/sec^2
M205 X8.00 Y8.00 Z2.00 E10.00 ; sets the jerk limits, mm/sec
M205 S0 T0 ; sets the minimum extruding and travel feed rate, mm/sec
M107
;TYPE:Custom
M862.3 P "MINI" ; printer model check
G90 ; use absolute coordinates
M83 ; extruder relative mode
M104 S170 ; set extruder temp for bed leveling
M140 S60 ; set bed temp
M109 R170 ; wait for bed leveling temp
M190 S60 ; wait for bed temp
M204 T1250 ; set travel acceleration
G28 ; home all without mesh bed level
G29 ; mesh bed leveling 
M204 T2500 ; restore travel acceleration
M104 S215 ; set extruder temp
G92 E0
G1 Y-2 X179 F2400
G1 Z3 F720
M109 S215 ; wait for extruder temp

; intro line
G1 X170 F1000
G1 Z0.2 F720
G1 X110 E8 F900
G1 X40 E10 F700
G92 E0

M221 S95 ; set flow
G21 ; set units to millimeters
G90 ; use absolute coordinates
M83 ; use relative distances for extrusion
M900 K0.2 ; Filament gcode LA 1.5
; ; Filament gcode LA 1.0
M107
;LAYER_CHANGE
;Z:0.2
;HEIGHT:0.2
;BEFORE_LAYER_CHANGE
G92 E0.0
;0.2


G1 E-3.2 F4200
G1 Z.2 F720
;AFTER_LAYER_CHANGE
;0.2
G1 Z.4
G1 X41.26 Y24.742 F9000
G1 Z.2 F720
G1 E3.2 F2400
M204 P600
;TYPE:Skirt/Brim
;WIDTH:0.42
G1 F1200
G1 X46.893 Y15.348 E.34342
G1 X47.392 Y14.733 E.02483
G1 X48.122 Y14.235 E.0277
G1 X48.658 Y14.043 E.01787
G1 X49.393 Y13.955 E.02322
G1 X133.097 Y15.342 E2.62482
G1 X133.879 Y15.467 E.02484
G1 X134.676 Y15.85 E.02771
G1 X135.11 Y16.218 E.01784
G1 X135.554 Y16.811 E.02323
G1 X176.204 Y89.994 E2.62482
G1 X176.487 Y90.733 E.02483
G1 X176.553 Y91.615 E.02771
G1 X176.452 Y92.176 E.01786
G1 X176.16 Y92.856 E.02322
G1 X133.107 Y164.652 E2.62482
G1 X132.608 Y165.267 E.02484
G1 X131.878 Y165.765 E.0277
G1 X131.342 Y165.957 E.01787
G1 X130.607 Y166.045 E.02322
G1 X46.903 Y164.658 E2.62482
G1 X46.202 Y164.557 E.0222
G1 X45.67 Y164.354 E.01786
G1 X44.95 Y163.842 E.02771
G1 X44.446 Y163.189 E.02585
G1 X3.796 Y90.006 E2.62482
G1 X3.513 Y89.267 E.02483
G1 X3.447 Y88.385 E.02772
G1 X3.548 Y87.825 E.01785
G1 X3.84 Y87.144 E.02323
G1 X41.229 Y24.793 E2.27952
M204 P1000
; printing object star1.stl id:0 copy 0
G1 E-2.24 F4200
;WIPE_START
M73 P1 R65
G1 F7200
G1 X42.075 Y23.382 E-.912
;WIPE_END
G1 E-.048 F4200
G1 Z.4 F720
G1 X84.4 Y76.902 F9000
G1 Z.2 F720
G1 E3.2 F2400
M204 P600
;TYPE:Perimeter
;WIDTH:0.419999
G1 F1200
G1 X84.515 Y76.84 E.00411
G1 X84.672 Y76.575 E.00965
G1 X84.641 Y76.199 E.01185
G1 X71.886 Y47.956 E.97166
G1 X71.45 Y47.56 E.01846
G1 X56.534 Y39.45 E.53233
G1 X49.837 Y17.421 E.72193
G1 X74.379 Y30.829 E.87686
G1 X85.647 Y75.848 E1.45508
G1 X85.856 Y76.163 E.01188
G1 X86.043 Y76.255 E.00652
G1 X86.314 Y76.263 E.0085
G1 X87.477 Y76.013 E.03728
G1 X88.442 Y75.874 E.03059
G1 X89.363 Y75.802 E.02894
G1 X90.108 Y75.793 E.02337
G1 X91.584 Y75.855 E.04632
G1 X91.842 Y75.764 E.00857
G1 X92.043 Y75.532 E.00963
G1 X92.094 Y75.342 E.00617
G1 X93.372 Y61.018 E.4509
G1 X104.358 Y48.334 E.52614
G1 X105.248 Y56.199 E.24818
G1 X95.635 Y76.364 E.70042
G1 X95.614 Y76.682 E.01
G1 X95.706 Y76.89 E.00713
G1 X95.907 Y77.063 E.00832
G1 X96.871 Y77.559 E.03399
G1 X97.599 Y77.99 E.02652
G1 X98.654 Y78.67 E.03937
G1 X98.962 Y78.674 E.00965
G1 X99.273 Y78.459 E.01185
G1 X117.355 Y53.291 E.97166
G1 X117.479 Y52.715 E.01846
M73 P1 R64
G1 X117.044 Y35.743 E.53233
G1 X132.774 Y18.928 E.72193
G1 X133.433 Y46.886 E.87686
G1 X100.079 Y79.154 E1.45508
G1 X99.911 Y79.493 E.01188
G1 X99.925 Y79.701 E.00652
G1 X100.053 Y79.94 E.0085
G1 X100.851 Y80.822 E.0373
G1 X101.44 Y81.566 E.02976
G1 X101.977 Y82.349 E.02976
G1 X102.357 Y82.99 E.02337
G1 X103.029 Y84.28 E.0456
G1 X103.249 Y84.477 E.00927
G1 X103.551 Y84.535 E.00963
G1 X103.741 Y84.485 E.00617
G1 X116.785 Y78.429 E.4509
G1 X133.263 Y81.601 E.52614
G1 X126.896 Y86.305 E.24818
G1 X104.627 Y88.062 E.70042
G1 X104.34 Y88.203 E.01
G1 X104.207 Y88.387 E.00713
G1 X104.157 Y88.648 E.00832
G1 X104.21 Y89.73 E.03399
G1 X104.201 Y90.576 E.02652
G1 X104.139 Y91.83 E.03937
G1 X104.29 Y92.098 E.00965
G1 X104.632 Y92.26 E.01185
G1 X135.469 Y95.335 E.97167
G1 X136.029 Y95.155 E.01846
G1 X150.519 Y86.29 E.5326
G1 X172.937 Y91.507 E.72169
G1 X149.054 Y106.057 E.87686
G1 X104.433 Y93.306 E1.45507
G1 X104.055 Y93.33 E.01189
G1 X103.882 Y93.446 E.00652
G1 X103.739 Y93.676 E.0085
G1 X103.374 Y94.809 E.0373
G1 X103.024 Y95.69 E.02976
G1 X102.615 Y96.547 E.02976
G1 X102.249 Y97.197 E.02337
G1 X101.467 Y98.425 E.04567
G1 X101.408 Y98.713 E.00921
G1 X101.508 Y99.003 E.00963
G1 X101.647 Y99.142 E.00617
G1 X113.413 Y107.411 E.4509
G1 X118.905 Y123.267 E.52614
G1 X111.648 Y120.106 E.24818
G1 X98.991 Y101.698 E.70042
G1 X98.727 Y101.52 E.01
G1 X98.501 Y101.497 E.00713
G1 X98.25 Y101.584 E.00832
G1 X97.339 Y102.171 E.03399
G1 X96.602 Y102.586 E.02652
G1 X95.627 Y103.061 E.03399
G1 X95.485 Y103.16 E.00543
G1 X95.328 Y103.425 E.00965
G1 X95.359 Y103.801 E.01185
G1 X108.114 Y132.045 E.97166
G1 X108.55 Y132.44 E.01846
G1 X123.466 Y140.55 E.53233
G1 X130.163 Y162.579 E.72193
G1 X105.621 Y149.171 E.87686
M73 P2 R64
G1 X94.354 Y104.152 E1.45507
G1 X94.144 Y103.837 E.01189
G1 X93.957 Y103.745 E.00652
G1 X93.686 Y103.737 E.0085
G1 X92.523 Y103.987 E.03728
G1 X91.558 Y104.126 E.03059
G1 X90.637 Y104.198 E.02894
G1 X89.892 Y104.207 E.02337
G1 X88.437 Y104.143 E.04567
G1 X88.158 Y104.236 E.00921
G1 X87.957 Y104.468 E.00963
G1 X87.906 Y104.658 E.00617
G1 X86.628 Y118.982 E.4509
G1 X75.642 Y131.666 E.52614
G1 X74.752 Y123.801 E.24818
G1 X84.365 Y103.636 E.70042
G1 X84.386 Y103.318 E.01
G1 X84.294 Y103.11 E.00713
G1 X84.093 Y102.937 E.0083
G1 X83.108 Y102.429 E.03475
G1 X82.401 Y102.01 E.02578
G1 X81.346 Y101.33 E.03937
G1 X81.038 Y101.326 E.00965
G1 X80.727 Y101.541 E.01185
G1 X62.645 Y126.709 E.97166
G1 X62.521 Y127.285 E.01846
G1 X62.956 Y144.257 E.53233
G1 X47.226 Y161.072 E.72193
G1 X46.567 Y133.114 E.87686
G1 X79.921 Y100.846 E1.45507
G1 X80.089 Y100.507 E.01189
G1 X80.075 Y100.299 E.00652
G1 X79.947 Y100.06 E.0085
G1 X79.149 Y99.178 E.0373
G1 X78.56 Y98.434 E.02976
G1 X78.023 Y97.651 E.02976
G1 X77.643 Y97.01 E.02337
G1 X76.97 Y95.718 E.04567
G1 X76.751 Y95.523 E.00921
G1 X76.449 Y95.465 E.00963
G1 X76.259 Y95.515 E.00617
G1 X63.215 Y101.571 E.4509
G1 X46.737 Y98.399 E.52614
G1 X53.104 Y93.695 E.24818
G1 X75.373 Y91.938 E.70042
G1 X75.66 Y91.797 E.01
G1 X75.793 Y91.613 E.00713
G1 X75.843 Y91.352 E.00832
G1 X75.79 Y90.27 E.03399
G1 X75.799 Y89.424 E.02652
G1 X75.861 Y88.17 E.03937
G1 X75.71 Y87.902 E.00965
G1 X75.368 Y87.74 E.01185
G1 X44.531 Y84.665 E.97167
G1 X43.971 Y84.845 E.01846
G1 X29.481 Y93.71 E.5326
G1 X7.063 Y88.493 E.72169
G1 X30.946 Y73.943 E.87686
G1 X75.567 Y86.694 E1.45508
G1 X75.945 Y86.67 E.01188
G1 X76.118 Y86.554 E.00652
G1 X76.261 Y86.324 E.0085
G1 X76.626 Y85.192 E.03728
G1 X76.988 Y84.286 E.03059
G1 X77.385 Y83.453 E.02894
G1 X77.751 Y82.803 E.02337
G1 X78.533 Y81.575 E.04567
G1 X78.592 Y81.287 E.00921
G1 X78.492 Y80.997 E.00963
G1 X78.353 Y80.858 E.00617
G1 X66.587 Y72.589 E.4509
G1 X61.095 Y56.733 E.52614
G1 X68.352 Y59.894 E.24818
G1 X81.009 Y78.302 E.70042
G1 X81.273 Y78.48 E.01
G1 X81.499 Y78.503 E.00713
G1 X81.749 Y78.416 E.0083
G1 X82.682 Y77.817 E.03475
G1 X83.398 Y77.414 E.02578
G1 X84.347 Y76.93 E.03337
M204 P1000
G1 X84.208 Y76.6 F9000
M204 P600
;TYPE:External perimeter
G1 F1200
G1 X84.308 Y76.479 E.00492
G1 X84.297 Y76.353 E.00395
G1 X71.6 Y48.21 E.96805
G1 X71.269 Y47.892 E.0144
G1 X56.314 Y39.76 E.53377
G1 X56.205 Y39.665 E.0045
G1 X49.285 Y16.904 E.74593
G1 X49.312 Y16.766 E.00438
G1 X49.423 Y16.765 E.00348
G1 X74.616 Y30.529 E.90012
G1 X74.72 Y30.64 E.00475
G1 X86.012 Y75.756 E1.45823
G1 X86.082 Y75.861 E.00396
M73 P2 R63
G1 X86.235 Y75.895 E.0049
G1 X87.41 Y75.642 E.03769
G1 X88.401 Y75.499 E.03138
G1 X89.346 Y75.425 E.02972
G1 X90.32 Y75.414 E.03055
G1 X91.421 Y75.475 E.03457
G1 X91.634 Y75.449 E.00675
G1 X91.718 Y75.309 E.00514
G1 X92.991 Y61.001 E.4504
G1 X93.048 Y60.816 E.00604
G1 X104.454 Y47.648 E.54624
G1 X104.598 Y47.575 E.00505
G1 X104.663 Y47.675 E.00372
G1 X105.524 Y55.28 E.23997
G1 X105.623 Y56.289 E.0318
G1 X95.996 Y76.478 E.7013
G1 X95.982 Y76.601 E.00388
M73 P3 R63
G1 X96.08 Y76.728 E.00503
G1 X97.054 Y77.229 E.03434
G1 X97.801 Y77.671 E.02722
G1 X98.709 Y78.284 E.03434
G1 X98.864 Y78.31 E.00492
G1 X98.967 Y78.238 E.00395
G1 X116.991 Y53.17 E.96805
G1 X117.102 Y52.725 E.0144
G1 X116.666 Y35.707 E.53377
G1 X116.694 Y35.566 E.0045
G1 X132.95 Y18.187 E.74613
G1 X133.074 Y18.15 E.00406
G1 X133.135 Y18.251 E.00369
G1 X133.812 Y46.942 E.89985
G1 X133.768 Y47.087 E.00475
G1 X100.342 Y79.425 E1.45823
G1 X100.286 Y79.538 E.00396
G1 X100.333 Y79.687 E.0049
G1 X101.14 Y80.578 E.03769
G1 X101.744 Y81.343 E.03055
G1 X102.295 Y82.146 E.03055
G1 X102.792 Y82.984 E.03055
G1 X103.322 Y84.031 E.03681
G1 X103.418 Y84.14 E.00456
G1 X103.582 Y84.143 E.00514
G1 X116.61 Y78.091 E.4504
G1 X116.798 Y78.047 E.00604
G1 X133.905 Y81.341 E.54624
G1 X134.04 Y81.43 E.00505
G1 X133.986 Y81.536 E.00372
G1 X127.831 Y86.084 E.23997
G1 X127.006 Y86.675 E.0318
G1 X104.708 Y88.432 E.7013
G1 X104.595 Y88.481 E.00388
G1 X104.534 Y88.629 E.00503
G1 X104.587 Y89.723 E.03434
G1 X104.578 Y90.591 E.02722
G1 X104.517 Y91.774 E.03712
G1 X104.67 Y91.885 E.00593
G1 X135.391 Y94.96 E.96805
G1 X135.832 Y94.833 E.0144
G1 X150.313 Y85.971 E.53231
G1 X150.532 Y85.906 E.00716
G1 X173.664 Y91.289 E.74466
G1 X173.756 Y91.375 E.00397
G1 X173.712 Y91.477 E.00348
G1 X149.195 Y106.413 E.90012
G1 X149.047 Y106.447 E.00475
G1 X104.329 Y93.668 E1.45823
G1 X104.203 Y93.676 E.00396
G1 X104.098 Y93.792 E.0049
G1 X103.729 Y94.936 E.03769
G1 X103.369 Y95.842 E.03055
G1 X102.95 Y96.721 E.03055
G1 X102.472 Y97.57 E.03055
G1 X101.814 Y98.576 E.03769
G1 X101.784 Y98.691 E.00371
G1 X101.864 Y98.834 E.00514
G1 X113.619 Y107.09 E.4504
G1 X113.75 Y107.231 E.00604
G1 X119.451 Y123.693 E.54624
G1 X119.442 Y123.854 E.00505
G1 X119.324 Y123.861 E.00372
G1 X112.307 Y120.804 E.23997
G1 X111.383 Y120.386 E.0318
G1 X98.712 Y101.954 E.7013
G1 X98.613 Y101.88 E.00388
G1 X98.454 Y101.901 E.00503
G1 X97.533 Y102.494 E.03434
G1 X96.777 Y102.92 E.02722
G1 X95.792 Y103.4 E.03434
G1 X95.722 Y103.459 E.00286
G1 X95.703 Y103.647 E.00593
G1 X108.4 Y131.79 E.96805
G1 X108.731 Y132.108 E.0144
G1 X123.686 Y140.24 E.53377
G1 X123.795 Y140.335 E.0045
G1 X130.717 Y163.103 E.74613
G1 X130.687 Y163.229 E.00406
G1 X130.569 Y163.231 E.00369
G1 X105.384 Y149.471 E.89985
G1 X105.28 Y149.36 E.00475
G1 X93.988 Y104.244 E1.45823
G1 X93.918 Y104.139 E.00396
G1 X93.765 Y104.105 E.0049
G1 X92.59 Y104.358 E.03769
G1 X91.599 Y104.501 E.03138
G1 X90.654 Y104.575 E.02972
G1 X89.68 Y104.586 E.03055
G1 X88.48 Y104.52 E.03769
G1 X88.366 Y104.551 E.00371
G1 X88.282 Y104.691 E.00514
G1 X87.009 Y118.999 E.4504
G1 X86.952 Y119.184 E.00604
G1 X75.546 Y132.352 E.54624
G1 X75.402 Y132.425 E.00505
G1 X75.337 Y132.325 E.00372
G1 X74.476 Y124.72 E.23997
G1 X74.377 Y123.711 E.0318
G1 X84.004 Y103.522 E.7013
G1 X84.018 Y103.399 E.00388
G1 X83.92 Y103.272 E.00502
G1 X82.926 Y102.759 E.03509
G1 X82.199 Y102.329 E.02648
G1 X81.206 Y101.685 E.03712
G1 X81.033 Y101.762 E.00593
G1 X63.009 Y126.83 E.96805
G1 X62.898 Y127.275 E.0144
G1 X63.334 Y144.293 E.53377
G1 X63.306 Y144.434 E.0045
G1 X47.05 Y161.813 E.74613
G1 X46.926 Y161.85 E.00406
G1 X46.865 Y161.749 E.00369
G1 X46.188 Y133.058 E.89985
G1 X46.232 Y132.913 E.00475
M73 P4 R63
G1 X79.658 Y100.575 E1.45823
G1 X79.714 Y100.462 E.00396
G1 X79.667 Y100.313 E.0049
G1 X78.86 Y99.422 E.03769
G1 X78.256 Y98.657 E.03055
G1 X77.705 Y97.854 E.03055
G1 X77.208 Y97.016 E.03055
G1 X76.665 Y95.943 E.03769
G1 X76.582 Y95.86 E.00371
G1 X76.418 Y95.857 E.00514
G1 X63.39 Y101.909 E.4504
G1 X63.202 Y101.953 E.00604
G1 X46.095 Y98.659 E.54624
G1 X45.96 Y98.57 E.00505
G1 X46.014 Y98.464 E.00372
G1 X52.169 Y93.916 E.23997
G1 X52.994 Y93.325 E.0318
G1 X75.292 Y91.568 E.7013
G1 X75.405 Y91.519 E.00388
G1 X75.466 Y91.371 E.00503
G1 X75.413 Y90.277 E.03434
G1 X75.422 Y89.409 E.02722
G1 X75.499 Y88.316 E.03434
G1 X75.444 Y88.169 E.00492
G1 X75.33 Y88.115 E.00395
G1 X44.609 Y85.04 E.96805
G1 X44.168 Y85.167 E.0144
G1 X29.687 Y94.029 E.53231
G1 X29.468 Y94.094 E.00717
G1 X6.336 Y88.711 E.74466
G1 X6.244 Y88.625 E.00397
G1 X6.288 Y88.523 E.00348
G1 X30.805 Y73.587 E.90012
G1 X30.953 Y73.553 E.00475
G1 X75.671 Y86.332 E1.45823
G1 X75.797 Y86.324 E.00396
G1 X75.902 Y86.208 E.0049
G1 X76.271 Y85.064 E.03769
G1 X76.642 Y84.135 E.03138
G1 X77.05 Y83.279 E.02972
G1 X77.528 Y82.43 E.03055
G1 X78.186 Y81.424 E.03769
G1 X78.216 Y81.309 E.00371
G1 X78.136 Y81.166 E.00514
G1 X66.381 Y72.91 E.4504
G1 X66.25 Y72.769 E.00604
G1 X60.549 Y56.307 E.54624
G1 X60.558 Y56.146 E.00505
G1 X60.676 Y56.139 E.00372
G1 X67.693 Y59.196 E.23997
G1 X68.617 Y59.614 E.0318
G1 X81.288 Y78.046 E.7013
G1 X81.387 Y78.12 E.00388
M73 P4 R62
G1 X81.546 Y78.099 E.00502
G1 X82.487 Y77.494 E.03509
G1 X83.223 Y77.08 E.02648
G1 X84.154 Y76.626 E.03246
M204 P1000
G1 X84.358 Y76.646 F9000
G1 E-2.24 F4200
;WIPE_START
G1 F7200
G1 X84.308 Y76.479 E-.118
G1 X84.297 Y76.353 E-.06981
G1 X83.76 Y75.162 E-.7242
;WIPE_END
G1 E-.048 F4200
G1 Z.4 F720
G1 X91.273 Y88.462 F9000
G1 Z.2 F720
G1 E3.2 F2400
M204 P600
;TYPE:Perimeter
G1 F1200
G1 X91.505 Y88.696 E.01034
G1 X91.784 Y89.081 E.01491
G1 X91.958 Y89.553 E.01577
G1 X91.991 Y90.245 E.02173
G1 X91.882 Y90.651 E.01319
G1 X91.687 Y91.087 E.01498
G1 X91.364 Y91.472 E.01576
G1 X91.129 Y91.647 E.00919
G1 X90.679 Y91.895 E.0161
G1 X90.098 Y92.004 E.01852
G1 X89.902 Y92.004 E.00616
G1 X89.407 Y91.917 E.01576
G1 X89.121 Y91.791 E.0098
G1 X88.681 Y91.52 E.01621
G1 X88.313 Y91.087 E.01779
G1 X88.215 Y90.917 E.00616
G1 X88.043 Y90.445 E.01576
G1 X88.009 Y90.251 E.00616
G1 X88.009 Y89.743 E.01595
G1 X88.116 Y89.354 E.01262
G1 X88.313 Y88.913 E.01517
G1 X88.636 Y88.528 E.01576
G1 X88.888 Y88.343 E.0098
G1 X89.344 Y88.098 E.01621
G1 X89.876 Y87.998 E.01699
G1 X90.167 Y88.013 E.00913
G1 X90.676 Y88.104 E.01621
G1 X91.23 Y88.419 E.02
M204 P1000
G1 X90.973 Y88.7 F9000
M204 P600
;TYPE:External perimeter
G1 F1200
G1 X91.025 Y88.728 E.00186
G1 X91.398 Y89.155 E.01779
G1 X91.596 Y89.661 E.01703
G1 X91.614 Y90.249 E.01845
G1 X91.431 Y90.788 E.01785
G1 X91.075 Y91.23 E.01779
G1 X90.589 Y91.523 E.01779
G1 X90.033 Y91.633 E.01778
G1 X89.472 Y91.546 E.01779
G1 X88.975 Y91.272 E.01779
G1 X88.602 Y90.845 E.01779
G1 X88.398 Y90.316 E.01779
G1 X88.386 Y89.747 E.01785
G1 X88.569 Y89.212 E.01772
G1 X88.925 Y88.77 E.01778
G1 X89.411 Y88.477 E.01779
G1 X89.943 Y88.369 E.01703
G1 X90.526 Y88.454 E.01845
G1 X90.92 Y88.671 E.01411
M204 P1000
G1 X91.021 Y88.666 F9000
G1 E-2.24 F4200
;WIPE_START
G1 F7200
G1 X91.025 Y88.728 E-.06605
G1 X91.398 Y89.155 E-.31435
G1 X91.596 Y89.661 E-.30104
G1 X91.609 Y90.077 E-.23056
;WIPE_END
G1 E-.048 F4200
G1 Z.4 F720
G1 X171.298 Y91.3 F9000
G1 Z.2 F720
G1 E3.2 F2400
M204 P600
;TYPE:Solid infill
;WIDTH:0.420036
G1 F1200
G1 X171.801 Y91.802 E.02228
G1 X171.469 Y92.004 E.01217
G1 X170.83 Y91.365 E.02833
G1 X170.135 Y91.203 E.02238
G1 X171.138 Y92.206 E.04446
G1 X170.806 Y92.408 E.01217
G1 X169.44 Y91.042 E.06059
G1 X168.745 Y90.88 E.02238
G1 X170.475 Y92.61 E.07671
G1 X170.144 Y92.812 E.01217
G1 X168.05 Y90.718 E.09284
G1 X167.355 Y90.556 E.02238
G1 X169.812 Y93.014 E.10897
G1 X169.481 Y93.216 E.01217
G1 X166.66 Y90.395 E.12509
G1 X165.965 Y90.233 E.02238
G1 X169.149 Y93.417 E.14122
G1 X168.818 Y93.619 E.01217
G1 X165.27 Y90.071 E.15735
G1 X164.575 Y89.909 E.02238
G1 X168.486 Y93.821 E.17347
G1 X168.155 Y94.023 E.01217
G1 X163.88 Y89.748 E.1896
G1 X163.185 Y89.586 E.02238
G1 X167.824 Y94.225 E.20573
G1 X167.492 Y94.427 E.01217
G1 X162.489 Y89.424 E.22185
G1 X161.794 Y89.262 E.02238
G1 X167.161 Y94.629 E.23798
G1 X166.829 Y94.831 E.01217
