; generated by PrusaSlicer 2.5.2+win64 on 2023-05-10 at 06:33:48 UTC


;
;

;
;
; 

; external perimeters extrusion width = 0.45mm
; perimeters extrusion width = 0.45mm
; infill extrusion width = 0.45mm
; solid infill extrusion width = 0.45mm
; top infill extrusion width = 0.40mm
; first layer extrusion width = 0.42mm

M73 P0 R59
M201 X2500 Y2500 Z400 E5000 ; sets maximum accelerations, mm/sec^2
M203 X180 Y180 Z12 E80 ; sets maximum feedrates, mm / sec
M204 P2000 R1250 T2500 ; sets acceleration (P, T) and retract acceleration (R), mm/sec^2
M205 X8.00 Y8.00 Z2.00 E10.00 ; sets the jerk limits, mm/sec
M205 S0 T0 ; sets the minimum extruding and travel feed rate, mm/sec
M107
;TYPE:Custom
M862.3 P "MINI" ; printer model check
G90 ; use absolute coordinates
M83 ; extruder relative mode
M104 S170 ; set extruder temp for bed leveling
M140 S60 ; set bed temp
M109 R170 ; wait for bed leveling temp
M190 S60 ; wait for bed temp
M204 T1250 ; set travel acceleration
G28 ; home all without mesh bed level
G29 ; mesh bed leveling 
M204 T2500 ; restore travel acceleration
M104 S215 ; set extruder temp
G92 E0
G1 Y-2 X179 F2400
G1 Z3 F720
M109 S215 ; wait for extruder temp

; intro line
G1 X170 F1000
G1 Z0.2 F720
G1 X110 E8 F900
G1 X40 E10 F700
G92 E0

M221 S95 ; set flow
G21 ; set units to millimeters
G90 ; use absolute coordinates
M83 ; use relative distances for extrusion
M900 K0.2 ; Filament gcode LA 1.5
; ; Filament gcode LA 1.0
M107
;LAYER_CHANGE
;Z:0.2
;HEIGHT:0.2
;BEFORE_LAYER_CHANGE
G92 E0.0
;0.2


G1 E-3.2 F4200
G1 Z.2 F720
;AFTER_LAYER_CHANGE
;0.2
G1 Z.4
G1 X16.158 Y28.055 F9000
G1 Z.2 F720
G1 E3.2 F2400
M204 P600
;TYPE:Skirt/Brim
;WIDTH:0.42
G1 F1200
G1 X17.246 Y27.726 E.03563
G1 X89.556 Y20.283 E2.27921
G1 X90.213 Y20.268 E.02062
G1 X162.754 Y27.726 E2.28646
G1 X163.684 Y27.981 E.03023
G1 X164.201 Y28.262 E.01844
G1 X164.661 Y28.628 E.01844
G1 X165.051 Y29.069 E.01844
G1 X165.358 Y29.571 E.01844
G1 X165.573 Y30.118 E.01845
G1 X165.69 Y30.694 E.01844
G1 X165.705 Y31.282 E.01844
G1 X165.446 Y32.389 E.03563
G1 X135.441 Y99.282 E2.29873
G1 X92.692 Y158.403 E2.28751
G1 X92.006 Y159.08 E.03023
G1 X91.347 Y159.461 E.02388
G1 X90.789 Y159.648 E.01844
G1 X89.793 Y159.735 E.03134
G1 X89.211 Y159.648 E.01845
G1 X88.495 Y159.388 E.02388
G1 X87.994 Y159.08 E.01844
G1 X87.308 Y158.403 E.03023
G1 X44.586 Y99.33 E2.28581
G1 X14.554 Y32.389 E2.30043
G1 X14.31 Y31.456 E.03023
M73 P1 R59
G1 X14.295 Y30.868 E.01844
G1 X14.382 Y30.286 E.01844
G1 X14.569 Y29.729 E.01845
G1 X14.849 Y29.212 E.01844
G1 X15.216 Y28.752 E.01845
G1 X15.657 Y28.362 E.01844
G1 X16.107 Y28.086 E.01656
M204 P1000
; printing object star3.stl id:0 copy 0
G1 E-2.24 F4200
;WIPE_START
G1 F7200
G1 X17.246 Y27.726 E-.66191
G1 X17.695 Y27.68 E-.25009
;WIPE_END
G1 E-.048 F4200
G1 Z.4 F720
G1 X86.499 Y59.035 F9000
G1 Z.2 F720
G1 E3.2 F2400
M204 P600
;TYPE:Perimeter
;WIDTH:0.419999
G1 F1200
G1 X86.607 Y58.999 E.00357
G1 X86.789 Y58.818 E.00803
G1 X86.872 Y58.567 E.0083
G1 X86.84 Y58.325 E.00765
G1 X78.988 Y36.751 E.71985
G1 X78.951 Y36.511 E.00763
G1 X79.03 Y36.343 E.0058
G1 X89.73 Y23.591 E.52194
G1 X89.869 Y23.48 E.00557
G1 X90.006 Y23.444 E.00446
G1 X90.158 Y23.522 E.00536
G1 X100.878 Y36.297 E.52289
G1 X100.995 Y36.511 E.00763
G1 X100.978 Y36.695 E.0058
G1 X93.11 Y58.312 E.7213
G1 X93.078 Y58.457 E.00466
G1 X93.122 Y58.729 E.00864
G1 X93.246 Y58.91 E.00689
G1 X93.474 Y59.046 E.00829
G1 X94.702 Y59.427 E.04034
G1 X95.657 Y59.801 E.03216
G1 X96.583 Y60.243 E.03216
G1 X97.474 Y60.751 E.03216
G1 X98.327 Y61.321 E.03216
G1 X99.375 Y62.135 E.04161
G1 X99.641 Y62.219 E.00873
G1 X99.913 Y62.167 E.0087
G1 X100.107 Y62.018 E.00768
G1 X119.9 Y38.431 E.96544
G1 X120.121 Y38.303 E.008
G1 X162.222 Y30.879 E1.34043
G1 X162.416 Y30.907 E.00614
M73 P1 R58
G1 X162.534 Y31.041 E.00558
G1 X162.478 Y31.239 E.00645
G1 X134.97 Y64.022 E1.34183
G1 X134.749 Y64.15 E.008
G1 X104.425 Y69.497 E.96544
G1 X104.351 Y69.515 E.00239
G1 X104.142 Y69.636 E.0076
G1 X103.996 Y69.849 E.0081
G1 X103.963 Y70.132 E.00891
G1 X104.137 Y71.379 E.03949
G1 X104.205 Y72.394 E.03191
G1 X104.201 Y73.412 E.03191
G1 X104.123 Y74.427 E.03191
G1 X104.006 Y75.217 E.02506
G1 X103.683 Y76.822 E.05132
G1 X103.749 Y77.069 E.00803
G1 X103.924 Y77.267 E.0083
G1 X104.15 Y77.36 E.00765
G1 X126.759 Y81.347 E.71985
G1 X126.986 Y81.435 E.00763
G1 X127.092 Y81.587 E.0058
G1 X132.634 Y96.813 E.50805
G1 X132.818 Y97.348 E.01775
G1 X132.804 Y97.52 E.00541
G1 X132.583 Y97.643 E.00792
G1 X116.207 Y100.53 E.52136
G1 X115.964 Y100.525 E.00763
G1 X115.813 Y100.419 E.0058
G1 X101.026 Y82.796 E.7213
G1 X100.916 Y82.696 E.00466
G1 X100.659 Y82.598 E.00864
G1 X100.44 Y82.615 E.00689
G1 X100.209 Y82.744 E.00829
G1 X99.264 Y83.617 E.04034
G1 X98.463 Y84.258 E.03216
G1 X97.617 Y84.838 E.03216
G1 X96.732 Y85.356 E.03216
G1 X95.812 Y85.809 E.03216
G1 X94.583 Y86.311 E.04161
G1 X94.377 Y86.498 E.00873
G1 X94.286 Y86.76 E.0087
G1 X94.318 Y87.003 E.00768
G1 X104.849 Y115.938 E.96544
G1 X104.849 Y116.193 E.008
G1 X90.24 Y156.331 E1.33926
G1 X90.086 Y156.548 E.00835
G1 X89.931 Y156.558 E.00489
G1 X89.771 Y156.362 E.00792
G1 X75.151 Y116.193 E1.3403
G1 X75.151 Y115.938 E.008
G1 X85.682 Y87.003 E.96544
G1 X85.704 Y86.93 E.00239
G1 X85.703 Y86.688 E.0076
G1 X85.591 Y86.455 E.0081
G1 X85.363 Y86.285 E.00891
G1 X84.196 Y85.813 E.03949
G1 X83.283 Y85.364 E.03191
G1 X82.404 Y84.851 E.03191
G1 X81.564 Y84.277 E.03191
G1 X80.938 Y83.78 E.02506
G1 X79.71 Y82.698 E.05132
G1 X79.463 Y82.631 E.00803
G1 X79.203 Y82.684 E.0083
G1 X79.01 Y82.833 E.00765
G1 X64.253 Y100.42 E.71985
G1 X64.063 Y100.573 E.00763
G1 X63.879 Y100.588 E.0058
G1 X47.484 Y97.697 E.52197
G1 X47.236 Y97.582 E.00857
G1 X47.2 Y97.425 E.00508
G1 X52.915 Y81.69 E.52489
G1 X53.041 Y81.482 E.00763
G1 X53.209 Y81.404 E.0058
G1 X75.864 Y77.41 E.7213
G1 X76.006 Y77.365 E.00466
G1 X76.219 Y77.191 E.00864
G1 X76.314 Y76.992 E.00689
G1 X76.319 Y76.732 E.00816
G1 X76.034 Y75.473 E.04048
G1 X75.88 Y74.459 E.03216
G1 X75.8 Y73.436 E.03216
G1 X75.794 Y72.411 E.03216
G1 X75.862 Y71.387 E.03216
G1 X76.042 Y70.072 E.04161
G1 X75.982 Y69.8 E.00873
G1 X75.801 Y69.59 E.0087
G1 X75.575 Y69.497 E.00768
G1 X45.251 Y64.15 E.96544
G1 X45.03 Y64.022 E.008
G1 X17.55 Y31.273 E1.34043
G1 X17.463 Y31.095 E.00621
M73 P2 R58
G1 X17.539 Y30.928 E.00575
G1 X17.757 Y30.876 E.00702
G1 X59.879 Y38.303 E1.34109
G1 X60.1 Y38.431 E.008
G1 X79.945 Y62.073 E.96782
G1 X80.155 Y62.194 E.0076
G1 X80.413 Y62.214 E.0081
G1 X80.674 Y62.101 E.00891
G1 X81.667 Y61.326 E.03949
G1 X82.512 Y60.759 E.0319
G1 X83.396 Y60.255 E.03191
G1 X84.313 Y59.814 E.03191
G1 X85.056 Y59.521 E.02506
G1 X86.443 Y59.054 E.04586
M204 P1000
G1 X86.365 Y58.698 F9000
M204 P600
;TYPE:External perimeter
G1 F1200
G1 X86.469 Y58.618 E.0041
G1 X86.486 Y58.454 E.00518
G1 X78.634 Y36.88 E.71985
G1 X78.566 Y36.443 E.01387
G1 X78.709 Y36.138 E.01055
G1 X89.441 Y23.349 E.52347
G1 X89.775 Y23.085 E.01334
G1 X90.074 Y23.059 E.00941
G1 X90.209 Y23.122 E.00468
G1 X90.436 Y23.267 E.00845
G1 X101.166 Y36.055 E.5234
G1 X101.38 Y36.443 E.01387
G1 X101.349 Y36.778 E.01055
G1 X93.464 Y58.441 E.72283
G1 X93.468 Y58.58 E.00436
G1 X93.583 Y58.685 E.00488
G1 X94.827 Y59.071 E.04083
G1 X95.807 Y59.455 E.03301
G1 X96.758 Y59.909 E.03302
G1 X97.673 Y60.43 E.03301
G1 X98.548 Y61.016 E.03302
G1 X99.558 Y61.803 E.04017
G1 X99.684 Y61.843 E.00412
G1 X99.819 Y61.776 E.00473
G1 X119.584 Y38.22 E.96412
G1 X119.807 Y38.015 E.00951
G1 X120.023 Y37.937 E.0072
G1 X162.157 Y30.508 E1.34145
G1 X162.431 Y30.498 E.00859
G1 X162.712 Y30.63 E.00974
G1 X162.836 Y30.807 E.00678
G1 X162.906 Y30.975 E.00571
G1 X162.898 Y31.157 E.00571
G1 X162.778 Y31.468 E.01046
G1 X135.286 Y64.232 E1.34103
G1 X135.062 Y64.437 E.00951
G1 X134.846 Y64.515 E.0072
G1 X104.491 Y69.868 E.96646
G1 X104.379 Y69.933 E.00406
G1 X104.337 Y70.08 E.00479
G1 X104.513 Y71.34 E.03991
G1 X104.583 Y72.383 E.03275
G1 X104.578 Y73.427 E.03275
G1 X104.498 Y74.469 E.03275
G1 X104.345 Y75.502 E.03275
G1 X104.064 Y76.762 E.04048
G1 X104.081 Y76.892 E.0041
G1 X104.215 Y76.989 E.00518
G1 X126.825 Y80.975 E.71985
G1 X127.237 Y81.135 E.01387
G1 X127.429 Y81.412 E.01055
G1 X132.989 Y96.687 E.5097
G1 X133.205 Y97.315 E.02081
G1 X133.172 Y97.61 E.00931
G1 X133.01 Y97.861 E.00936
G1 X132.697 Y98.006 E.01083
G1 X116.273 Y100.902 E.52289
G1 X115.831 Y100.893 E.01387
G1 X115.556 Y100.699 E.01055
G1 X100.737 Y83.038 E.72283
G1 X100.615 Y82.972 E.00436
G1 X100.465 Y83.021 E.00494
G1 X99.51 Y83.904 E.04076
G1 X98.687 Y84.561 E.03301
G1 X97.819 Y85.157 E.03301
G1 X96.911 Y85.689 E.03301
G1 X95.966 Y86.154 E.03301
G1 X94.778 Y86.635 E.04018
G1 X94.681 Y86.724 E.00412
G1 X94.672 Y86.874 E.00473
G1 X105.189 Y115.769 E.96412
G1 X105.255 Y116.065 E.00951
G1 X105.214 Y116.291 E.0072
G1 X90.594 Y156.46 E1.34028
G1 X90.369 Y156.821 E.01334
G1 X90.2 Y156.918 E.0061
G1 X89.906 Y156.937 E.00924
G1 X89.631 Y156.821 E.00936
G1 X89.434 Y156.537 E.01083
G1 X74.811 Y116.361 E1.34052
G1 X74.745 Y116.065 E.00951
G1 X74.786 Y115.839 E.0072
G1 X85.328 Y86.874 E.96646
G1 X85.328 Y86.745 E.00406
G1 X85.222 Y86.635 E.00479
G1 X84.042 Y86.157 E.03991
G1 X83.104 Y85.696 E.03275
G1 X82.202 Y85.17 E.03275
G1 X81.34 Y84.581 E.03275
G1 X80.522 Y83.931 E.03275
G1 X79.571 Y83.058 E.04048
G1 X79.45 Y83.008 E.0041
G1 X79.299 Y83.075 E.00518
G1 X64.541 Y100.663 E.71985
G1 X64.197 Y100.94 E.01387
G1 X63.861 Y100.968 E.01055
G1 X47.419 Y98.069 E.52351
G1 X47.017 Y97.908 E.01355
G1 X46.855 Y97.657 E.00936
G1 X46.822 Y97.362 E.00931
G1 X47.015 Y96.796 E.01874
G1 X52.561 Y81.561 E.50835
G1 X52.79 Y81.183 E.01387
G1 X53.095 Y81.042 E.01055
G1 X75.799 Y77.038 E.72283
G1 X75.917 Y76.965 E.00436
G1 X75.95 Y76.813 E.0049
G1 X75.663 Y75.543 E.04081
G1 X75.505 Y74.502 E.03301
G1 X75.423 Y73.452 E.03301
G1 X75.417 Y72.399 E.03301
G1 X75.487 Y71.349 E.03301
G1 X75.663 Y70.08 E.04018
G1 X75.635 Y69.951 E.00412
G1 X75.509 Y69.868 E.00473
G1 X45.227 Y64.528 E.96412
G1 X44.938 Y64.437 E.00951
G1 X44.762 Y64.289 E.0072
G1 X17.227 Y31.474 E1.34312
G1 X17.095 Y31.181 E.01008
M73 P3 R57
G1 X17.111 Y30.883 E.00936
G1 X17.288 Y30.629 E.00972
G1 X17.57 Y30.498 E.00974
G1 X17.791 Y30.499 E.00692
G1 X59.903 Y37.924 E1.34078
G1 X60.193 Y38.015 E.00951
G1 X60.368 Y38.163 E.0072
G1 X80.181 Y61.776 E.96646
G1 X80.294 Y61.84 E.00406
G1 X80.442 Y61.803 E.00479
G1 X81.446 Y61.02 E.03991
G1 X82.313 Y60.439 E.03275
G1 X83.22 Y59.92 E.03275
G1 X84.162 Y59.468 E.03275
G1 X85.134 Y59.085 E.03275
G1 X86.308 Y58.716 E.03859
M204 P1000
G1 X86.48 Y58.761 F9000
G1 E-2.24 F4200
;WIPE_START
G1 F7200
G1 X86.469 Y58.618 E-.10434
G1 X86.486 Y58.454 E-.09153
G1 X86.044 Y57.24 E-.71613
;WIPE_END
G1 E-.048 F4200
G1 Z.4 F720
G1 X90.648 Y70.943 F9000
G1 Z.2 F720
G1 E3.2 F2400
M204 P600
;TYPE:Perimeter
G1 F1200
G1 X90.778 Y70.989 E.00432
G1 X91.213 Y71.241 E.01576
G1 X91.364 Y71.367 E.00616
G1 X91.687 Y71.752 E.01576
G1 X91.784 Y71.92 E.00609
G1 X91.979 Y72.487 E.01881
G1 X91.991 Y73.084 E.01872
G1 X91.957 Y73.284 E.00636
G1 X91.785 Y73.756 E.01576
G1 X91.687 Y73.926 E.00616
G1 X91.364 Y74.312 E.01576
G1 X91.213 Y74.438 E.00616
G1 X90.778 Y74.689 E.01576
G1 X90.593 Y74.756 E.00616
G1 X90.098 Y74.844 E.01576
G1 X89.902 Y74.844 E.00616
G1 X89.407 Y74.756 E.01576
G1 X89.222 Y74.689 E.00616
G1 X88.785 Y74.437 E.01584
G1 X88.636 Y74.312 E.00608
G1 X88.313 Y73.926 E.01576
G1 X88.131 Y73.528 E.01373
G1 X88.015 Y73.11 E.01363
G1 X88.009 Y72.589 E.01634
G1 X88.043 Y72.394 E.00618
G1 X88.215 Y71.922 E.01576
G1 X88.313 Y71.752 E.00616
G1 X88.636 Y71.367 E.01576
G1 X88.787 Y71.241 E.00616
G1 X89.224 Y70.988 E.01584
G1 X89.404 Y70.923 E.00601
G1 X89.927 Y70.831 E.01665
G1 X90.591 Y70.923 E.02102
M204 P1000
G1 X90.439 Y71.281 F9000
M204 P600
;TYPE:External perimeter
G1 F1200
G1 X90.526 Y71.293 E.00274
G1 X91.018 Y71.564 E.01763
G1 X91.398 Y71.994 E.01799
G1 X91.606 Y72.539 E.01829
G1 X91.614 Y73.088 E.01722
G1 X91.431 Y73.627 E.01785
G1 X91.075 Y74.069 E.01779
G1 X90.595 Y74.359 E.01756
G1 X90.033 Y74.472 E.01799
G1 X89.472 Y74.385 E.01779
G1 X88.975 Y74.111 E.01779
G1 X88.602 Y73.684 E.01779
G1 X88.404 Y73.178 E.01703
G1 X88.386 Y72.59 E.01845
G1 X88.569 Y72.051 E.01785
G1 X88.925 Y71.609 E.01779
G1 X89.411 Y71.316 E.01779
G1 X89.943 Y71.208 E.01703
G1 X90.38 Y71.272 E.01383
M204 P1000
G1 X90.489 Y71.209 F9000
G1 E-2.24 F4200
;WIPE_START
G1 F7200
G1 X90.526 Y71.293 E-.08171
G1 X91.018 Y71.564 E-.31158
G1 X91.398 Y71.994 E-.31804
G1 X91.527 Y72.333 E-.20066
;WIPE_END
G1 E-.048 F4200
G1 Z.4 F720
G1 X161.83 Y31.121 F9000
G1 Z.2 F720
G1 E3.2 F2400
M204 P600
;TYPE:Solid infill
;WIDTH:0.420409
G1 F1200
G1 X161.995 Y31.286 E.00734
G1 X161.752 Y31.576 E.01189
G1 X161.523 Y31.347 E.01017
G1 X161.069 Y31.427 E.01446
G1 X161.508 Y31.867 E.0195
G1 X161.265 Y32.157 E.01189
G1 X160.615 Y31.507 E.02884
G1 X160.161 Y31.587 E.01446
G1 X161.021 Y32.447 E.03817
G1 X160.777 Y32.738 E.01189
G1 X159.707 Y31.667 E.0475
G1 X159.254 Y31.747 E.01446
G1 X160.534 Y33.028 E.05684
G1 X160.29 Y33.318 E.01189
G1 X158.8 Y31.827 E.06617
G1 X158.346 Y31.908 E.01446
G1 X160.047 Y33.608 E.0755
G1 X159.803 Y33.899 E.01189
G1 X157.892 Y31.988 E.08484
G1 X157.438 Y32.068 E.01446
G1 X159.56 Y34.189 E.09417
G1 X159.316 Y34.479 E.01189
G1 X156.984 Y32.148 E.1035
G1 X156.531 Y32.228 E.01446
G1 X159.072 Y34.769 E.11283
G1 X158.829 Y35.06 E.01189
G1 X156.077 Y32.308 E.12217
G1 X155.623 Y32.388 E.01446
G1 X158.585 Y35.35 E.1315
G1 X158.342 Y35.64 E.01189
G1 X155.169 Y32.468 E.14083
G1 X154.715 Y32.548 E.01446
G1 X158.098 Y35.931 E.15017
G1 X157.855 Y36.221 E.01189
G1 X154.261 Y32.628 E.1595
G1 X153.808 Y32.708 E.01446
G1 X157.611 Y36.511 E.16883
G1 X157.367 Y36.801 E.01189
G1 X153.354 Y32.788 E.17817
G1 X152.9 Y32.868 E.01446
G1 X157.124 Y37.092 E.1875
G1 X156.88 Y37.382 E.01189
G1 X152.446 Y32.948 E.19683
G1 X151.992 Y33.028 E.01446
G1 X156.637 Y37.672 E.20617
G1 X156.393 Y37.963 E.01189
G1 X151.538 Y33.108 E.2155
G1 X151.085 Y33.188 E.01446
G1 X156.15 Y38.253 E.22483
G1 X155.906 Y38.543 E.01189
G1 X150.631 Y33.268 E.23417
G1 X150.177 Y33.348 E.01446
G1 X155.662 Y38.833 E.2435
G1 X155.419 Y39.124 E.01189
G1 X149.723 Y33.428 E.25283
G1 X149.269 Y33.508 E.01446
G1 X155.175 Y39.414 E.26217
G1 X154.932 Y39.704 E.01189
G1 X148.815 Y33.588 E.2715
G1 X148.362 Y33.668 E.01446
G1 X154.688 Y39.994 E.28083
G1 X154.445 Y40.285 E.01189
G1 X147.908 Y33.748 E.29017
G1 X147.454 Y33.828 E.01446
G1 X154.201 Y40.575 E.2995
G1 X153.957 Y40.865 E.01189
G1 X147 Y33.908 E.30883
G1 X146.546 Y33.988 E.01446
G1 X153.714 Y41.156 E.31817
G1 X153.47 Y41.446 E.01189
G1 X146.093 Y34.068 E.3275
G1 X145.639 Y34.148 E.01446
G1 X153.227 Y41.736 E.33683
G1 X152.983 Y42.026 E.01189
G1 X145.185 Y34.228 E.34617
G1 X144.731 Y34.308 E.01446
G1 X152.74 Y42.317 E.3555
G1 X152.496 Y42.607 E.01189
G1 X144.277 Y34.388 E.36483
G1 X143.823 Y34.468 E.01446
G1 X152.252 Y42.897 E.37416
G1 X152.009 Y43.188 E.01189
G1 X143.37 Y34.548 E.3835
G1 X142.916 Y34.628 E.01446
G1 X151.765 Y43.478 E.39283
G1 X151.522 Y43.768 E.01189
G1 X142.462 Y34.708 E.40216
G1 X142.008 Y34.788 E.01446
G1 X151.278 Y44.058 E.4115
G1 X151.035 Y44.349 E.01189
G1 X141.554 Y34.868 E.42083
G1 X141.1 Y34.948 E.01446
G1 X150.791 Y44.639 E.43016
G1 X150.547 Y44.929 E.01189
G1 X140.647 Y35.028 E.4395
G1 X140.193 Y35.108 E.01446
G1 X150.304 Y45.22 E.44883
G1 X150.06 Y45.51 E.01189
G1 X139.739 Y35.188 E.45816
G1 X139.285 Y35.268 E.01446
G1 X149.817 Y45.8 E.4675
G1 X149.573 Y46.09 E.01189
G1 X138.831 Y35.348 E.47683
G1 X138.377 Y35.428 E.01446
G1 X149.33 Y46.381 E.48616
G1 X149.086 Y46.671 E.01189
G1 X137.924 Y35.508 E.4955
G1 X137.47 Y35.589 E.01446
G1 X148.842 Y46.961 E.50483
G1 X148.599 Y47.251 E.01189
G1 X137.016 Y35.669 E.51416
G1 X136.562 Y35.749 E.01446
G1 X148.355 Y47.542 E.5235
G1 X148.112 Y47.832 E.01189
G1 X136.108 Y35.829 E.53283
G1 X135.654 Y35.909 E.01446
G1 X147.868 Y48.122 E.54216
G1 X147.625 Y48.413 E.01189
M73 P4 R57
G1 X135.201 Y35.989 E.5515
G1 X134.747 Y36.069 E.01446
G1 X147.381 Y48.703 E.56083
G1 X147.137 Y48.993 E.01189
G1 X134.293 Y36.149 E.57016
G1 X133.839 Y36.229 E.01446
G1 X146.894 Y49.283 E.5795
G1 X146.65 Y49.574 E.01189
G1 X133.385 Y36.309 E.58883
