; generated by PrusaSlicer 2.5.2+win64 on 2023-05-07 at 17:00:28 UTC


;
;

;
;
; 

; external perimeters extrusion width = 0.45mm
; perimeters extrusion width = 0.45mm
; infill extrusion width = 0.45mm
; solid infill extrusion width = 0.45mm
; top infill extrusion width = 0.40mm
; first layer extrusion width = 0.42mm

M73 P0 R60
M201 X2500 Y2500 Z400 E5000 ; sets maximum accelerations, mm/sec^2
M203 X180 Y180 Z12 E80 ; sets maximum feedrates, mm / sec
M204 P2000 R1250 T2500 ; sets acceleration (P, T) and retract acceleration (R), mm/sec^2
M205 X8.00 Y8.00 Z2.00 E10.00 ; sets the jerk limits, mm/sec
M205 S0 T0 ; sets the minimum extruding and travel feed rate, mm/sec
M107
;TYPE:Custom
M862.3 P "MINI" ; printer model check
G90 ; use absolute coordinates
M83 ; extruder relative mode
M104 S170 ; set extruder temp for bed leveling
M140 S60 ; set bed temp
M109 R170 ; wait for bed leveling temp
M190 S60 ; wait for bed temp
M204 T1250 ; set travel acceleration
G28 ; home all without mesh bed level
G29 ; mesh bed leveling 
M204 T2500 ; restore travel acceleration
M104 S215 ; set extruder temp
G92 E0
G1 Y-2 X179 F2400
G1 Z3 F720
M109 S215 ; wait for extruder temp

; intro line
G1 X170 F1000
G1 Z0.2 F720
G1 X110 E8 F900
G1 X40 E10 F700
G92 E0

M221 S95 ; set flow
G21 ; set units to millimeters
G90 ; use absolute coordinates
M83 ; use relative distances for extrusion
M900 K0.2 ; Filament gcode LA 1.5
; ; Filament gcode LA 1.0
M107
;LAYER_CHANGE
;Z:0.2
;HEIGHT:0.2
;BEFORE_LAYER_CHANGE
G92 E0.0
;0.2


G1 E-3.2 F4200
G1 Z.2 F720
;AFTER_LAYER_CHANGE
;0.2
G1 Z.4
G1 X27.839 Y31.636 F9000
G1 Z.2 F720
G1 E3.2 F2400
M204 P600
;TYPE:Skirt/Brim
;WIDTH:0.42
G1 F1200
G1 X56.768 Y6.179 E1.20823
G1 X57.613 Y5.672 E.03089
G1 X58.462 Y5.505 E.02713
G1 X117.05 Y4.131 E1.83752
G1 X117.878 Y4.285 E.02641
G1 X118.636 Y4.702 E.02713
G1 X164.29 Y41.216 E1.83297
G1 X164.936 Y41.96 E.03089
G1 X165.248 Y42.767 E.02713
G1 X176.751 Y100.084 E1.83297
G1 X176.768 Y101.069 E.03088
G1 X176.488 Y101.888 E.02714
G1 X148.456 Y153.189 E1.83297
G1 X147.836 Y153.955 E.03088
G1 X147.095 Y154.402 E.02714
G1 X92.646 Y175.683 E1.83297
G1 X92.075 Y175.838 E.01856
G1 X91.233 Y175.836 E.0264
G1 X35.435 Y157.04 E1.84611
G1 X34.573 Y156.562 E.03089
G1 X34.004 Y155.91 E.02713
G1 X3.592 Y105.984 E1.83297
G1 X3.239 Y105.064 E.03089
M73 P1 R60
G1 X3.222 Y104.199 E.02713
G1 X12.017 Y46.404 E1.83297
G1 X12.338 Y45.473 E.03089
G1 X12.881 Y44.799 E.02713
G1 X27.794 Y31.676 E.62286
M204 P1000
; printing object star2.stl id:0 copy 0
G1 E-2.24 F4200
;WIPE_START
G1 F7200
G1 X29.03 Y30.588 E-.912
;WIPE_END
G1 E-.048 F4200
G1 Z.4 F720
G1 X83.286 Y101.614 F9000
G1 Z.2 F720
G1 E3.2 F2400
M204 P600
;TYPE:Perimeter
;WIDTH:0.419999
G1 F1200
G1 X83.249 Y101.581 E.00156
G1 X82.792 Y101.377 E.01569
G1 X82.508 Y101.331 E.00902
G1 X82.273 Y101.409 E.00778
G1 X82.095 Y101.578 E.00767
G1 X67.016 Y123.926 E.8453
G1 X53.528 Y132.529 E.50159
M73 P1 R59
G1 X53.286 Y132.737 E.01001
G1 X44.501 Y143.579 E.43754
;WIDTH:0.464661
G1 X44.42 Y143.642 E.00359
;WIDTH:0.509323
G1 X44.34 Y143.706 E.00397
;WIDTH:0.553985
G1 X44.26 Y143.769 E.00435
;WIDTH:0.598646
G1 X44.18 Y143.833 E.00473
G1 X43.739 Y144.414 E.03371
;WIDTH:0.551732
G1 X43.298 Y144.995 E.03086
;WIDTH:0.504818
G1 X42.858 Y145.576 E.02802
;WIDTH:0.457903
G1 X42.417 Y146.158 E.02517
;WIDTH:0.410989
G1 X41.976 Y146.739 E.02233
;WIDTH:0.409038
G1 X41.917 Y146.776 E.00214
;WIDTH:0.454002
G1 X41.857 Y146.814 E.0024
;WIDTH:0.498966
G1 X41.798 Y146.851 E.00266
;WIDTH:0.54393
G1 X41.739 Y146.889 E.00293
;WIDTH:0.588894
G1 X41.679 Y146.927 E.00319
;WIDTH:0.633858
G1 X41.62 Y146.964 E.00345
G1 X41.636 Y146.896 E.00345
;WIDTH:0.588894
G1 X41.651 Y146.827 E.00319
;WIDTH:0.54393
G1 X41.667 Y146.759 E.00293
;WIDTH:0.498966
G1 X41.683 Y146.69 E.00266
;WIDTH:0.454002
G1 X41.699 Y146.622 E.0024
;WIDTH:0.409038
G1 X41.715 Y146.553 E.00214
;WIDTH:0.410989
G1 X42.117 Y145.945 E.02233
;WIDTH:0.457903
G1 X42.52 Y145.337 E.02517
;WIDTH:0.504818
G1 X42.922 Y144.728 E.02802
;WIDTH:0.551732
G1 X43.325 Y144.12 E.03086
;WIDTH:0.598646
G1 X43.727 Y143.512 E.03371
G1 X43.761 Y143.415 E.00473
;WIDTH:0.553985
G1 X43.794 Y143.318 E.00435
;WIDTH:0.509323
G1 X43.828 Y143.222 E.00397
;WIDTH:0.464661
G1 X43.861 Y143.125 E.00359
;WIDTH:0.419999
G1 X51.668 Y130.461 E.46647
G1 X65.356 Y120.819 E.52497
G1 X65.641 Y120.537 E.01254
G1 X79.555 Y98.624 E.81389
G1 X79.615 Y98.499 E.00435
G1 X79.638 Y98.242 E.00808
G1 X79.534 Y97.987 E.00864
G1 X79.191 Y97.622 E.01569
G1 X79.03 Y97.506 E.00624
G1 X78.752 Y97.45 E.00889
G1 X78.499 Y97.526 E.00829
G1 X66.954 Y104.241 E.41876
G1 X66.626 Y104.523 E.01356
G1 X60.811 Y112.664 E.31368
;WIDTH:0.464248
G1 X60.735 Y112.732 E.00358
;WIDTH:0.508497
G1 X60.659 Y112.8 E.00395
;WIDTH:0.552746
G1 X60.583 Y112.868 E.00433
;WIDTH:0.596995
G1 X60.508 Y112.937 E.0047
G1 X60.219 Y113.38 E.02435
;WIDTH:0.551485
G1 X59.931 Y113.822 E.02235
;WIDTH:0.505974
G1 X59.643 Y114.265 E.02035
;WIDTH:0.460463
G1 X59.354 Y114.708 E.01835
;WIDTH:0.414952
G1 X59.066 Y115.151 E.01635
;WIDTH:0.41241
G1 X59.01 Y115.192 E.00214
;WIDTH:0.455379
G1 X58.954 Y115.234 E.00239
;WIDTH:0.498348
G1 X58.898 Y115.276 E.00264
;WIDTH:0.541317
G1 X58.842 Y115.317 E.00289
;WIDTH:0.584286
G1 X58.786 Y115.359 E.00314
;WIDTH:0.627254
G1 X58.729 Y115.4 E.00339
G1 X58.739 Y115.331 E.00339
;WIDTH:0.584286
G1 X58.748 Y115.262 E.00314
;WIDTH:0.541317
G1 X58.758 Y115.193 E.00289
;WIDTH:0.498348
G1 X58.767 Y115.124 E.00264
;WIDTH:0.455379
G1 X58.777 Y115.054 E.00239
;WIDTH:0.41241
G1 X58.786 Y114.985 E.00214
;WIDTH:0.414952
G1 X59.035 Y114.519 E.01635
;WIDTH:0.460463
G1 X59.285 Y114.053 E.01835
;WIDTH:0.505974
G1 X59.534 Y113.587 E.02035
;WIDTH:0.551485
G1 X59.783 Y113.122 E.02235
;WIDTH:0.596995
G1 X60.032 Y112.656 E.02435
G1 X60.056 Y112.556 E.0047
;WIDTH:0.552746
G1 X60.079 Y112.457 E.00433
;WIDTH:0.508497
G1 X60.102 Y112.357 E.00395
;WIDTH:0.464248
G1 X60.125 Y112.258 E.00358
;WIDTH:0.419999
G1 X64.52 Y103.119 E.31796
G1 X75.677 Y94.895 E.43459
G1 X75.819 Y94.742 E.00654
G1 X75.904 Y94.492 E.00829
G1 X75.868 Y94.234 E.00818
G1 X75.649 Y93.784 E.01569
G1 X75.461 Y93.567 E.00902
G1 X75.23 Y93.475 E.00778
G1 X74.986 Y93.49 E.00767
G1 X49.069 Y100.917 E.8453
G1 X33.207 Y98.838 E.50159
G1 X32.888 Y98.841 E.01
G1 X19.189 Y101.499 E.43754
;WIDTH:0.464661
G1 X19.087 Y101.496 E.00359
;WIDTH:0.509322
G1 X18.985 Y101.493 E.00397
;WIDTH:0.553984
G1 X18.883 Y101.49 E.00435
;WIDTH:0.598645
G1 X18.78 Y101.488 E.00473
G1 X18.069 Y101.649 E.03371
;WIDTH:0.551731
G1 X17.358 Y101.811 E.03086
;WIDTH:0.504817
G1 X16.646 Y101.973 E.02802
;WIDTH:0.457903
G1 X15.935 Y102.135 E.02517
;WIDTH:0.410989
G1 X15.224 Y102.297 E.02233
;WIDTH:0.409038
G1 X15.154 Y102.288 E.00214
;WIDTH:0.454002
G1 X15.085 Y102.278 E.0024
;WIDTH:0.498966
G1 X15.015 Y102.269 E.00266
;WIDTH:0.54393
G1 X14.946 Y102.26 E.00293
;WIDTH:0.588894
G1 X14.876 Y102.25 E.00319
;WIDTH:0.633858
G1 X14.806 Y102.241 E.00345
G1 X14.862 Y102.199 E.00345
;WIDTH:0.588894
G1 X14.919 Y102.156 E.00319
;WIDTH:0.54393
G1 X14.975 Y102.114 E.00293
;WIDTH:0.498966
G1 X15.031 Y102.072 E.00266
;WIDTH:0.454002
G1 X15.087 Y102.029 E.0024
;WIDTH:0.409038
G1 X15.143 Y101.987 E.00214
;WIDTH:0.410989
G1 X15.842 Y101.78 E.02233
;WIDTH:0.457903
G1 X16.542 Y101.573 E.02517
;WIDTH:0.504817
G1 X17.241 Y101.365 E.02802
;WIDTH:0.551731
G1 X17.94 Y101.158 E.03086
;WIDTH:0.598645
G1 X18.64 Y100.951 E.03371
G1 X18.728 Y100.898 E.00473
;WIDTH:0.553984
G1 X18.815 Y100.846 E.00435
;WIDTH:0.509322
G1 X18.903 Y100.793 E.00397
;WIDTH:0.464661
G1 X18.991 Y100.741 E.00359
;WIDTH:0.419999
G1 X33.112 Y96.058 E.46647
G1 X49.795 Y97.47 E.52497
G1 X50.194 Y97.437 E.01254
G1 X74.939 Y89.595 E.81389
G1 X75.065 Y89.537 E.00435
G1 X75.248 Y89.355 E.00808
G1 X75.332 Y89.095 E.00857
G1 X75.303 Y88.593 E.01576
G1 X75.255 Y88.4 E.00624
G1 X75.078 Y88.179 E.00889
G1 X74.836 Y88.074 E.00829
G1 X61.675 Y85.798 E.41876
G1 X61.243 Y85.802 E.01356
G1 X51.556 Y88.301 E.31368
;WIDTH:0.464249
G1 X51.454 Y88.305 E.00358
;WIDTH:0.508498
G1 X51.352 Y88.308 E.00395
;WIDTH:0.552748
G1 X51.25 Y88.312 E.00433
;WIDTH:0.596997
G1 X51.148 Y88.315 E.0047
G1 X50.642 Y88.469 E.02435
;WIDTH:0.551487
G1 X50.137 Y88.623 E.02235
;WIDTH:0.505976
G1 X49.631 Y88.777 E.02035
;WIDTH:0.460466
G1 X49.126 Y88.931 E.01835
;WIDTH:0.414955
G1 X48.62 Y89.085 E.01635
;WIDTH:0.412413
G1 X48.55 Y89.08 E.00214
;WIDTH:0.455382
G1 X48.481 Y89.076 E.00239
;WIDTH:0.498351
G1 X48.411 Y89.072 E.00264
;WIDTH:0.54132
G1 X48.341 Y89.068 E.00289
;WIDTH:0.584289
G1 X48.272 Y89.064 E.00314
;WIDTH:0.627258
G1 X48.202 Y89.059 E.00339
G1 X48.254 Y89.012 E.00339
;WIDTH:0.584289
G1 X48.305 Y88.966 E.00314
;WIDTH:0.54132
G1 X48.357 Y88.919 E.00289
;WIDTH:0.498351
G1 X48.409 Y88.872 E.00264
;WIDTH:0.455382
G1 X48.46 Y88.825 E.00239
;WIDTH:0.412413
G1 X48.512 Y88.778 E.00214
;WIDTH:0.414955
G1 X49.002 Y88.581 E.01635
;WIDTH:0.460466
G1 X49.493 Y88.384 E.01835
;WIDTH:0.505976
G1 X49.983 Y88.188 E.02035
;WIDTH:0.551487
G1 X50.474 Y87.991 E.02235
;WIDTH:0.596997
G1 X50.964 Y87.794 E.02435
G1 X51.046 Y87.733 E.0047
;WIDTH:0.552748
G1 X51.128 Y87.672 E.00433
;WIDTH:0.508498
G1 X51.209 Y87.611 E.00395
;WIDTH:0.464249
G1 X51.291 Y87.55 E.00358
;WIDTH:0.419999
G1 X60.532 Y83.373 E.31796
G1 X74.365 Y84.245 E.43459
G1 X74.572 Y84.219 E.00654
G1 X74.798 Y84.083 E.00829
G1 X74.937 Y83.861 E.00818
G1 X75.058 Y83.376 E.01569
G1 X75.053 Y83.088 E.00902
G1 X74.935 Y82.87 E.00778
G1 X74.739 Y82.724 E.00767
G1 X50.112 Y71.755 E.8453
G1 X39.297 Y59.967 E.50159
G1 X39.051 Y59.764 E.01
G1 X26.848 Y52.995 E.43754
;WIDTH:0.464661
G1 X26.771 Y52.927 E.00359
;WIDTH:0.509322
G1 X26.695 Y52.859 E.00397
;WIDTH:0.553983
G1 X26.618 Y52.791 E.00435
;WIDTH:0.598644
G1 X26.542 Y52.723 E.00473
G1 X25.893 Y52.39 E.03371
;WIDTH:0.55173
G1 X25.244 Y52.056 E.03086
;WIDTH:0.504816
G1 X24.595 Y51.723 E.02802
;WIDTH:0.457901
G1 X23.946 Y51.39 E.02517
;WIDTH:0.410987
G1 X23.297 Y51.057 E.02233
;WIDTH:0.409036
G1 X23.25 Y51.005 E.00214
;WIDTH:0.454
G1 X23.203 Y50.953 E.0024
;WIDTH:0.498964
G1 X23.155 Y50.901 E.00266
;WIDTH:0.543928
G1 X23.108 Y50.849 E.00293
;WIDTH:0.588892
G1 X23.061 Y50.797 E.00319
;WIDTH:0.633856
G1 X23.014 Y50.745 E.00345
G1 X23.084 Y50.749 E.00345
;WIDTH:0.588892
G1 X23.154 Y50.753 E.00319
;WIDTH:0.543928
G1 X23.224 Y50.756 E.00293
;WIDTH:0.498964
G1 X23.294 Y50.76 E.00266
;WIDTH:0.454
G1 X23.364 Y50.764 E.0024
;WIDTH:0.409036
G1 X23.434 Y50.767 E.00214
;WIDTH:0.410987
G1 X24.103 Y51.058 E.02233
;WIDTH:0.457901
G1 X24.772 Y51.349 E.02517
;WIDTH:0.504816
G1 X25.441 Y51.64 E.02802
;WIDTH:0.55173
G1 X26.11 Y51.931 E.03086
;WIDTH:0.598644
G1 X26.779 Y52.222 E.03371
G1 X26.88 Y52.238 E.00473
;WIDTH:0.553983
G1 X26.981 Y52.254 E.00435
;WIDTH:0.509322
G1 X27.082 Y52.27 E.00397
;WIDTH:0.464661
G1 X27.183 Y52.286 E.00359
;WIDTH:0.419999
G1 X41.011 Y57.776 E.46647
G1 X52.883 Y69.581 E.52497
G1 X53.21 Y69.812 E.01254
G1 X77.207 Y79.71 E.81389
G1 X77.34 Y79.747 E.00435
G1 X77.597 Y79.725 E.00808
G1 X77.831 Y79.579 E.00864
G1 X78.13 Y79.177 E.01569
G1 X78.217 Y78.999 E.00624
G1 X78.223 Y78.715 E.00889
G1 X78.105 Y78.479 E.00829
G1 X69.487 Y68.276 E.41876
G1 X69.152 Y68.001 E.01356
G1 X60.125 Y63.689 E.31368
;WIDTH:0.464248
G1 X60.045 Y63.626 E.00358
;WIDTH:0.508496
G1 X59.965 Y63.563 E.00395
;WIDTH:0.552745
G1 X59.884 Y63.5 E.00433
;WIDTH:0.596993
G1 X59.804 Y63.437 E.0047
G1 X59.318 Y63.23 E.02435
;WIDTH:0.551483
G1 X58.831 Y63.023 E.02235
;WIDTH:0.505972
G1 X58.345 Y62.816 E.02035
;WIDTH:0.460461
G1 X57.859 Y62.609 E.01835
;WIDTH:0.41495
G1 X57.373 Y62.402 E.01635
;WIDTH:0.412408
G1 X57.322 Y62.354 E.00214
;WIDTH:0.455377
G1 X57.272 Y62.306 E.00239
;WIDTH:0.498346
G1 X57.221 Y62.258 E.00264
;WIDTH:0.541315
G1 X57.17 Y62.21 E.00289
;WIDTH:0.584284
G1 X57.12 Y62.162 E.00314
;WIDTH:0.627252
G1 X57.069 Y62.114 E.00339
G1 X57.139 Y62.111 E.00339
;WIDTH:0.584284
G1 X57.208 Y62.109 E.00314
;WIDTH:0.541315
G1 X57.278 Y62.106 E.00289
;WIDTH:0.498346
G1 X57.348 Y62.103 E.00264
;WIDTH:0.455377
G1 X57.418 Y62.1 E.00239
;WIDTH:0.412408
G1 X57.487 Y62.098 E.00214
;WIDTH:0.41495
G1 X57.99 Y62.262 E.01635
;WIDTH:0.460461
G1 X58.492 Y62.427 E.01835
;WIDTH:0.505972
G1 X58.994 Y62.592 E.02035
;WIDTH:0.551483
G1 X59.496 Y62.756 E.02235
;WIDTH:0.596993
G1 X59.998 Y62.921 E.02435
G1 X60.1 Y62.926 E.0047
;WIDTH:0.552745
G1 X60.202 Y62.932 E.00433
;WIDTH:0.508496
G1 X60.304 Y62.938 E.00395
;WIDTH:0.464248
G1 X60.406 Y62.943 E.00358
;WIDTH:0.419999
G1 X70.169 Y65.684 E.31796
G1 X80.206 Y75.243 E.43459
G1 X80.381 Y75.357 E.00654
G1 X80.642 Y75.398 E.00829
G1 X80.89 Y75.317 E.00818
G1 X81.295 Y75.023 E.01569
G1 X81.476 Y74.8 E.00902
G1 X81.526 Y74.557 E.00778
G1 X81.469 Y74.319 E.00767
G1 X69.655 Y50.086 E.8453
G1 X68.948 Y34.104 E.50159
M73 P2 R59
G1 X68.89 Y33.79 E.01001
G1 X63.893 Y20.761 E.43753
;WIDTH:0.464661
G1 X63.878 Y20.66 E.00359
;WIDTH:0.509323
G1 X63.863 Y20.558 E.00397
;WIDTH:0.553985
G1 X63.848 Y20.457 E.00435
;WIDTH:0.598646
G1 X63.833 Y20.356 E.00473
G1 X63.55 Y19.684 E.03371
;WIDTH:0.551732
G1 X63.267 Y19.011 E.03086
;WIDTH:0.504818
G1 X62.984 Y18.339 E.02802
;WIDTH:0.457903
G1 X62.701 Y17.667 E.02517
;WIDTH:0.410989
G1 X62.418 Y16.994 E.02233
;WIDTH:0.409038
G1 X62.415 Y16.924 E.00214
;WIDTH:0.454002
G1 X62.413 Y16.854 E.0024
;WIDTH:0.498966
G1 X62.41 Y16.784 E.00266
;WIDTH:0.54393
G1 X62.407 Y16.714 E.00293
;WIDTH:0.588894
G1 X62.404 Y16.643 E.00319
;WIDTH:0.633858
G1 X62.401 Y16.573 E.00345
G1 X62.453 Y16.621 E.00345
;WIDTH:0.588894
G1 X62.504 Y16.669 E.00319
;WIDTH:0.54393
G1 X62.555 Y16.717 E.00293
;WIDTH:0.498966
G1 X62.607 Y16.765 E.00266
;WIDTH:0.454002
G1 X62.658 Y16.813 E.0024
;WIDTH:0.409038
G1 X62.71 Y16.86 E.00214
;WIDTH:0.410989
G1 X63.035 Y17.513 E.02233
;WIDTH:0.457903
G1 X63.361 Y18.166 E.02517
;WIDTH:0.504818
G1 X63.686 Y18.819 E.02802
;WIDTH:0.551732
G1 X64.012 Y19.472 E.03086
;WIDTH:0.598646
G1 X64.337 Y20.125 E.03371
G1 X64.404 Y20.202 E.00473
;WIDTH:0.553985
G1 X64.471 Y20.279 E.00435
;WIDTH:0.509323
G1 X64.538 Y20.356 E.00397
;WIDTH:0.464661
G1 X64.605 Y20.433 E.00359
;WIDTH:0.419999
G1 X71.669 Y33.527 E.46647
G1 X73.175 Y50.202 E.52497
G1 X73.277 Y50.589 E.01254
G1 X85.297 Y73.596 E.81389
G1 X85.376 Y73.71 E.00435
G1 X85.587 Y73.859 E.00808
G1 X85.86 Y73.897 E.00864
G1 X86.347 Y73.781 E.01569
G1 X86.529 Y73.7 E.00623
G1 X86.716 Y73.488 E.00889
G1 X86.777 Y73.23 E.00829
G1 X86.733 Y59.875 E.41876
G1 X86.654 Y59.45 E.01356
G1 X82.51 Y50.344 E.31368
;WIDTH:0.464248
G1 X82.489 Y50.244 E.00358
;WIDTH:0.508497
G1 X82.468 Y50.144 E.00395
;WIDTH:0.552746
G1 X82.447 Y50.044 E.00433
;WIDTH:0.596995
G1 X82.426 Y49.944 E.0047
G1 X82.187 Y49.473 E.02435
;WIDTH:0.551485
G1 X81.947 Y49.002 E.02235
;WIDTH:0.505974
G1 X81.708 Y48.531 E.02035
;WIDTH:0.460464
G1 X81.469 Y48.06 E.01835
;WIDTH:0.414953
G1 X81.229 Y47.589 E.01635
;WIDTH:0.412411
G1 X81.221 Y47.519 E.00214
;WIDTH:0.45538
G1 X81.213 Y47.45 E.00239
;WIDTH:0.498348
G1 X81.205 Y47.381 E.00264
;WIDTH:0.541317
G1 X81.197 Y47.311 E.00289
;WIDTH:0.584286
G1 X81.189 Y47.242 E.00314
;WIDTH:0.627254
G1 X81.182 Y47.172 E.00339
G1 X81.237 Y47.215 E.00339
;WIDTH:0.584286
G1 X81.292 Y47.258 E.00314
;WIDTH:0.541317
G1 X81.347 Y47.301 E.00289
;WIDTH:0.498348
G1 X81.402 Y47.343 E.00264
;WIDTH:0.45538
G1 X81.457 Y47.386 E.00239
;WIDTH:0.412411
G1 X81.513 Y47.429 E.00214
;WIDTH:0.414953
G1 X81.792 Y47.878 E.01635
;WIDTH:0.460464
G1 X82.07 Y48.327 E.01835
;WIDTH:0.505974
G1 X82.349 Y48.775 E.02035
;WIDTH:0.551485
G1 X82.628 Y49.224 E.02235
;WIDTH:0.596995
G1 X82.907 Y49.673 E.02435
G1 X82.981 Y49.743 E.0047
;WIDTH:0.552746
G1 X83.056 Y49.813 E.00433
;WIDTH:0.508497
G1 X83.13 Y49.883 E.00395
;WIDTH:0.464248
G1 X83.205 Y49.952 E.00358
;WIDTH:0.419999
G1 X88.922 Y58.328 E.31796
G1 X90.466 Y72.102 E.43459
G1 X90.527 Y72.301 E.00654
G1 X90.701 Y72.501 E.00829
G1 X90.943 Y72.598 E.00818
G1 X91.442 Y72.633 E.01568
G1 X91.724 Y72.579 E.00902
G1 X91.919 Y72.425 E.00778
G1 X92.028 Y72.206 E.00767
G1 X98.555 Y46.048 E.8453
G1 X108.286 Y33.351 E.50159
G1 X108.443 Y33.073 E.01
G1 X112.99 Y19.88 E.43754
;WIDTH:0.46466
G1 X113.044 Y19.793 E.00359
;WIDTH:0.509321
